N0010 (Filename: 2000x6000.tap)
N0020 (Post processor: PLAZMAKROY_XYZ_v1.scpost)
N0030 (Date: 11.11.2020)
N0040 G21 
N0050 G40 G54 G90 G49 G80 G91.1
N0060 F1000
N0070 S500
N0080 G00 X0.000 Y294.031
N0100 G01 X335.583 Y0.000 F12000.0
N0110 X0.000 Y685.370 Z80
N0120 X682.896 Y0.000  Z0
N0130 X0.000 Y1115.842 Z80
N0140 X971.508 Y0.000 Z0
N0150 X0.000 Y1482.722 Z80 
N0160 X1460.681 Y0.000 Z0
N0170 X0.000 Y1756.659 Z80
N0180 X1773.752 Y0.000 Z0
N0190 X0.000 Y2000.000 Z80
N0200 X2155.307 Y0.000 Z0
N0210 X485.754 Y2000.000 Z80
N0220 X2683.615 Y0.000 Z0
N0230 X1255.229 Y2000.000 Z80
N0240 X3167.896 Y0.000 Z0
N0250 X1842.237 Y2000.000 Z80
N0260 X3569.018 Y0.000 Z0
N0270 X2505.066 Y2000.000 Z80
N0280 X4058.191 Y0.000 Z0
N0290 X3000.000 Y2000.000 Z80
N0300 X4684.333 Y0.000 Z0
N0310 X4058.191 Y2000.000 Z80
N0320 X5359.392 Y0.000 Z0
N0330 X4708.792 Y2000.000 Z80
N0340 X5736.056 Y0.000 Z0
N0350 X5034.092 Y2000.000 Z80
N0360 X6000.000 Y0.000 Z0
N0370 X5359.392 Y2000.000 Z80
N0380 X6000.000 Y741.361 Z0
N0390 X5517.046 Y2000.000 Z80
N0400 X6000.000 Y1291.945 Z0
N0410 X5758.523 Y2000.000 Z80
N0420 X6000.000 Y1756.659 Z0
N0430 X5879.261 Y2000.000 Z80
N0450 G00 X6000.000 Z0
N0470 G01 Y0.000 Z80
N0480 X0.000 Z0
N0490 Y2000.000 Z80
N0500 X6000.000 Z0
N0010 (Filename: 2000x6000.tap)
N0020 (Post processor: PLAZMAKROY_XYZ_v1.scpost)
N0030 (Date: 11.11.2020)
N0040 G21 
N0050 G40 G54 G90 G49 G80 G91.1
N0060 F1000
N0070 S500
N0080 G00 X0.000 Y294.031
N0100 G01 X335.583 Y0.000 F12000.0
N0110 X0.000 Y685.370 Z80
N0120 X682.896 Y0.000  Z0
N0130 X0.000 Y1115.842 Z80
N0140 X971.508 Y0.000 Z0
N0150 X0.000 Y1482.722 Z80 
N0160 X1460.681 Y0.000 Z0
N0170 X0.000 Y1756.659 Z80
N0180 X1773.752 Y0.000 Z0
N0190 X0.000 Y2000.000 Z80
N0200 X2155.307 Y0.000 Z0
N0210 X485.754 Y2000.000 Z80
N0220 X2683.615 Y0.000 Z0
N0230 X1255.229 Y2000.000 Z80
N0240 X3167.896 Y0.000 Z0
N0250 X1842.237 Y2000.000 Z80
N0260 X3569.018 Y0.000 Z0
N0270 X2505.066 Y2000.000 Z80
N0280 X4058.191 Y0.000 Z0
N0290 X3000.000 Y2000.000 Z80
N0300 X4684.333 Y0.000 Z0
N0310 X4058.191 Y2000.000 Z80
N0320 X5359.392 Y0.000 Z0
N0330 X4708.792 Y2000.000 Z80
N0340 X5736.056 Y0.000 Z0
N0350 X5034.092 Y2000.000 Z80
N0360 X6000.000 Y0.000 Z0
N0370 X5359.392 Y2000.000 Z80
N0380 X6000.000 Y741.361 Z0
N0390 X5517.046 Y2000.000 Z80
N0400 X6000.000 Y1291.945 Z0
N0410 X5758.523 Y2000.000 Z80
N0420 X6000.000 Y1756.659 Z0
N0430 X5879.261 Y2000.000 Z80
N0450 G00 X6000.000 Z0
N0470 G01 Y0.000 Z80
N0480 X0.000 Z0
N0490 Y2000.000 Z80
N0500 X6000.000 Z0
N0010 (Filename: 2000x6000.tap)
N0020 (Post processor: PLAZMAKROY_XYZ_v1.scpost)
N0030 (Date: 11.11.2020)
N0040 G21 
N0050 G40 G54 G90 G49 G80 G91.1
N0060 F1000
N0070 S500
N0080 G00 X0.000 Y294.031
N0100 G01 X335.583 Y0.000 F12000.0
N0110 X0.000 Y685.370 Z80
N0120 X682.896 Y0.000  Z0
N0130 X0.000 Y1115.842 Z80
N0140 X971.508 Y0.000 Z0
N0150 X0.000 Y1482.722 Z80 
N0160 X1460.681 Y0.000 Z0
N0170 X0.000 Y1756.659 Z80
N0180 X1773.752 Y0.000 Z0
N0190 X0.000 Y2000.000 Z80
N0200 X2155.307 Y0.000 Z0
N0210 X485.754 Y2000.000 Z80
N0220 X2683.615 Y0.000 Z0
N0230 X1255.229 Y2000.000 Z80
N0240 X3167.896 Y0.000 Z0
N0250 X1842.237 Y2000.000 Z80
N0260 X3569.018 Y0.000 Z0
N0270 X2505.066 Y2000.000 Z80
N0280 X4058.191 Y0.000 Z0
N0290 X3000.000 Y2000.000 Z80
N0300 X4684.333 Y0.000 Z0
N0310 X4058.191 Y2000.000 Z80
N0320 X5359.392 Y0.000 Z0
N0330 X4708.792 Y2000.000 Z80
N0340 X5736.056 Y0.000 Z0
N0350 X5034.092 Y2000.000 Z80
N0360 X6000.000 Y0.000 Z0
N0370 X5359.392 Y2000.000 Z80
N0380 X6000.000 Y741.361 Z0
N0390 X5517.046 Y2000.000 Z80
N0400 X6000.000 Y1291.945 Z0
N0410 X5758.523 Y2000.000 Z80
N0420 X6000.000 Y1756.659 Z0
N0430 X5879.261 Y2000.000 Z80
N0450 G00 X6000.000 Z0
N0470 G01 Y0.000 Z80
N0480 X0.000 Z0
N0490 Y2000.000 Z80
N0500 X6000.000 Z0
N0010 (Filename: 2000x6000.tap)
N0020 (Post processor: PLAZMAKROY_XYZ_v1.scpost)
N0030 (Date: 11.11.2020)
N0040 G21 
N0050 G40 G54 G90 G49 G80 G91.1
N0060 F1000
N0070 S500
N0080 G00 X0.000 Y294.031
N0100 G01 X335.583 Y0.000 F12000.0
N0110 X0.000 Y685.370 Z80
N0120 X682.896 Y0.000  Z0
N0130 X0.000 Y1115.842 Z80
N0140 X971.508 Y0.000 Z0
N0150 X0.000 Y1482.722 Z80 
N0160 X1460.681 Y0.000 Z0
N0170 X0.000 Y1756.659 Z80
N0180 X1773.752 Y0.000 Z0
N0190 X0.000 Y2000.000 Z80
N0200 X2155.307 Y0.000 Z0
N0210 X485.754 Y2000.000 Z80
N0220 X2683.615 Y0.000 Z0
N0230 X1255.229 Y2000.000 Z80
N0240 X3167.896 Y0.000 Z0
N0250 X1842.237 Y2000.000 Z80
N0260 X3569.018 Y0.000 Z0
N0270 X2505.066 Y2000.000 Z80
N0280 X4058.191 Y0.000 Z0
N0290 X3000.000 Y2000.000 Z80
N0300 X4684.333 Y0.000 Z0
N0310 X4058.191 Y2000.000 Z80
N0320 X5359.392 Y0.000 Z0
N0330 X4708.792 Y2000.000 Z80
N0340 X5736.056 Y0.000 Z0
N0350 X5034.092 Y2000.000 Z80
N0360 X6000.000 Y0.000 Z0
N0370 X5359.392 Y2000.000 Z80
N0380 X6000.000 Y741.361 Z0
N0390 X5517.046 Y2000.000 Z80
N0400 X6000.000 Y1291.945 Z0
N0410 X5758.523 Y2000.000 Z80
N0420 X6000.000 Y1756.659 Z0
N0430 X5879.261 Y2000.000 Z80
N0450 G00 X6000.000 Z0
N0470 G01 Y0.000 Z80
N0480 X0.000 Z0
N0490 Y2000.000 Z80
N0500 X6000.000 Z0
N0010 (Filename: 2000x6000.tap)
N0020 (Post processor: PLAZMAKROY_XYZ_v1.scpost)
N0030 (Date: 11.11.2020)
N0040 G21 
N0050 G40 G54 G90 G49 G80 G91.1
N0060 F1000
N0070 S500
N0080 G00 X0.000 Y294.031
N0100 G01 X335.583 Y0.000 F12000.0
N0110 X0.000 Y685.370 Z80
N0120 X682.896 Y0.000  Z0
N0130 X0.000 Y1115.842 Z80
N0140 X971.508 Y0.000 Z0
N0150 X0.000 Y1482.722 Z80 
N0160 X1460.681 Y0.000 Z0
N0170 X0.000 Y1756.659 Z80
N0180 X1773.752 Y0.000 Z0
N0190 X0.000 Y2000.000 Z80
N0200 X2155.307 Y0.000 Z0
N0210 X485.754 Y2000.000 Z80
N0220 X2683.615 Y0.000 Z0
N0230 X1255.229 Y2000.000 Z80
N0240 X3167.896 Y0.000 Z0
N0250 X1842.237 Y2000.000 Z80
N0260 X3569.018 Y0.000 Z0
N0270 X2505.066 Y2000.000 Z80
N0280 X4058.191 Y0.000 Z0
N0290 X3000.000 Y2000.000 Z80
N0300 X4684.333 Y0.000 Z0
N0310 X4058.191 Y2000.000 Z80
N0320 X5359.392 Y0.000 Z0
N0330 X4708.792 Y2000.000 Z80
N0340 X5736.056 Y0.000 Z0
N0350 X5034.092 Y2000.000 Z80
N0360 X6000.000 Y0.000 Z0
N0370 X5359.392 Y2000.000 Z80
N0380 X6000.000 Y741.361 Z0
N0390 X5517.046 Y2000.000 Z80
N0400 X6000.000 Y1291.945 Z0
N0410 X5758.523 Y2000.000 Z80
N0420 X6000.000 Y1756.659 Z0
N0430 X5879.261 Y2000.000 Z80
N0450 G00 X6000.000 Z0
N0470 G01 Y0.000 Z80
N0480 X0.000 Z0
N0490 Y2000.000 Z80
N0500 X6000.000 Z0
N0010 (Filename: 2000x6000.tap)
N0020 (Post processor: PLAZMAKROY_XYZ_v1.scpost)
N0030 (Date: 11.11.2020)
N0040 G21 
N0050 G40 G54 G90 G49 G80 G91.1
N0060 F1000
N0070 S500
N0080 G00 X0.000 Y294.031
N0100 G01 X335.583 Y0.000 F12000.0
N0110 X0.000 Y685.370 Z80
N0120 X682.896 Y0.000  Z0
N0130 X0.000 Y1115.842 Z80
N0140 X971.508 Y0.000 Z0
N0150 X0.000 Y1482.722 Z80 
N0160 X1460.681 Y0.000 Z0
N0170 X0.000 Y1756.659 Z80
N0180 X1773.752 Y0.000 Z0
N0190 X0.000 Y2000.000 Z80
N0200 X2155.307 Y0.000 Z0
N0210 X485.754 Y2000.000 Z80
N0220 X2683.615 Y0.000 Z0
N0230 X1255.229 Y2000.000 Z80
N0240 X3167.896 Y0.000 Z0
N0250 X1842.237 Y2000.000 Z80
N0260 X3569.018 Y0.000 Z0
N0270 X2505.066 Y2000.000 Z80
N0280 X4058.191 Y0.000 Z0
N0290 X3000.000 Y2000.000 Z80
N0300 X4684.333 Y0.000 Z0
N0310 X4058.191 Y2000.000 Z80
N0320 X5359.392 Y0.000 Z0
N0330 X4708.792 Y2000.000 Z80
N0340 X5736.056 Y0.000 Z0
N0350 X5034.092 Y2000.000 Z80
N0360 X6000.000 Y0.000 Z0
N0370 X5359.392 Y2000.000 Z80
N0380 X6000.000 Y741.361 Z0
N0390 X5517.046 Y2000.000 Z80
N0400 X6000.000 Y1291.945 Z0
N0410 X5758.523 Y2000.000 Z80
N0420 X6000.000 Y1756.659 Z0
N0430 X5879.261 Y2000.000 Z80
N0450 G00 X6000.000 Z0
N0470 G01 Y0.000 Z80
N0480 X0.000 Z0
N0490 Y2000.000 Z80
N0500 X6000.000 Z0
N0010 (Filename: 2000x6000.tap)
N0020 (Post processor: PLAZMAKROY_XYZ_v1.scpost)
N0030 (Date: 11.11.2020)
N0040 G21 
N0050 G40 G54 G90 G49 G80 G91.1
N0060 F1000
N0070 S500
N0080 G00 X0.000 Y294.031
N0100 G01 X335.583 Y0.000 F12000.0
N0110 X0.000 Y685.370 Z80
N0120 X682.896 Y0.000  Z0
N0130 X0.000 Y1115.842 Z80
N0140 X971.508 Y0.000 Z0
N0150 X0.000 Y1482.722 Z80 
N0160 X1460.681 Y0.000 Z0
N0170 X0.000 Y1756.659 Z80
N0180 X1773.752 Y0.000 Z0
N0190 X0.000 Y2000.000 Z80
N0200 X2155.307 Y0.000 Z0
N0210 X485.754 Y2000.000 Z80
N0220 X2683.615 Y0.000 Z0
N0230 X1255.229 Y2000.000 Z80
N0240 X3167.896 Y0.000 Z0
N0250 X1842.237 Y2000.000 Z80
N0260 X3569.018 Y0.000 Z0
N0270 X2505.066 Y2000.000 Z80
N0280 X4058.191 Y0.000 Z0
N0290 X3000.000 Y2000.000 Z80
N0300 X4684.333 Y0.000 Z0
N0310 X4058.191 Y2000.000 Z80
N0320 X5359.392 Y0.000 Z0
N0330 X4708.792 Y2000.000 Z80
N0340 X5736.056 Y0.000 Z0
N0350 X5034.092 Y2000.000 Z80
N0360 X6000.000 Y0.000 Z0
N0370 X5359.392 Y2000.000 Z80
N0380 X6000.000 Y741.361 Z0
N0390 X5517.046 Y2000.000 Z80
N0400 X6000.000 Y1291.945 Z0
N0410 X5758.523 Y2000.000 Z80
N0420 X6000.000 Y1756.659 Z0
N0430 X5879.261 Y2000.000 Z80
N0450 G00 X6000.000 Z0
N0470 G01 Y0.000 Z80
N0480 X0.000 Z0
N0490 Y2000.000 Z80
N0500 X6000.000 Z0
N0010 (Filename: 2000x6000.tap)
N0020 (Post processor: PLAZMAKROY_XYZ_v1.scpost)
N0030 (Date: 11.11.2020)
N0040 G21 
N0050 G40 G54 G90 G49 G80 G91.1
N0060 F1000
N0070 S500
N0080 G00 X0.000 Y294.031
N0100 G01 X335.583 Y0.000 F12000.0
N0110 X0.000 Y685.370 Z80
N0120 X682.896 Y0.000  Z0
N0130 X0.000 Y1115.842 Z80
N0140 X971.508 Y0.000 Z0
N0150 X0.000 Y1482.722 Z80 
N0160 X1460.681 Y0.000 Z0
N0170 X0.000 Y1756.659 Z80
N0180 X1773.752 Y0.000 Z0
N0190 X0.000 Y2000.000 Z80
N0200 X2155.307 Y0.000 Z0
N0210 X485.754 Y2000.000 Z80
N0220 X2683.615 Y0.000 Z0
N0230 X1255.229 Y2000.000 Z80
N0240 X3167.896 Y0.000 Z0
N0250 X1842.237 Y2000.000 Z80
N0260 X3569.018 Y0.000 Z0
N0270 X2505.066 Y2000.000 Z80
N0280 X4058.191 Y0.000 Z0
N0290 X3000.000 Y2000.000 Z80
N0300 X4684.333 Y0.000 Z0
N0310 X4058.191 Y2000.000 Z80
N0320 X5359.392 Y0.000 Z0
N0330 X4708.792 Y2000.000 Z80
N0340 X5736.056 Y0.000 Z0
N0350 X5034.092 Y2000.000 Z80
N0360 X6000.000 Y0.000 Z0
N0370 X5359.392 Y2000.000 Z80
N0380 X6000.000 Y741.361 Z0
N0390 X5517.046 Y2000.000 Z80
N0400 X6000.000 Y1291.945 Z0
N0410 X5758.523 Y2000.000 Z80
N0420 X6000.000 Y1756.659 Z0
N0430 X5879.261 Y2000.000 Z80
N0450 G00 X6000.000 Z0
N0470 G01 Y0.000 Z80
N0480 X0.000 Z0
N0490 Y2000.000 Z80
N0500 X6000.000 Z0
N0010 (Filename: 2000x6000.tap)
N0020 (Post processor: PLAZMAKROY_XYZ_v1.scpost)
N0030 (Date: 11.11.2020)
N0040 G21 
N0050 G40 G54 G90 G49 G80 G91.1
N0060 F1000
N0070 S500
N0080 G00 X0.000 Y294.031
N0100 G01 X335.583 Y0.000 F12000.0
N0110 X0.000 Y685.370 Z80
N0120 X682.896 Y0.000  Z0
N0130 X0.000 Y1115.842 Z80
N0140 X971.508 Y0.000 Z0
N0150 X0.000 Y1482.722 Z80 
N0160 X1460.681 Y0.000 Z0
N0170 X0.000 Y1756.659 Z80
N0180 X1773.752 Y0.000 Z0
N0190 X0.000 Y2000.000 Z80
N0200 X2155.307 Y0.000 Z0
N0210 X485.754 Y2000.000 Z80
N0220 X2683.615 Y0.000 Z0
N0230 X1255.229 Y2000.000 Z80
N0240 X3167.896 Y0.000 Z0
N0250 X1842.237 Y2000.000 Z80
N0260 X3569.018 Y0.000 Z0
N0270 X2505.066 Y2000.000 Z80
N0280 X4058.191 Y0.000 Z0
N0290 X3000.000 Y2000.000 Z80
N0300 X4684.333 Y0.000 Z0
N0310 X4058.191 Y2000.000 Z80
N0320 X5359.392 Y0.000 Z0
N0330 X4708.792 Y2000.000 Z80
N0340 X5736.056 Y0.000 Z0
N0350 X5034.092 Y2000.000 Z80
N0360 X6000.000 Y0.000 Z0
N0370 X5359.392 Y2000.000 Z80
N0380 X6000.000 Y741.361 Z0
N0390 X5517.046 Y2000.000 Z80
N0400 X6000.000 Y1291.945 Z0
N0410 X5758.523 Y2000.000 Z80
N0420 X6000.000 Y1756.659 Z0
N0430 X5879.261 Y2000.000 Z80
N0450 G00 X6000.000 Z0
N0470 G01 Y0.000 Z80
N0480 X0.000 Z0
N0490 Y2000.000 Z80
N0500 X6000.000 Z0
N0010 (Filename: 2000x6000.tap)
N0020 (Post processor: PLAZMAKROY_XYZ_v1.scpost)
N0030 (Date: 11.11.2020)
N0040 G21 
N0050 G40 G54 G90 G49 G80 G91.1
N0060 F1000
N0070 S500
N0080 G00 X0.000 Y294.031
N0100 G01 X335.583 Y0.000 F12000.0
N0110 X0.000 Y685.370 Z80
N0120 X682.896 Y0.000  Z0
N0130 X0.000 Y1115.842 Z80
N0140 X971.508 Y0.000 Z0
N0150 X0.000 Y1482.722 Z80 
N0160 X1460.681 Y0.000 Z0
N0170 X0.000 Y1756.659 Z80
N0180 X1773.752 Y0.000 Z0
N0190 X0.000 Y2000.000 Z80
N0200 X2155.307 Y0.000 Z0
N0210 X485.754 Y2000.000 Z80
N0220 X2683.615 Y0.000 Z0
N0230 X1255.229 Y2000.000 Z80
N0240 X3167.896 Y0.000 Z0
N0250 X1842.237 Y2000.000 Z80
N0260 X3569.018 Y0.000 Z0
N0270 X2505.066 Y2000.000 Z80
N0280 X4058.191 Y0.000 Z0
N0290 X3000.000 Y2000.000 Z80
N0300 X4684.333 Y0.000 Z0
N0310 X4058.191 Y2000.000 Z80
N0320 X5359.392 Y0.000 Z0
N0330 X4708.792 Y2000.000 Z80
N0340 X5736.056 Y0.000 Z0
N0350 X5034.092 Y2000.000 Z80
N0360 X6000.000 Y0.000 Z0
N0370 X5359.392 Y2000.000 Z80
N0380 X6000.000 Y741.361 Z0
N0390 X5517.046 Y2000.000 Z80
N0400 X6000.000 Y1291.945 Z0
N0410 X5758.523 Y2000.000 Z80
N0420 X6000.000 Y1756.659 Z0
N0430 X5879.261 Y2000.000 Z80
N0450 G00 X6000.000 Z0
N0470 G01 Y0.000 Z80
N0480 X0.000 Z0
N0490 Y2000.000 Z80
N0500 X6000.000 Z0
N0010 (Filename: 2000x6000.tap)
N0020 (Post processor: PLAZMAKROY_XYZ_v1.scpost)
N0030 (Date: 11.11.2020)
N0040 G21 
N0050 G40 G54 G90 G49 G80 G91.1
N0060 F1000
N0070 S500
N0080 G00 X0.000 Y294.031
N0100 G01 X335.583 Y0.000 F12000.0
N0110 X0.000 Y685.370 Z80
N0120 X682.896 Y0.000  Z0
N0130 X0.000 Y1115.842 Z80
N0140 X971.508 Y0.000 Z0
N0150 X0.000 Y1482.722 Z80 
N0160 X1460.681 Y0.000 Z0
N0170 X0.000 Y1756.659 Z80
N0180 X1773.752 Y0.000 Z0
N0190 X0.000 Y2000.000 Z80
N0200 X2155.307 Y0.000 Z0
N0210 X485.754 Y2000.000 Z80
N0220 X2683.615 Y0.000 Z0
N0230 X1255.229 Y2000.000 Z80
N0240 X3167.896 Y0.000 Z0
N0250 X1842.237 Y2000.000 Z80
N0260 X3569.018 Y0.000 Z0
N0270 X2505.066 Y2000.000 Z80
N0280 X4058.191 Y0.000 Z0
N0290 X3000.000 Y2000.000 Z80
N0300 X4684.333 Y0.000 Z0
N0310 X4058.191 Y2000.000 Z80
N0320 X5359.392 Y0.000 Z0
N0330 X4708.792 Y2000.000 Z80
N0340 X5736.056 Y0.000 Z0
N0350 X5034.092 Y2000.000 Z80
N0360 X6000.000 Y0.000 Z0
N0370 X5359.392 Y2000.000 Z80
N0380 X6000.000 Y741.361 Z0
N0390 X5517.046 Y2000.000 Z80
N0400 X6000.000 Y1291.945 Z0
N0410 X5758.523 Y2000.000 Z80
N0420 X6000.000 Y1756.659 Z0
N0430 X5879.261 Y2000.000 Z80
N0450 G00 X6000.000 Z0
N0470 G01 Y0.000 Z80
N0480 X0.000 Z0
N0490 Y2000.000 Z80
N0500 X6000.000 Z0
N0010 (Filename: 2000x6000.tap)
N0020 (Post processor: PLAZMAKROY_XYZ_v1.scpost)
N0030 (Date: 11.11.2020)
N0040 G21 
N0050 G40 G54 G90 G49 G80 G91.1
N0060 F1000
N0070 S500
N0080 G00 X0.000 Y294.031
N0100 G01 X335.583 Y0.000 F12000.0
N0110 X0.000 Y685.370 Z80
N0120 X682.896 Y0.000  Z0
N0130 X0.000 Y1115.842 Z80
N0140 X971.508 Y0.000 Z0
N0150 X0.000 Y1482.722 Z80 
N0160 X1460.681 Y0.000 Z0
N0170 X0.000 Y1756.659 Z80
N0180 X1773.752 Y0.000 Z0
N0190 X0.000 Y2000.000 Z80
N0200 X2155.307 Y0.000 Z0
N0210 X485.754 Y2000.000 Z80
N0220 X2683.615 Y0.000 Z0
N0230 X1255.229 Y2000.000 Z80
N0240 X3167.896 Y0.000 Z0
N0250 X1842.237 Y2000.000 Z80
N0260 X3569.018 Y0.000 Z0
N0270 X2505.066 Y2000.000 Z80
N0280 X4058.191 Y0.000 Z0
N0290 X3000.000 Y2000.000 Z80
N0300 X4684.333 Y0.000 Z0
N0310 X4058.191 Y2000.000 Z80
N0320 X5359.392 Y0.000 Z0
N0330 X4708.792 Y2000.000 Z80
N0340 X5736.056 Y0.000 Z0
N0350 X5034.092 Y2000.000 Z80
N0360 X6000.000 Y0.000 Z0
N0370 X5359.392 Y2000.000 Z80
N0380 X6000.000 Y741.361 Z0
N0390 X5517.046 Y2000.000 Z80
N0400 X6000.000 Y1291.945 Z0
N0410 X5758.523 Y2000.000 Z80
N0420 X6000.000 Y1756.659 Z0
N0430 X5879.261 Y2000.000 Z80
N0450 G00 X6000.000 Z0
N0470 G01 Y0.000 Z80
N0480 X0.000 Z0
N0490 Y2000.000 Z80
N0500 X6000.000 Z0
N0010 (Filename: 2000x6000.tap)
N0020 (Post processor: PLAZMAKROY_XYZ_v1.scpost)
N0030 (Date: 11.11.2020)
N0040 G21 
N0050 G40 G54 G90 G49 G80 G91.1
N0060 F1000
N0070 S500
N0080 G00 X0.000 Y294.031
N0100 G01 X335.583 Y0.000 F12000.0
N0110 X0.000 Y685.370 Z80
N0120 X682.896 Y0.000  Z0
N0130 X0.000 Y1115.842 Z80
N0140 X971.508 Y0.000 Z0
N0150 X0.000 Y1482.722 Z80 
N0160 X1460.681 Y0.000 Z0
N0170 X0.000 Y1756.659 Z80
N0180 X1773.752 Y0.000 Z0
N0190 X0.000 Y2000.000 Z80
N0200 X2155.307 Y0.000 Z0
N0210 X485.754 Y2000.000 Z80
N0220 X2683.615 Y0.000 Z0
N0230 X1255.229 Y2000.000 Z80
N0240 X3167.896 Y0.000 Z0
N0250 X1842.237 Y2000.000 Z80
N0260 X3569.018 Y0.000 Z0
N0270 X2505.066 Y2000.000 Z80
N0280 X4058.191 Y0.000 Z0
N0290 X3000.000 Y2000.000 Z80
N0300 X4684.333 Y0.000 Z0
N0310 X4058.191 Y2000.000 Z80
N0320 X5359.392 Y0.000 Z0
N0330 X4708.792 Y2000.000 Z80
N0340 X5736.056 Y0.000 Z0
N0350 X5034.092 Y2000.000 Z80
N0360 X6000.000 Y0.000 Z0
N0370 X5359.392 Y2000.000 Z80
N0380 X6000.000 Y741.361 Z0
N0390 X5517.046 Y2000.000 Z80
N0400 X6000.000 Y1291.945 Z0
N0410 X5758.523 Y2000.000 Z80
N0420 X6000.000 Y1756.659 Z0
N0430 X5879.261 Y2000.000 Z80
N0450 G00 X6000.000 Z0
N0470 G01 Y0.000 Z80
N0480 X0.000 Z0
N0490 Y2000.000 Z80
N0500 X6000.000 Z0
N0010 (Filename: 2000x6000.tap)
N0020 (Post processor: PLAZMAKROY_XYZ_v1.scpost)
N0030 (Date: 11.11.2020)
N0040 G21 
N0050 G40 G54 G90 G49 G80 G91.1
N0060 F1000
N0070 S500
N0080 G00 X0.000 Y294.031
N0100 G01 X335.583 Y0.000 F12000.0
N0110 X0.000 Y685.370 Z80
N0120 X682.896 Y0.000  Z0
N0130 X0.000 Y1115.842 Z80
N0140 X971.508 Y0.000 Z0
N0150 X0.000 Y1482.722 Z80 
N0160 X1460.681 Y0.000 Z0
N0170 X0.000 Y1756.659 Z80
N0180 X1773.752 Y0.000 Z0
N0190 X0.000 Y2000.000 Z80
N0200 X2155.307 Y0.000 Z0
N0210 X485.754 Y2000.000 Z80
N0220 X2683.615 Y0.000 Z0
N0230 X1255.229 Y2000.000 Z80
N0240 X3167.896 Y0.000 Z0
N0250 X1842.237 Y2000.000 Z80
N0260 X3569.018 Y0.000 Z0
N0270 X2505.066 Y2000.000 Z80
N0280 X4058.191 Y0.000 Z0
N0290 X3000.000 Y2000.000 Z80
N0300 X4684.333 Y0.000 Z0
N0310 X4058.191 Y2000.000 Z80
N0320 X5359.392 Y0.000 Z0
N0330 X4708.792 Y2000.000 Z80
N0340 X5736.056 Y0.000 Z0
N0350 X5034.092 Y2000.000 Z80
N0360 X6000.000 Y0.000 Z0
N0370 X5359.392 Y2000.000 Z80
N0380 X6000.000 Y741.361 Z0
N0390 X5517.046 Y2000.000 Z80
N0400 X6000.000 Y1291.945 Z0
N0410 X5758.523 Y2000.000 Z80
N0420 X6000.000 Y1756.659 Z0
N0430 X5879.261 Y2000.000 Z80
N0450 G00 X6000.000 Z0
N0470 G01 Y0.000 Z80
N0480 X0.000 Z0
N0490 Y2000.000 Z80
N0500 X6000.000 Z0
N0010 (Filename: 2000x6000.tap)
N0020 (Post processor: PLAZMAKROY_XYZ_v1.scpost)
N0030 (Date: 11.11.2020)
N0040 G21 
N0050 G40 G54 G90 G49 G80 G91.1
N0060 F1000
N0070 S500
N0080 G00 X0.000 Y294.031
N0100 G01 X335.583 Y0.000 F12000.0
N0110 X0.000 Y685.370 Z80
N0120 X682.896 Y0.000  Z0
N0130 X0.000 Y1115.842 Z80
N0140 X971.508 Y0.000 Z0
N0150 X0.000 Y1482.722 Z80 
N0160 X1460.681 Y0.000 Z0
N0170 X0.000 Y1756.659 Z80
N0180 X1773.752 Y0.000 Z0
N0190 X0.000 Y2000.000 Z80
N0200 X2155.307 Y0.000 Z0
N0210 X485.754 Y2000.000 Z80
N0220 X2683.615 Y0.000 Z0
N0230 X1255.229 Y2000.000 Z80
N0240 X3167.896 Y0.000 Z0
N0250 X1842.237 Y2000.000 Z80
N0260 X3569.018 Y0.000 Z0
N0270 X2505.066 Y2000.000 Z80
N0280 X4058.191 Y0.000 Z0
N0290 X3000.000 Y2000.000 Z80
N0300 X4684.333 Y0.000 Z0
N0310 X4058.191 Y2000.000 Z80
N0320 X5359.392 Y0.000 Z0
N0330 X4708.792 Y2000.000 Z80
N0340 X5736.056 Y0.000 Z0
N0350 X5034.092 Y2000.000 Z80
N0360 X6000.000 Y0.000 Z0
N0370 X5359.392 Y2000.000 Z80
N0380 X6000.000 Y741.361 Z0
N0390 X5517.046 Y2000.000 Z80
N0400 X6000.000 Y1291.945 Z0
N0410 X5758.523 Y2000.000 Z80
N0420 X6000.000 Y1756.659 Z0
N0430 X5879.261 Y2000.000 Z80
N0450 G00 X6000.000 Z0
N0470 G01 Y0.000 Z80
N0480 X0.000 Z0
N0490 Y2000.000 Z80
N0500 X6000.000 Z0
N0010 (Filename: 2000x6000.tap)
N0020 (Post processor: PLAZMAKROY_XYZ_v1.scpost)
N0030 (Date: 11.11.2020)
N0040 G21 
N0050 G40 G54 G90 G49 G80 G91.1
N0060 F1000
N0070 S500
N0080 G00 X0.000 Y294.031
N0100 G01 X335.583 Y0.000 F12000.0
N0110 X0.000 Y685.370 Z80
N0120 X682.896 Y0.000  Z0
N0130 X0.000 Y1115.842 Z80
N0140 X971.508 Y0.000 Z0
N0150 X0.000 Y1482.722 Z80 
N0160 X1460.681 Y0.000 Z0
N0170 X0.000 Y1756.659 Z80
N0180 X1773.752 Y0.000 Z0
N0190 X0.000 Y2000.000 Z80
N0200 X2155.307 Y0.000 Z0
N0210 X485.754 Y2000.000 Z80
N0220 X2683.615 Y0.000 Z0
N0230 X1255.229 Y2000.000 Z80
N0240 X3167.896 Y0.000 Z0
N0250 X1842.237 Y2000.000 Z80
N0260 X3569.018 Y0.000 Z0
N0270 X2505.066 Y2000.000 Z80
N0280 X4058.191 Y0.000 Z0
N0290 X3000.000 Y2000.000 Z80
N0300 X4684.333 Y0.000 Z0
N0310 X4058.191 Y2000.000 Z80
N0320 X5359.392 Y0.000 Z0
N0330 X4708.792 Y2000.000 Z80
N0340 X5736.056 Y0.000 Z0
N0350 X5034.092 Y2000.000 Z80
N0360 X6000.000 Y0.000 Z0
N0370 X5359.392 Y2000.000 Z80
N0380 X6000.000 Y741.361 Z0
N0390 X5517.046 Y2000.000 Z80
N0400 X6000.000 Y1291.945 Z0
N0410 X5758.523 Y2000.000 Z80
N0420 X6000.000 Y1756.659 Z0
N0430 X5879.261 Y2000.000 Z80
N0450 G00 X6000.000 Z0
N0470 G01 Y0.000 Z80
N0480 X0.000 Z0
N0490 Y2000.000 Z80
N0500 X6000.000 Z0
N0010 (Filename: 2000x6000.tap)
N0020 (Post processor: PLAZMAKROY_XYZ_v1.scpost)
N0030 (Date: 11.11.2020)
N0040 G21 
N0050 G40 G54 G90 G49 G80 G91.1
N0060 F1000
N0070 S500
N0080 G00 X0.000 Y294.031
N0100 G01 X335.583 Y0.000 F12000.0
N0110 X0.000 Y685.370 Z80
N0120 X682.896 Y0.000  Z0
N0130 X0.000 Y1115.842 Z80
N0140 X971.508 Y0.000 Z0
N0150 X0.000 Y1482.722 Z80 
N0160 X1460.681 Y0.000 Z0
N0170 X0.000 Y1756.659 Z80
N0180 X1773.752 Y0.000 Z0
N0190 X0.000 Y2000.000 Z80
N0200 X2155.307 Y0.000 Z0
N0210 X485.754 Y2000.000 Z80
N0220 X2683.615 Y0.000 Z0
N0230 X1255.229 Y2000.000 Z80
N0240 X3167.896 Y0.000 Z0
N0250 X1842.237 Y2000.000 Z80
N0260 X3569.018 Y0.000 Z0
N0270 X2505.066 Y2000.000 Z80
N0280 X4058.191 Y0.000 Z0
N0290 X3000.000 Y2000.000 Z80
N0300 X4684.333 Y0.000 Z0
N0310 X4058.191 Y2000.000 Z80
N0320 X5359.392 Y0.000 Z0
N0330 X4708.792 Y2000.000 Z80
N0340 X5736.056 Y0.000 Z0
N0350 X5034.092 Y2000.000 Z80
N0360 X6000.000 Y0.000 Z0
N0370 X5359.392 Y2000.000 Z80
N0380 X6000.000 Y741.361 Z0
N0390 X5517.046 Y2000.000 Z80
N0400 X6000.000 Y1291.945 Z0
N0410 X5758.523 Y2000.000 Z80
N0420 X6000.000 Y1756.659 Z0
N0430 X5879.261 Y2000.000 Z80
N0450 G00 X6000.000 Z0
N0470 G01 Y0.000 Z80
N0480 X0.000 Z0
N0490 Y2000.000 Z80
N0500 X6000.000 Z0
N0010 (Filename: 2000x6000.tap)
N0020 (Post processor: PLAZMAKROY_XYZ_v1.scpost)
N0030 (Date: 11.11.2020)
N0040 G21 
N0050 G40 G54 G90 G49 G80 G91.1
N0060 F1000
N0070 S500
N0080 G00 X0.000 Y294.031
N0100 G01 X335.583 Y0.000 F12000.0
N0110 X0.000 Y685.370 Z80
N0120 X682.896 Y0.000  Z0
N0130 X0.000 Y1115.842 Z80
N0140 X971.508 Y0.000 Z0
N0150 X0.000 Y1482.722 Z80 
N0160 X1460.681 Y0.000 Z0
N0170 X0.000 Y1756.659 Z80
N0180 X1773.752 Y0.000 Z0
N0190 X0.000 Y2000.000 Z80
N0200 X2155.307 Y0.000 Z0
N0210 X485.754 Y2000.000 Z80
N0220 X2683.615 Y0.000 Z0
N0230 X1255.229 Y2000.000 Z80
N0240 X3167.896 Y0.000 Z0
N0250 X1842.237 Y2000.000 Z80
N0260 X3569.018 Y0.000 Z0
N0270 X2505.066 Y2000.000 Z80
N0280 X4058.191 Y0.000 Z0
N0290 X3000.000 Y2000.000 Z80
N0300 X4684.333 Y0.000 Z0
N0310 X4058.191 Y2000.000 Z80
N0320 X5359.392 Y0.000 Z0
N0330 X4708.792 Y2000.000 Z80
N0340 X5736.056 Y0.000 Z0
N0350 X5034.092 Y2000.000 Z80
N0360 X6000.000 Y0.000 Z0
N0370 X5359.392 Y2000.000 Z80
N0380 X6000.000 Y741.361 Z0
N0390 X5517.046 Y2000.000 Z80
N0400 X6000.000 Y1291.945 Z0
N0410 X5758.523 Y2000.000 Z80
N0420 X6000.000 Y1756.659 Z0
N0430 X5879.261 Y2000.000 Z80
N0450 G00 X6000.000 Z0
N0470 G01 Y0.000 Z80
N0480 X0.000 Z0
N0490 Y2000.000 Z80
N0500 X6000.000 Z0
N0010 (Filename: 2000x6000.tap)
N0020 (Post processor: PLAZMAKROY_XYZ_v1.scpost)
N0030 (Date: 11.11.2020)
N0040 G21 
N0050 G40 G54 G90 G49 G80 G91.1
N0060 F1000
N0070 S500
N0080 G00 X0.000 Y294.031
N0100 G01 X335.583 Y0.000 F12000.0
N0110 X0.000 Y685.370 Z80
N0120 X682.896 Y0.000  Z0
N0130 X0.000 Y1115.842 Z80
N0140 X971.508 Y0.000 Z0
N0150 X0.000 Y1482.722 Z80 
N0160 X1460.681 Y0.000 Z0
N0170 X0.000 Y1756.659 Z80
N0180 X1773.752 Y0.000 Z0
N0190 X0.000 Y2000.000 Z80
N0200 X2155.307 Y0.000 Z0
N0210 X485.754 Y2000.000 Z80
N0220 X2683.615 Y0.000 Z0
N0230 X1255.229 Y2000.000 Z80
N0240 X3167.896 Y0.000 Z0
N0250 X1842.237 Y2000.000 Z80
N0260 X3569.018 Y0.000 Z0
N0270 X2505.066 Y2000.000 Z80
N0280 X4058.191 Y0.000 Z0
N0290 X3000.000 Y2000.000 Z80
N0300 X4684.333 Y0.000 Z0
N0310 X4058.191 Y2000.000 Z80
N0320 X5359.392 Y0.000 Z0
N0330 X4708.792 Y2000.000 Z80
N0340 X5736.056 Y0.000 Z0
N0350 X5034.092 Y2000.000 Z80
N0360 X6000.000 Y0.000 Z0
N0370 X5359.392 Y2000.000 Z80
N0380 X6000.000 Y741.361 Z0
N0390 X5517.046 Y2000.000 Z80
N0400 X6000.000 Y1291.945 Z0
N0410 X5758.523 Y2000.000 Z80
N0420 X6000.000 Y1756.659 Z0
N0430 X5879.261 Y2000.000 Z80
N0450 G00 X6000.000 Z0
N0470 G01 Y0.000 Z80
N0480 X0.000 Z0
N0490 Y2000.000 Z80
N0500 X6000.000 Z0
N0010 (Filename: 2000x6000.tap)
N0020 (Post processor: PLAZMAKROY_XYZ_v1.scpost)
N0030 (Date: 11.11.2020)
N0040 G21 
N0050 G40 G54 G90 G49 G80 G91.1
N0060 F1000
N0070 S500
N0080 G00 X0.000 Y294.031
N0100 G01 X335.583 Y0.000 F12000.0
N0110 X0.000 Y685.370 Z80
N0120 X682.896 Y0.000  Z0
N0130 X0.000 Y1115.842 Z80
N0140 X971.508 Y0.000 Z0
N0150 X0.000 Y1482.722 Z80 
N0160 X1460.681 Y0.000 Z0
N0170 X0.000 Y1756.659 Z80
N0180 X1773.752 Y0.000 Z0
N0190 X0.000 Y2000.000 Z80
N0200 X2155.307 Y0.000 Z0
N0210 X485.754 Y2000.000 Z80
N0220 X2683.615 Y0.000 Z0
N0230 X1255.229 Y2000.000 Z80
N0240 X3167.896 Y0.000 Z0
N0250 X1842.237 Y2000.000 Z80
N0260 X3569.018 Y0.000 Z0
N0270 X2505.066 Y2000.000 Z80
N0280 X4058.191 Y0.000 Z0
N0290 X3000.000 Y2000.000 Z80
N0300 X4684.333 Y0.000 Z0
N0310 X4058.191 Y2000.000 Z80
N0320 X5359.392 Y0.000 Z0
N0330 X4708.792 Y2000.000 Z80
N0340 X5736.056 Y0.000 Z0
N0350 X5034.092 Y2000.000 Z80
N0360 X6000.000 Y0.000 Z0
N0370 X5359.392 Y2000.000 Z80
N0380 X6000.000 Y741.361 Z0
N0390 X5517.046 Y2000.000 Z80
N0400 X6000.000 Y1291.945 Z0
N0410 X5758.523 Y2000.000 Z80
N0420 X6000.000 Y1756.659 Z0
N0430 X5879.261 Y2000.000 Z80
N0450 G00 X6000.000 Z0
N0470 G01 Y0.000 Z80
N0480 X0.000 Z0
N0490 Y2000.000 Z80
N0500 X6000.000 Z0
N0010 (Filename: 2000x6000.tap)
N0020 (Post processor: PLAZMAKROY_XYZ_v1.scpost)
N0030 (Date: 11.11.2020)
N0040 G21 
N0050 G40 G54 G90 G49 G80 G91.1
N0060 F1000
N0070 S500
N0080 G00 X0.000 Y294.031
N0100 G01 X335.583 Y0.000 F12000.0
N0110 X0.000 Y685.370 Z80
N0120 X682.896 Y0.000  Z0
N0130 X0.000 Y1115.842 Z80
N0140 X971.508 Y0.000 Z0
N0150 X0.000 Y1482.722 Z80 
N0160 X1460.681 Y0.000 Z0
N0170 X0.000 Y1756.659 Z80
N0180 X1773.752 Y0.000 Z0
N0190 X0.000 Y2000.000 Z80
N0200 X2155.307 Y0.000 Z0
N0210 X485.754 Y2000.000 Z80
N0220 X2683.615 Y0.000 Z0
N0230 X1255.229 Y2000.000 Z80
N0240 X3167.896 Y0.000 Z0
N0250 X1842.237 Y2000.000 Z80
N0260 X3569.018 Y0.000 Z0
N0270 X2505.066 Y2000.000 Z80
N0280 X4058.191 Y0.000 Z0
N0290 X3000.000 Y2000.000 Z80
N0300 X4684.333 Y0.000 Z0
N0310 X4058.191 Y2000.000 Z80
N0320 X5359.392 Y0.000 Z0
N0330 X4708.792 Y2000.000 Z80
N0340 X5736.056 Y0.000 Z0
N0350 X5034.092 Y2000.000 Z80
N0360 X6000.000 Y0.000 Z0
N0370 X5359.392 Y2000.000 Z80
N0380 X6000.000 Y741.361 Z0
N0390 X5517.046 Y2000.000 Z80
N0400 X6000.000 Y1291.945 Z0
N0410 X5758.523 Y2000.000 Z80
N0420 X6000.000 Y1756.659 Z0
N0430 X5879.261 Y2000.000 Z80
N0450 G00 X6000.000 Z0
N0470 G01 Y0.000 Z80
N0480 X0.000 Z0
N0490 Y2000.000 Z80
N0500 X6000.000 Z0
N0010 (Filename: 2000x6000.tap)
N0020 (Post processor: PLAZMAKROY_XYZ_v1.scpost)
N0030 (Date: 11.11.2020)
N0040 G21 
N0050 G40 G54 G90 G49 G80 G91.1
N0060 F1000
N0070 S500
N0080 G00 X0.000 Y294.031
N0100 G01 X335.583 Y0.000 F12000.0
N0110 X0.000 Y685.370 Z80
N0120 X682.896 Y0.000  Z0
N0130 X0.000 Y1115.842 Z80
N0140 X971.508 Y0.000 Z0
N0150 X0.000 Y1482.722 Z80 
N0160 X1460.681 Y0.000 Z0
N0170 X0.000 Y1756.659 Z80
N0180 X1773.752 Y0.000 Z0
N0190 X0.000 Y2000.000 Z80
N0200 X2155.307 Y0.000 Z0
N0210 X485.754 Y2000.000 Z80
N0220 X2683.615 Y0.000 Z0
N0230 X1255.229 Y2000.000 Z80
N0240 X3167.896 Y0.000 Z0
N0250 X1842.237 Y2000.000 Z80
N0260 X3569.018 Y0.000 Z0
N0270 X2505.066 Y2000.000 Z80
N0280 X4058.191 Y0.000 Z0
N0290 X3000.000 Y2000.000 Z80
N0300 X4684.333 Y0.000 Z0
N0310 X4058.191 Y2000.000 Z80
N0320 X5359.392 Y0.000 Z0
N0330 X4708.792 Y2000.000 Z80
N0340 X5736.056 Y0.000 Z0
N0350 X5034.092 Y2000.000 Z80
N0360 X6000.000 Y0.000 Z0
N0370 X5359.392 Y2000.000 Z80
N0380 X6000.000 Y741.361 Z0
N0390 X5517.046 Y2000.000 Z80
N0400 X6000.000 Y1291.945 Z0
N0410 X5758.523 Y2000.000 Z80
N0420 X6000.000 Y1756.659 Z0
N0430 X5879.261 Y2000.000 Z80
N0450 G00 X6000.000 Z0
N0470 G01 Y0.000 Z80
N0480 X0.000 Z0
N0490 Y2000.000 Z80
N0500 X6000.000 Z0
N0010 (Filename: 2000x6000.tap)
N0020 (Post processor: PLAZMAKROY_XYZ_v1.scpost)
N0030 (Date: 11.11.2020)
N0040 G21 
N0050 G40 G54 G90 G49 G80 G91.1
N0060 F1000
N0070 S500
N0080 G00 X0.000 Y294.031
N0100 G01 X335.583 Y0.000 F12000.0
N0110 X0.000 Y685.370 Z80
N0120 X682.896 Y0.000  Z0
N0130 X0.000 Y1115.842 Z80
N0140 X971.508 Y0.000 Z0
N0150 X0.000 Y1482.722 Z80 
N0160 X1460.681 Y0.000 Z0
N0170 X0.000 Y1756.659 Z80
N0180 X1773.752 Y0.000 Z0
N0190 X0.000 Y2000.000 Z80
N0200 X2155.307 Y0.000 Z0
N0210 X485.754 Y2000.000 Z80
N0220 X2683.615 Y0.000 Z0
N0230 X1255.229 Y2000.000 Z80
N0240 X3167.896 Y0.000 Z0
N0250 X1842.237 Y2000.000 Z80
N0260 X3569.018 Y0.000 Z0
N0270 X2505.066 Y2000.000 Z80
N0280 X4058.191 Y0.000 Z0
N0290 X3000.000 Y2000.000 Z80
N0300 X4684.333 Y0.000 Z0
N0310 X4058.191 Y2000.000 Z80
N0320 X5359.392 Y0.000 Z0
N0330 X4708.792 Y2000.000 Z80
N0340 X5736.056 Y0.000 Z0
N0350 X5034.092 Y2000.000 Z80
N0360 X6000.000 Y0.000 Z0
N0370 X5359.392 Y2000.000 Z80
N0380 X6000.000 Y741.361 Z0
N0390 X5517.046 Y2000.000 Z80
N0400 X6000.000 Y1291.945 Z0
N0410 X5758.523 Y2000.000 Z80
N0420 X6000.000 Y1756.659 Z0
N0430 X5879.261 Y2000.000 Z80
N0450 G00 X6000.000 Z0
N0470 G01 Y0.000 Z80
N0480 X0.000 Z0
N0490 Y2000.000 Z80
N0500 X6000.000 Z0
N0010 (Filename: 2000x6000.tap)
N0020 (Post processor: PLAZMAKROY_XYZ_v1.scpost)
N0030 (Date: 11.11.2020)
N0040 G21 
N0050 G40 G54 G90 G49 G80 G91.1
N0060 F1000
N0070 S500
N0080 G00 X0.000 Y294.031
N0100 G01 X335.583 Y0.000 F12000.0
N0110 X0.000 Y685.370 Z80
N0120 X682.896 Y0.000  Z0
N0130 X0.000 Y1115.842 Z80
N0140 X971.508 Y0.000 Z0
N0150 X0.000 Y1482.722 Z80 
N0160 X1460.681 Y0.000 Z0
N0170 X0.000 Y1756.659 Z80
N0180 X1773.752 Y0.000 Z0
N0190 X0.000 Y2000.000 Z80
N0200 X2155.307 Y0.000 Z0
N0210 X485.754 Y2000.000 Z80
N0220 X2683.615 Y0.000 Z0
N0230 X1255.229 Y2000.000 Z80
N0240 X3167.896 Y0.000 Z0
N0250 X1842.237 Y2000.000 Z80
N0260 X3569.018 Y0.000 Z0
N0270 X2505.066 Y2000.000 Z80
N0280 X4058.191 Y0.000 Z0
N0290 X3000.000 Y2000.000 Z80
N0300 X4684.333 Y0.000 Z0
N0310 X4058.191 Y2000.000 Z80
N0320 X5359.392 Y0.000 Z0
N0330 X4708.792 Y2000.000 Z80
N0340 X5736.056 Y0.000 Z0
N0350 X5034.092 Y2000.000 Z80
N0360 X6000.000 Y0.000 Z0
N0370 X5359.392 Y2000.000 Z80
N0380 X6000.000 Y741.361 Z0
N0390 X5517.046 Y2000.000 Z80
N0400 X6000.000 Y1291.945 Z0
N0410 X5758.523 Y2000.000 Z80
N0420 X6000.000 Y1756.659 Z0
N0430 X5879.261 Y2000.000 Z80
N0450 G00 X6000.000 Z0
N0470 G01 Y0.000 Z80
N0480 X0.000 Z0
N0490 Y2000.000 Z80
N0500 X6000.000 Z0
N0010 (Filename: 2000x6000.tap)
N0020 (Post processor: PLAZMAKROY_XYZ_v1.scpost)
N0030 (Date: 11.11.2020)
N0040 G21 
N0050 G40 G54 G90 G49 G80 G91.1
N0060 F1000
N0070 S500
N0080 G00 X0.000 Y294.031
N0100 G01 X335.583 Y0.000 F12000.0
N0110 X0.000 Y685.370 Z80
N0120 X682.896 Y0.000  Z0
N0130 X0.000 Y1115.842 Z80
N0140 X971.508 Y0.000 Z0
N0150 X0.000 Y1482.722 Z80 
N0160 X1460.681 Y0.000 Z0
N0170 X0.000 Y1756.659 Z80
N0180 X1773.752 Y0.000 Z0
N0190 X0.000 Y2000.000 Z80
N0200 X2155.307 Y0.000 Z0
N0210 X485.754 Y2000.000 Z80
N0220 X2683.615 Y0.000 Z0
N0230 X1255.229 Y2000.000 Z80
N0240 X3167.896 Y0.000 Z0
N0250 X1842.237 Y2000.000 Z80
N0260 X3569.018 Y0.000 Z0
N0270 X2505.066 Y2000.000 Z80
N0280 X4058.191 Y0.000 Z0
N0290 X3000.000 Y2000.000 Z80
N0300 X4684.333 Y0.000 Z0
N0310 X4058.191 Y2000.000 Z80
N0320 X5359.392 Y0.000 Z0
N0330 X4708.792 Y2000.000 Z80
N0340 X5736.056 Y0.000 Z0
N0350 X5034.092 Y2000.000 Z80
N0360 X6000.000 Y0.000 Z0
N0370 X5359.392 Y2000.000 Z80
N0380 X6000.000 Y741.361 Z0
N0390 X5517.046 Y2000.000 Z80
N0400 X6000.000 Y1291.945 Z0
N0410 X5758.523 Y2000.000 Z80
N0420 X6000.000 Y1756.659 Z0
N0430 X5879.261 Y2000.000 Z80
N0450 G00 X6000.000 Z0
N0470 G01 Y0.000 Z80
N0480 X0.000 Z0
N0490 Y2000.000 Z80
N0500 X6000.000 Z0
N0010 (Filename: 2000x6000.tap)
N0020 (Post processor: PLAZMAKROY_XYZ_v1.scpost)
N0030 (Date: 11.11.2020)
N0040 G21 
N0050 G40 G54 G90 G49 G80 G91.1
N0060 F1000
N0070 S500
N0080 G00 X0.000 Y294.031
N0100 G01 X335.583 Y0.000 F12000.0
N0110 X0.000 Y685.370 Z80
N0120 X682.896 Y0.000  Z0
N0130 X0.000 Y1115.842 Z80
N0140 X971.508 Y0.000 Z0
N0150 X0.000 Y1482.722 Z80 
N0160 X1460.681 Y0.000 Z0
N0170 X0.000 Y1756.659 Z80
N0180 X1773.752 Y0.000 Z0
N0190 X0.000 Y2000.000 Z80
N0200 X2155.307 Y0.000 Z0
N0210 X485.754 Y2000.000 Z80
N0220 X2683.615 Y0.000 Z0
N0230 X1255.229 Y2000.000 Z80
N0240 X3167.896 Y0.000 Z0
N0250 X1842.237 Y2000.000 Z80
N0260 X3569.018 Y0.000 Z0
N0270 X2505.066 Y2000.000 Z80
N0280 X4058.191 Y0.000 Z0
N0290 X3000.000 Y2000.000 Z80
N0300 X4684.333 Y0.000 Z0
N0310 X4058.191 Y2000.000 Z80
N0320 X5359.392 Y0.000 Z0
N0330 X4708.792 Y2000.000 Z80
N0340 X5736.056 Y0.000 Z0
N0350 X5034.092 Y2000.000 Z80
N0360 X6000.000 Y0.000 Z0
N0370 X5359.392 Y2000.000 Z80
N0380 X6000.000 Y741.361 Z0
N0390 X5517.046 Y2000.000 Z80
N0400 X6000.000 Y1291.945 Z0
N0410 X5758.523 Y2000.000 Z80
N0420 X6000.000 Y1756.659 Z0
N0430 X5879.261 Y2000.000 Z80
N0450 G00 X6000.000 Z0
N0470 G01 Y0.000 Z80
N0480 X0.000 Z0
N0490 Y2000.000 Z80
N0500 X6000.000 Z0
N0010 (Filename: 2000x6000.tap)
N0020 (Post processor: PLAZMAKROY_XYZ_v1.scpost)
N0030 (Date: 11.11.2020)
N0040 G21 
N0050 G40 G54 G90 G49 G80 G91.1
N0060 F1000
N0070 S500
N0080 G00 X0.000 Y294.031
N0100 G01 X335.583 Y0.000 F12000.0
N0110 X0.000 Y685.370 Z80
N0120 X682.896 Y0.000  Z0
N0130 X0.000 Y1115.842 Z80
N0140 X971.508 Y0.000 Z0
N0150 X0.000 Y1482.722 Z80 
N0160 X1460.681 Y0.000 Z0
N0170 X0.000 Y1756.659 Z80
N0180 X1773.752 Y0.000 Z0
N0190 X0.000 Y2000.000 Z80
N0200 X2155.307 Y0.000 Z0
N0210 X485.754 Y2000.000 Z80
N0220 X2683.615 Y0.000 Z0
N0230 X1255.229 Y2000.000 Z80
N0240 X3167.896 Y0.000 Z0
N0250 X1842.237 Y2000.000 Z80
N0260 X3569.018 Y0.000 Z0
N0270 X2505.066 Y2000.000 Z80
N0280 X4058.191 Y0.000 Z0
N0290 X3000.000 Y2000.000 Z80
N0300 X4684.333 Y0.000 Z0
N0310 X4058.191 Y2000.000 Z80
N0320 X5359.392 Y0.000 Z0
N0330 X4708.792 Y2000.000 Z80
N0340 X5736.056 Y0.000 Z0
N0350 X5034.092 Y2000.000 Z80
N0360 X6000.000 Y0.000 Z0
N0370 X5359.392 Y2000.000 Z80
N0380 X6000.000 Y741.361 Z0
N0390 X5517.046 Y2000.000 Z80
N0400 X6000.000 Y1291.945 Z0
N0410 X5758.523 Y2000.000 Z80
N0420 X6000.000 Y1756.659 Z0
N0430 X5879.261 Y2000.000 Z80
N0450 G00 X6000.000 Z0
N0470 G01 Y0.000 Z80
N0480 X0.000 Z0
N0490 Y2000.000 Z80
N0500 X6000.000 Z0
N0010 (Filename: 2000x6000.tap)
N0020 (Post processor: PLAZMAKROY_XYZ_v1.scpost)
N0030 (Date: 11.11.2020)
N0040 G21 
N0050 G40 G54 G90 G49 G80 G91.1
N0060 F1000
N0070 S500
N0080 G00 X0.000 Y294.031
N0100 G01 X335.583 Y0.000 F12000.0
N0110 X0.000 Y685.370 Z80
N0120 X682.896 Y0.000  Z0
N0130 X0.000 Y1115.842 Z80
N0140 X971.508 Y0.000 Z0
N0150 X0.000 Y1482.722 Z80 
N0160 X1460.681 Y0.000 Z0
N0170 X0.000 Y1756.659 Z80
N0180 X1773.752 Y0.000 Z0
N0190 X0.000 Y2000.000 Z80
N0200 X2155.307 Y0.000 Z0
N0210 X485.754 Y2000.000 Z80
N0220 X2683.615 Y0.000 Z0
N0230 X1255.229 Y2000.000 Z80
N0240 X3167.896 Y0.000 Z0
N0250 X1842.237 Y2000.000 Z80
N0260 X3569.018 Y0.000 Z0
N0270 X2505.066 Y2000.000 Z80
N0280 X4058.191 Y0.000 Z0
N0290 X3000.000 Y2000.000 Z80
N0300 X4684.333 Y0.000 Z0
N0310 X4058.191 Y2000.000 Z80
N0320 X5359.392 Y0.000 Z0
N0330 X4708.792 Y2000.000 Z80
N0340 X5736.056 Y0.000 Z0
N0350 X5034.092 Y2000.000 Z80
N0360 X6000.000 Y0.000 Z0
N0370 X5359.392 Y2000.000 Z80
N0380 X6000.000 Y741.361 Z0
N0390 X5517.046 Y2000.000 Z80
N0400 X6000.000 Y1291.945 Z0
N0410 X5758.523 Y2000.000 Z80
N0420 X6000.000 Y1756.659 Z0
N0430 X5879.261 Y2000.000 Z80
N0450 G00 X6000.000 Z0
N0470 G01 Y0.000 Z80
N0480 X0.000 Z0
N0490 Y2000.000 Z80
N0500 X6000.000 Z0
N0010 (Filename: 2000x6000.tap)
N0020 (Post processor: PLAZMAKROY_XYZ_v1.scpost)
N0030 (Date: 11.11.2020)
N0040 G21 
N0050 G40 G54 G90 G49 G80 G91.1
N0060 F1000
N0070 S500
N0080 G00 X0.000 Y294.031
N0100 G01 X335.583 Y0.000 F12000.0
N0110 X0.000 Y685.370 Z80
N0120 X682.896 Y0.000  Z0
N0130 X0.000 Y1115.842 Z80
N0140 X971.508 Y0.000 Z0
N0150 X0.000 Y1482.722 Z80 
N0160 X1460.681 Y0.000 Z0
N0170 X0.000 Y1756.659 Z80
N0180 X1773.752 Y0.000 Z0
N0190 X0.000 Y2000.000 Z80
N0200 X2155.307 Y0.000 Z0
N0210 X485.754 Y2000.000 Z80
N0220 X2683.615 Y0.000 Z0
N0230 X1255.229 Y2000.000 Z80
N0240 X3167.896 Y0.000 Z0
N0250 X1842.237 Y2000.000 Z80
N0260 X3569.018 Y0.000 Z0
N0270 X2505.066 Y2000.000 Z80
N0280 X4058.191 Y0.000 Z0
N0290 X3000.000 Y2000.000 Z80
N0300 X4684.333 Y0.000 Z0
N0310 X4058.191 Y2000.000 Z80
N0320 X5359.392 Y0.000 Z0
N0330 X4708.792 Y2000.000 Z80
N0340 X5736.056 Y0.000 Z0
N0350 X5034.092 Y2000.000 Z80
N0360 X6000.000 Y0.000 Z0
N0370 X5359.392 Y2000.000 Z80
N0380 X6000.000 Y741.361 Z0
N0390 X5517.046 Y2000.000 Z80
N0400 X6000.000 Y1291.945 Z0
N0410 X5758.523 Y2000.000 Z80
N0420 X6000.000 Y1756.659 Z0
N0430 X5879.261 Y2000.000 Z80
N0450 G00 X6000.000 Z0
N0470 G01 Y0.000 Z80
N0480 X0.000 Z0
N0490 Y2000.000 Z80
N0500 X6000.000 Z0
N0010 (Filename: 2000x6000.tap)
N0020 (Post processor: PLAZMAKROY_XYZ_v1.scpost)
N0030 (Date: 11.11.2020)
N0040 G21 
N0050 G40 G54 G90 G49 G80 G91.1
N0060 F1000
N0070 S500
N0080 G00 X0.000 Y294.031
N0100 G01 X335.583 Y0.000 F12000.0
N0110 X0.000 Y685.370 Z80
N0120 X682.896 Y0.000  Z0
N0130 X0.000 Y1115.842 Z80
N0140 X971.508 Y0.000 Z0
N0150 X0.000 Y1482.722 Z80 
N0160 X1460.681 Y0.000 Z0
N0170 X0.000 Y1756.659 Z80
N0180 X1773.752 Y0.000 Z0
N0190 X0.000 Y2000.000 Z80
N0200 X2155.307 Y0.000 Z0
N0210 X485.754 Y2000.000 Z80
N0220 X2683.615 Y0.000 Z0
N0230 X1255.229 Y2000.000 Z80
N0240 X3167.896 Y0.000 Z0
N0250 X1842.237 Y2000.000 Z80
N0260 X3569.018 Y0.000 Z0
N0270 X2505.066 Y2000.000 Z80
N0280 X4058.191 Y0.000 Z0
N0290 X3000.000 Y2000.000 Z80
N0300 X4684.333 Y0.000 Z0
N0310 X4058.191 Y2000.000 Z80
N0320 X5359.392 Y0.000 Z0
N0330 X4708.792 Y2000.000 Z80
N0340 X5736.056 Y0.000 Z0
N0350 X5034.092 Y2000.000 Z80
N0360 X6000.000 Y0.000 Z0
N0370 X5359.392 Y2000.000 Z80
N0380 X6000.000 Y741.361 Z0
N0390 X5517.046 Y2000.000 Z80
N0400 X6000.000 Y1291.945 Z0
N0410 X5758.523 Y2000.000 Z80
N0420 X6000.000 Y1756.659 Z0
N0430 X5879.261 Y2000.000 Z80
N0450 G00 X6000.000 Z0
N0470 G01 Y0.000 Z80
N0480 X0.000 Z0
N0490 Y2000.000 Z80
N0500 X6000.000 Z0
N0010 (Filename: 2000x6000.tap)
N0020 (Post processor: PLAZMAKROY_XYZ_v1.scpost)
N0030 (Date: 11.11.2020)
N0040 G21 
N0050 G40 G54 G90 G49 G80 G91.1
N0060 F1000
N0070 S500
N0080 G00 X0.000 Y294.031
N0100 G01 X335.583 Y0.000 F12000.0
N0110 X0.000 Y685.370 Z80
N0120 X682.896 Y0.000  Z0
N0130 X0.000 Y1115.842 Z80
N0140 X971.508 Y0.000 Z0
N0150 X0.000 Y1482.722 Z80 
N0160 X1460.681 Y0.000 Z0
N0170 X0.000 Y1756.659 Z80
N0180 X1773.752 Y0.000 Z0
N0190 X0.000 Y2000.000 Z80
N0200 X2155.307 Y0.000 Z0
N0210 X485.754 Y2000.000 Z80
N0220 X2683.615 Y0.000 Z0
N0230 X1255.229 Y2000.000 Z80
N0240 X3167.896 Y0.000 Z0
N0250 X1842.237 Y2000.000 Z80
N0260 X3569.018 Y0.000 Z0
N0270 X2505.066 Y2000.000 Z80
N0280 X4058.191 Y0.000 Z0
N0290 X3000.000 Y2000.000 Z80
N0300 X4684.333 Y0.000 Z0
N0310 X4058.191 Y2000.000 Z80
N0320 X5359.392 Y0.000 Z0
N0330 X4708.792 Y2000.000 Z80
N0340 X5736.056 Y0.000 Z0
N0350 X5034.092 Y2000.000 Z80
N0360 X6000.000 Y0.000 Z0
N0370 X5359.392 Y2000.000 Z80
N0380 X6000.000 Y741.361 Z0
N0390 X5517.046 Y2000.000 Z80
N0400 X6000.000 Y1291.945 Z0
N0410 X5758.523 Y2000.000 Z80
N0420 X6000.000 Y1756.659 Z0
N0430 X5879.261 Y2000.000 Z80
N0450 G00 X6000.000 Z0
N0470 G01 Y0.000 Z80
N0480 X0.000 Z0
N0490 Y2000.000 Z80
N0500 X6000.000 Z0
N0010 (Filename: 2000x6000.tap)
N0020 (Post processor: PLAZMAKROY_XYZ_v1.scpost)
N0030 (Date: 11.11.2020)
N0040 G21 
N0050 G40 G54 G90 G49 G80 G91.1
N0060 F1000
N0070 S500
N0080 G00 X0.000 Y294.031
N0100 G01 X335.583 Y0.000 F12000.0
N0110 X0.000 Y685.370 Z80
N0120 X682.896 Y0.000  Z0
N0130 X0.000 Y1115.842 Z80
N0140 X971.508 Y0.000 Z0
N0150 X0.000 Y1482.722 Z80 
N0160 X1460.681 Y0.000 Z0
N0170 X0.000 Y1756.659 Z80
N0180 X1773.752 Y0.000 Z0
N0190 X0.000 Y2000.000 Z80
N0200 X2155.307 Y0.000 Z0
N0210 X485.754 Y2000.000 Z80
N0220 X2683.615 Y0.000 Z0
N0230 X1255.229 Y2000.000 Z80
N0240 X3167.896 Y0.000 Z0
N0250 X1842.237 Y2000.000 Z80
N0260 X3569.018 Y0.000 Z0
N0270 X2505.066 Y2000.000 Z80
N0280 X4058.191 Y0.000 Z0
N0290 X3000.000 Y2000.000 Z80
N0300 X4684.333 Y0.000 Z0
N0310 X4058.191 Y2000.000 Z80
N0320 X5359.392 Y0.000 Z0
N0330 X4708.792 Y2000.000 Z80
N0340 X5736.056 Y0.000 Z0
N0350 X5034.092 Y2000.000 Z80
N0360 X6000.000 Y0.000 Z0
N0370 X5359.392 Y2000.000 Z80
N0380 X6000.000 Y741.361 Z0
N0390 X5517.046 Y2000.000 Z80
N0400 X6000.000 Y1291.945 Z0
N0410 X5758.523 Y2000.000 Z80
N0420 X6000.000 Y1756.659 Z0
N0430 X5879.261 Y2000.000 Z80
N0450 G00 X6000.000 Z0
N0470 G01 Y0.000 Z80
N0480 X0.000 Z0
N0490 Y2000.000 Z80
N0500 X6000.000 Z0
N0010 (Filename: 2000x6000.tap)
N0020 (Post processor: PLAZMAKROY_XYZ_v1.scpost)
N0030 (Date: 11.11.2020)
N0040 G21 
N0050 G40 G54 G90 G49 G80 G91.1
N0060 F1000
N0070 S500
N0080 G00 X0.000 Y294.031
N0100 G01 X335.583 Y0.000 F12000.0
N0110 X0.000 Y685.370 Z80
N0120 X682.896 Y0.000  Z0
N0130 X0.000 Y1115.842 Z80
N0140 X971.508 Y0.000 Z0
N0150 X0.000 Y1482.722 Z80 
N0160 X1460.681 Y0.000 Z0
N0170 X0.000 Y1756.659 Z80
N0180 X1773.752 Y0.000 Z0
N0190 X0.000 Y2000.000 Z80
N0200 X2155.307 Y0.000 Z0
N0210 X485.754 Y2000.000 Z80
N0220 X2683.615 Y0.000 Z0
N0230 X1255.229 Y2000.000 Z80
N0240 X3167.896 Y0.000 Z0
N0250 X1842.237 Y2000.000 Z80
N0260 X3569.018 Y0.000 Z0
N0270 X2505.066 Y2000.000 Z80
N0280 X4058.191 Y0.000 Z0
N0290 X3000.000 Y2000.000 Z80
N0300 X4684.333 Y0.000 Z0
N0310 X4058.191 Y2000.000 Z80
N0320 X5359.392 Y0.000 Z0
N0330 X4708.792 Y2000.000 Z80
N0340 X5736.056 Y0.000 Z0
N0350 X5034.092 Y2000.000 Z80
N0360 X6000.000 Y0.000 Z0
N0370 X5359.392 Y2000.000 Z80
N0380 X6000.000 Y741.361 Z0
N0390 X5517.046 Y2000.000 Z80
N0400 X6000.000 Y1291.945 Z0
N0410 X5758.523 Y2000.000 Z80
N0420 X6000.000 Y1756.659 Z0
N0430 X5879.261 Y2000.000 Z80
N0450 G00 X6000.000 Z0
N0470 G01 Y0.000 Z80
N0480 X0.000 Z0
N0490 Y2000.000 Z80
N0500 X6000.000 Z0
N0010 (Filename: 2000x6000.tap)
N0020 (Post processor: PLAZMAKROY_XYZ_v1.scpost)
N0030 (Date: 11.11.2020)
N0040 G21 
N0050 G40 G54 G90 G49 G80 G91.1
N0060 F1000
N0070 S500
N0080 G00 X0.000 Y294.031
N0100 G01 X335.583 Y0.000 F12000.0
N0110 X0.000 Y685.370 Z80
N0120 X682.896 Y0.000  Z0
N0130 X0.000 Y1115.842 Z80
N0140 X971.508 Y0.000 Z0
N0150 X0.000 Y1482.722 Z80 
N0160 X1460.681 Y0.000 Z0
N0170 X0.000 Y1756.659 Z80
N0180 X1773.752 Y0.000 Z0
N0190 X0.000 Y2000.000 Z80
N0200 X2155.307 Y0.000 Z0
N0210 X485.754 Y2000.000 Z80
N0220 X2683.615 Y0.000 Z0
N0230 X1255.229 Y2000.000 Z80
N0240 X3167.896 Y0.000 Z0
N0250 X1842.237 Y2000.000 Z80
N0260 X3569.018 Y0.000 Z0
N0270 X2505.066 Y2000.000 Z80
N0280 X4058.191 Y0.000 Z0
N0290 X3000.000 Y2000.000 Z80
N0300 X4684.333 Y0.000 Z0
N0310 X4058.191 Y2000.000 Z80
N0320 X5359.392 Y0.000 Z0
N0330 X4708.792 Y2000.000 Z80
N0340 X5736.056 Y0.000 Z0
N0350 X5034.092 Y2000.000 Z80
N0360 X6000.000 Y0.000 Z0
N0370 X5359.392 Y2000.000 Z80
N0380 X6000.000 Y741.361 Z0
N0390 X5517.046 Y2000.000 Z80
N0400 X6000.000 Y1291.945 Z0
N0410 X5758.523 Y2000.000 Z80
N0420 X6000.000 Y1756.659 Z0
N0430 X5879.261 Y2000.000 Z80
N0450 G00 X6000.000 Z0
N0470 G01 Y0.000 Z80
N0480 X0.000 Z0
N0490 Y2000.000 Z80
N0500 X6000.000 Z0
N0010 (Filename: 2000x6000.tap)
N0020 (Post processor: PLAZMAKROY_XYZ_v1.scpost)
N0030 (Date: 11.11.2020)
N0040 G21 
N0050 G40 G54 G90 G49 G80 G91.1
N0060 F1000
N0070 S500
N0080 G00 X0.000 Y294.031
N0100 G01 X335.583 Y0.000 F12000.0
N0110 X0.000 Y685.370 Z80
N0120 X682.896 Y0.000  Z0
N0130 X0.000 Y1115.842 Z80
N0140 X971.508 Y0.000 Z0
N0150 X0.000 Y1482.722 Z80 
N0160 X1460.681 Y0.000 Z0
N0170 X0.000 Y1756.659 Z80
N0180 X1773.752 Y0.000 Z0
N0190 X0.000 Y2000.000 Z80
N0200 X2155.307 Y0.000 Z0
N0210 X485.754 Y2000.000 Z80
N0220 X2683.615 Y0.000 Z0
N0230 X1255.229 Y2000.000 Z80
N0240 X3167.896 Y0.000 Z0
N0250 X1842.237 Y2000.000 Z80
N0260 X3569.018 Y0.000 Z0
N0270 X2505.066 Y2000.000 Z80
N0280 X4058.191 Y0.000 Z0
N0290 X3000.000 Y2000.000 Z80
N0300 X4684.333 Y0.000 Z0
N0310 X4058.191 Y2000.000 Z80
N0320 X5359.392 Y0.000 Z0
N0330 X4708.792 Y2000.000 Z80
N0340 X5736.056 Y0.000 Z0
N0350 X5034.092 Y2000.000 Z80
N0360 X6000.000 Y0.000 Z0
N0370 X5359.392 Y2000.000 Z80
N0380 X6000.000 Y741.361 Z0
N0390 X5517.046 Y2000.000 Z80
N0400 X6000.000 Y1291.945 Z0
N0410 X5758.523 Y2000.000 Z80
N0420 X6000.000 Y1756.659 Z0
N0430 X5879.261 Y2000.000 Z80
N0450 G00 X6000.000 Z0
N0470 G01 Y0.000 Z80
N0480 X0.000 Z0
N0490 Y2000.000 Z80
N0500 X6000.000 Z0
N0010 (Filename: 2000x6000.tap)
N0020 (Post processor: PLAZMAKROY_XYZ_v1.scpost)
N0030 (Date: 11.11.2020)
N0040 G21 
N0050 G40 G54 G90 G49 G80 G91.1
N0060 F1000
N0070 S500
N0080 G00 X0.000 Y294.031
N0100 G01 X335.583 Y0.000 F12000.0
N0110 X0.000 Y685.370 Z80
N0120 X682.896 Y0.000  Z0
N0130 X0.000 Y1115.842 Z80
N0140 X971.508 Y0.000 Z0
N0150 X0.000 Y1482.722 Z80 
N0160 X1460.681 Y0.000 Z0
N0170 X0.000 Y1756.659 Z80
N0180 X1773.752 Y0.000 Z0
N0190 X0.000 Y2000.000 Z80
N0200 X2155.307 Y0.000 Z0
N0210 X485.754 Y2000.000 Z80
N0220 X2683.615 Y0.000 Z0
N0230 X1255.229 Y2000.000 Z80
N0240 X3167.896 Y0.000 Z0
N0250 X1842.237 Y2000.000 Z80
N0260 X3569.018 Y0.000 Z0
N0270 X2505.066 Y2000.000 Z80
N0280 X4058.191 Y0.000 Z0
N0290 X3000.000 Y2000.000 Z80
N0300 X4684.333 Y0.000 Z0
N0310 X4058.191 Y2000.000 Z80
N0320 X5359.392 Y0.000 Z0
N0330 X4708.792 Y2000.000 Z80
N0340 X5736.056 Y0.000 Z0
N0350 X5034.092 Y2000.000 Z80
N0360 X6000.000 Y0.000 Z0
N0370 X5359.392 Y2000.000 Z80
N0380 X6000.000 Y741.361 Z0
N0390 X5517.046 Y2000.000 Z80
N0400 X6000.000 Y1291.945 Z0
N0410 X5758.523 Y2000.000 Z80
N0420 X6000.000 Y1756.659 Z0
N0430 X5879.261 Y2000.000 Z80
N0450 G00 X6000.000 Z0
N0470 G01 Y0.000 Z80
N0480 X0.000 Z0
N0490 Y2000.000 Z80
N0500 X6000.000 Z0
N0010 (Filename: 2000x6000.tap)
N0020 (Post processor: PLAZMAKROY_XYZ_v1.scpost)
N0030 (Date: 11.11.2020)
N0040 G21 
N0050 G40 G54 G90 G49 G80 G91.1
N0060 F1000
N0070 S500
N0080 G00 X0.000 Y294.031
N0100 G01 X335.583 Y0.000 F12000.0
N0110 X0.000 Y685.370 Z80
N0120 X682.896 Y0.000  Z0
N0130 X0.000 Y1115.842 Z80
N0140 X971.508 Y0.000 Z0
N0150 X0.000 Y1482.722 Z80 
N0160 X1460.681 Y0.000 Z0
N0170 X0.000 Y1756.659 Z80
N0180 X1773.752 Y0.000 Z0
N0190 X0.000 Y2000.000 Z80
N0200 X2155.307 Y0.000 Z0
N0210 X485.754 Y2000.000 Z80
N0220 X2683.615 Y0.000 Z0
N0230 X1255.229 Y2000.000 Z80
N0240 X3167.896 Y0.000 Z0
N0250 X1842.237 Y2000.000 Z80
N0260 X3569.018 Y0.000 Z0
N0270 X2505.066 Y2000.000 Z80
N0280 X4058.191 Y0.000 Z0
N0290 X3000.000 Y2000.000 Z80
N0300 X4684.333 Y0.000 Z0
N0310 X4058.191 Y2000.000 Z80
N0320 X5359.392 Y0.000 Z0
N0330 X4708.792 Y2000.000 Z80
N0340 X5736.056 Y0.000 Z0
N0350 X5034.092 Y2000.000 Z80
N0360 X6000.000 Y0.000 Z0
N0370 X5359.392 Y2000.000 Z80
N0380 X6000.000 Y741.361 Z0
N0390 X5517.046 Y2000.000 Z80
N0400 X6000.000 Y1291.945 Z0
N0410 X5758.523 Y2000.000 Z80
N0420 X6000.000 Y1756.659 Z0
N0430 X5879.261 Y2000.000 Z80
N0450 G00 X6000.000 Z0
N0470 G01 Y0.000 Z80
N0480 X0.000 Z0
N0490 Y2000.000 Z80
N0500 X6000.000 Z0
N0010 (Filename: 2000x6000.tap)
N0020 (Post processor: PLAZMAKROY_XYZ_v1.scpost)
N0030 (Date: 11.11.2020)
N0040 G21 
N0050 G40 G54 G90 G49 G80 G91.1
N0060 F1000
N0070 S500
N0080 G00 X0.000 Y294.031
N0100 G01 X335.583 Y0.000 F12000.0
N0110 X0.000 Y685.370 Z80
N0120 X682.896 Y0.000  Z0
N0130 X0.000 Y1115.842 Z80
N0140 X971.508 Y0.000 Z0
N0150 X0.000 Y1482.722 Z80 
N0160 X1460.681 Y0.000 Z0
N0170 X0.000 Y1756.659 Z80
N0180 X1773.752 Y0.000 Z0
N0190 X0.000 Y2000.000 Z80
N0200 X2155.307 Y0.000 Z0
N0210 X485.754 Y2000.000 Z80
N0220 X2683.615 Y0.000 Z0
N0230 X1255.229 Y2000.000 Z80
N0240 X3167.896 Y0.000 Z0
N0250 X1842.237 Y2000.000 Z80
N0260 X3569.018 Y0.000 Z0
N0270 X2505.066 Y2000.000 Z80
N0280 X4058.191 Y0.000 Z0
N0290 X3000.000 Y2000.000 Z80
N0300 X4684.333 Y0.000 Z0
N0310 X4058.191 Y2000.000 Z80
N0320 X5359.392 Y0.000 Z0
N0330 X4708.792 Y2000.000 Z80
N0340 X5736.056 Y0.000 Z0
N0350 X5034.092 Y2000.000 Z80
N0360 X6000.000 Y0.000 Z0
N0370 X5359.392 Y2000.000 Z80
N0380 X6000.000 Y741.361 Z0
N0390 X5517.046 Y2000.000 Z80
N0400 X6000.000 Y1291.945 Z0
N0410 X5758.523 Y2000.000 Z80
N0420 X6000.000 Y1756.659 Z0
N0430 X5879.261 Y2000.000 Z80
N0450 G00 X6000.000 Z0
N0470 G01 Y0.000 Z80
N0480 X0.000 Z0
N0490 Y2000.000 Z80
N0500 X6000.000 Z0
N0010 (Filename: 2000x6000.tap)
N0020 (Post processor: PLAZMAKROY_XYZ_v1.scpost)
N0030 (Date: 11.11.2020)
N0040 G21 
N0050 G40 G54 G90 G49 G80 G91.1
N0060 F1000
N0070 S500
N0080 G00 X0.000 Y294.031
N0100 G01 X335.583 Y0.000 F12000.0
N0110 X0.000 Y685.370 Z80
N0120 X682.896 Y0.000  Z0
N0130 X0.000 Y1115.842 Z80
N0140 X971.508 Y0.000 Z0
N0150 X0.000 Y1482.722 Z80 
N0160 X1460.681 Y0.000 Z0
N0170 X0.000 Y1756.659 Z80
N0180 X1773.752 Y0.000 Z0
N0190 X0.000 Y2000.000 Z80
N0200 X2155.307 Y0.000 Z0
N0210 X485.754 Y2000.000 Z80
N0220 X2683.615 Y0.000 Z0
N0230 X1255.229 Y2000.000 Z80
N0240 X3167.896 Y0.000 Z0
N0250 X1842.237 Y2000.000 Z80
N0260 X3569.018 Y0.000 Z0
N0270 X2505.066 Y2000.000 Z80
N0280 X4058.191 Y0.000 Z0
N0290 X3000.000 Y2000.000 Z80
N0300 X4684.333 Y0.000 Z0
N0310 X4058.191 Y2000.000 Z80
N0320 X5359.392 Y0.000 Z0
N0330 X4708.792 Y2000.000 Z80
N0340 X5736.056 Y0.000 Z0
N0350 X5034.092 Y2000.000 Z80
N0360 X6000.000 Y0.000 Z0
N0370 X5359.392 Y2000.000 Z80
N0380 X6000.000 Y741.361 Z0
N0390 X5517.046 Y2000.000 Z80
N0400 X6000.000 Y1291.945 Z0
N0410 X5758.523 Y2000.000 Z80
N0420 X6000.000 Y1756.659 Z0
N0430 X5879.261 Y2000.000 Z80
N0450 G00 X6000.000 Z0
N0470 G01 Y0.000 Z80
N0480 X0.000 Z0
N0490 Y2000.000 Z80
N0500 X6000.000 Z0
N0010 (Filename: 2000x6000.tap)
N0020 (Post processor: PLAZMAKROY_XYZ_v1.scpost)
N0030 (Date: 11.11.2020)
N0040 G21 
N0050 G40 G54 G90 G49 G80 G91.1
N0060 F1000
N0070 S500
N0080 G00 X0.000 Y294.031
N0100 G01 X335.583 Y0.000 F12000.0
N0110 X0.000 Y685.370 Z80
N0120 X682.896 Y0.000  Z0
N0130 X0.000 Y1115.842 Z80
N0140 X971.508 Y0.000 Z0
N0150 X0.000 Y1482.722 Z80 
N0160 X1460.681 Y0.000 Z0
N0170 X0.000 Y1756.659 Z80
N0180 X1773.752 Y0.000 Z0
N0190 X0.000 Y2000.000 Z80
N0200 X2155.307 Y0.000 Z0
N0210 X485.754 Y2000.000 Z80
N0220 X2683.615 Y0.000 Z0
N0230 X1255.229 Y2000.000 Z80
N0240 X3167.896 Y0.000 Z0
N0250 X1842.237 Y2000.000 Z80
N0260 X3569.018 Y0.000 Z0
N0270 X2505.066 Y2000.000 Z80
N0280 X4058.191 Y0.000 Z0
N0290 X3000.000 Y2000.000 Z80
N0300 X4684.333 Y0.000 Z0
N0310 X4058.191 Y2000.000 Z80
N0320 X5359.392 Y0.000 Z0
N0330 X4708.792 Y2000.000 Z80
N0340 X5736.056 Y0.000 Z0
N0350 X5034.092 Y2000.000 Z80
N0360 X6000.000 Y0.000 Z0
N0370 X5359.392 Y2000.000 Z80
N0380 X6000.000 Y741.361 Z0
N0390 X5517.046 Y2000.000 Z80
N0400 X6000.000 Y1291.945 Z0
N0410 X5758.523 Y2000.000 Z80
N0420 X6000.000 Y1756.659 Z0
N0430 X5879.261 Y2000.000 Z80
N0450 G00 X6000.000 Z0
N0470 G01 Y0.000 Z80
N0480 X0.000 Z0
N0490 Y2000.000 Z80
N0500 X6000.000 Z0
N0010 (Filename: 2000x6000.tap)
N0020 (Post processor: PLAZMAKROY_XYZ_v1.scpost)
N0030 (Date: 11.11.2020)
N0040 G21 
N0050 G40 G54 G90 G49 G80 G91.1
N0060 F1000
N0070 S500
N0080 G00 X0.000 Y294.031
N0100 G01 X335.583 Y0.000 F12000.0
N0110 X0.000 Y685.370 Z80
N0120 X682.896 Y0.000  Z0
N0130 X0.000 Y1115.842 Z80
N0140 X971.508 Y0.000 Z0
N0150 X0.000 Y1482.722 Z80 
N0160 X1460.681 Y0.000 Z0
N0170 X0.000 Y1756.659 Z80
N0180 X1773.752 Y0.000 Z0
N0190 X0.000 Y2000.000 Z80
N0200 X2155.307 Y0.000 Z0
N0210 X485.754 Y2000.000 Z80
N0220 X2683.615 Y0.000 Z0
N0230 X1255.229 Y2000.000 Z80
N0240 X3167.896 Y0.000 Z0
N0250 X1842.237 Y2000.000 Z80
N0260 X3569.018 Y0.000 Z0
N0270 X2505.066 Y2000.000 Z80
N0280 X4058.191 Y0.000 Z0
N0290 X3000.000 Y2000.000 Z80
N0300 X4684.333 Y0.000 Z0
N0310 X4058.191 Y2000.000 Z80
N0320 X5359.392 Y0.000 Z0
N0330 X4708.792 Y2000.000 Z80
N0340 X5736.056 Y0.000 Z0
N0350 X5034.092 Y2000.000 Z80
N0360 X6000.000 Y0.000 Z0
N0370 X5359.392 Y2000.000 Z80
N0380 X6000.000 Y741.361 Z0
N0390 X5517.046 Y2000.000 Z80
N0400 X6000.000 Y1291.945 Z0
N0410 X5758.523 Y2000.000 Z80
N0420 X6000.000 Y1756.659 Z0
N0430 X5879.261 Y2000.000 Z80
N0450 G00 X6000.000 Z0
N0470 G01 Y0.000 Z80
N0480 X0.000 Z0
N0490 Y2000.000 Z80
N0500 X6000.000 Z0
N0010 (Filename: 2000x6000.tap)
N0020 (Post processor: PLAZMAKROY_XYZ_v1.scpost)
N0030 (Date: 11.11.2020)
N0040 G21 
N0050 G40 G54 G90 G49 G80 G91.1
N0060 F1000
N0070 S500
N0080 G00 X0.000 Y294.031
N0100 G01 X335.583 Y0.000 F12000.0
N0110 X0.000 Y685.370 Z80
N0120 X682.896 Y0.000  Z0
N0130 X0.000 Y1115.842 Z80
N0140 X971.508 Y0.000 Z0
N0150 X0.000 Y1482.722 Z80 
N0160 X1460.681 Y0.000 Z0
N0170 X0.000 Y1756.659 Z80
N0180 X1773.752 Y0.000 Z0
N0190 X0.000 Y2000.000 Z80
N0200 X2155.307 Y0.000 Z0
N0210 X485.754 Y2000.000 Z80
N0220 X2683.615 Y0.000 Z0
N0230 X1255.229 Y2000.000 Z80
N0240 X3167.896 Y0.000 Z0
N0250 X1842.237 Y2000.000 Z80
N0260 X3569.018 Y0.000 Z0
N0270 X2505.066 Y2000.000 Z80
N0280 X4058.191 Y0.000 Z0
N0290 X3000.000 Y2000.000 Z80
N0300 X4684.333 Y0.000 Z0
N0310 X4058.191 Y2000.000 Z80
N0320 X5359.392 Y0.000 Z0
N0330 X4708.792 Y2000.000 Z80
N0340 X5736.056 Y0.000 Z0
N0350 X5034.092 Y2000.000 Z80
N0360 X6000.000 Y0.000 Z0
N0370 X5359.392 Y2000.000 Z80
N0380 X6000.000 Y741.361 Z0
N0390 X5517.046 Y2000.000 Z80
N0400 X6000.000 Y1291.945 Z0
N0410 X5758.523 Y2000.000 Z80
N0420 X6000.000 Y1756.659 Z0
N0430 X5879.261 Y2000.000 Z80
N0450 G00 X6000.000 Z0
N0470 G01 Y0.000 Z80
N0480 X0.000 Z0
N0490 Y2000.000 Z80
N0500 X6000.000 Z0
N0010 (Filename: 2000x6000.tap)
N0020 (Post processor: PLAZMAKROY_XYZ_v1.scpost)
N0030 (Date: 11.11.2020)
N0040 G21 
N0050 G40 G54 G90 G49 G80 G91.1
N0060 F1000
N0070 S500
N0080 G00 X0.000 Y294.031
N0100 G01 X335.583 Y0.000 F12000.0
N0110 X0.000 Y685.370 Z80
N0120 X682.896 Y0.000  Z0
N0130 X0.000 Y1115.842 Z80
N0140 X971.508 Y0.000 Z0
N0150 X0.000 Y1482.722 Z80 
N0160 X1460.681 Y0.000 Z0
N0170 X0.000 Y1756.659 Z80
N0180 X1773.752 Y0.000 Z0
N0190 X0.000 Y2000.000 Z80
N0200 X2155.307 Y0.000 Z0
N0210 X485.754 Y2000.000 Z80
N0220 X2683.615 Y0.000 Z0
N0230 X1255.229 Y2000.000 Z80
N0240 X3167.896 Y0.000 Z0
N0250 X1842.237 Y2000.000 Z80
N0260 X3569.018 Y0.000 Z0
N0270 X2505.066 Y2000.000 Z80
N0280 X4058.191 Y0.000 Z0
N0290 X3000.000 Y2000.000 Z80
N0300 X4684.333 Y0.000 Z0
N0310 X4058.191 Y2000.000 Z80
N0320 X5359.392 Y0.000 Z0
N0330 X4708.792 Y2000.000 Z80
N0340 X5736.056 Y0.000 Z0
N0350 X5034.092 Y2000.000 Z80
N0360 X6000.000 Y0.000 Z0
N0370 X5359.392 Y2000.000 Z80
N0380 X6000.000 Y741.361 Z0
N0390 X5517.046 Y2000.000 Z80
N0400 X6000.000 Y1291.945 Z0
N0410 X5758.523 Y2000.000 Z80
N0420 X6000.000 Y1756.659 Z0
N0430 X5879.261 Y2000.000 Z80
N0450 G00 X6000.000 Z0
N0470 G01 Y0.000 Z80
N0480 X0.000 Z0
N0490 Y2000.000 Z80
N0500 X6000.000 Z0
N0010 (Filename: 2000x6000.tap)
N0020 (Post processor: PLAZMAKROY_XYZ_v1.scpost)
N0030 (Date: 11.11.2020)
N0040 G21 
N0050 G40 G54 G90 G49 G80 G91.1
N0060 F1000
N0070 S500
N0080 G00 X0.000 Y294.031
N0100 G01 X335.583 Y0.000 F12000.0
N0110 X0.000 Y685.370 Z80
N0120 X682.896 Y0.000  Z0
N0130 X0.000 Y1115.842 Z80
N0140 X971.508 Y0.000 Z0
N0150 X0.000 Y1482.722 Z80 
N0160 X1460.681 Y0.000 Z0
N0170 X0.000 Y1756.659 Z80
N0180 X1773.752 Y0.000 Z0
N0190 X0.000 Y2000.000 Z80
N0200 X2155.307 Y0.000 Z0
N0210 X485.754 Y2000.000 Z80
N0220 X2683.615 Y0.000 Z0
N0230 X1255.229 Y2000.000 Z80
N0240 X3167.896 Y0.000 Z0
N0250 X1842.237 Y2000.000 Z80
N0260 X3569.018 Y0.000 Z0
N0270 X2505.066 Y2000.000 Z80
N0280 X4058.191 Y0.000 Z0
N0290 X3000.000 Y2000.000 Z80
N0300 X4684.333 Y0.000 Z0
N0310 X4058.191 Y2000.000 Z80
N0320 X5359.392 Y0.000 Z0
N0330 X4708.792 Y2000.000 Z80
N0340 X5736.056 Y0.000 Z0
N0350 X5034.092 Y2000.000 Z80
N0360 X6000.000 Y0.000 Z0
N0370 X5359.392 Y2000.000 Z80
N0380 X6000.000 Y741.361 Z0
N0390 X5517.046 Y2000.000 Z80
N0400 X6000.000 Y1291.945 Z0
N0410 X5758.523 Y2000.000 Z80
N0420 X6000.000 Y1756.659 Z0
N0430 X5879.261 Y2000.000 Z80
N0450 G00 X6000.000 Z0
N0470 G01 Y0.000 Z80
N0480 X0.000 Z0
N0490 Y2000.000 Z80
N0500 X6000.000 Z0
N0010 (Filename: 2000x6000.tap)
N0020 (Post processor: PLAZMAKROY_XYZ_v1.scpost)
N0030 (Date: 11.11.2020)
N0040 G21 
N0050 G40 G54 G90 G49 G80 G91.1
N0060 F1000
N0070 S500
N0080 G00 X0.000 Y294.031
N0100 G01 X335.583 Y0.000 F12000.0
N0110 X0.000 Y685.370 Z80
N0120 X682.896 Y0.000  Z0
N0130 X0.000 Y1115.842 Z80
N0140 X971.508 Y0.000 Z0
N0150 X0.000 Y1482.722 Z80 
N0160 X1460.681 Y0.000 Z0
N0170 X0.000 Y1756.659 Z80
N0180 X1773.752 Y0.000 Z0
N0190 X0.000 Y2000.000 Z80
N0200 X2155.307 Y0.000 Z0
N0210 X485.754 Y2000.000 Z80
N0220 X2683.615 Y0.000 Z0
N0230 X1255.229 Y2000.000 Z80
N0240 X3167.896 Y0.000 Z0
N0250 X1842.237 Y2000.000 Z80
N0260 X3569.018 Y0.000 Z0
N0270 X2505.066 Y2000.000 Z80
N0280 X4058.191 Y0.000 Z0
N0290 X3000.000 Y2000.000 Z80
N0300 X4684.333 Y0.000 Z0
N0310 X4058.191 Y2000.000 Z80
N0320 X5359.392 Y0.000 Z0
N0330 X4708.792 Y2000.000 Z80
N0340 X5736.056 Y0.000 Z0
N0350 X5034.092 Y2000.000 Z80
N0360 X6000.000 Y0.000 Z0
N0370 X5359.392 Y2000.000 Z80
N0380 X6000.000 Y741.361 Z0
N0390 X5517.046 Y2000.000 Z80
N0400 X6000.000 Y1291.945 Z0
N0410 X5758.523 Y2000.000 Z80
N0420 X6000.000 Y1756.659 Z0
N0430 X5879.261 Y2000.000 Z80
N0450 G00 X6000.000 Z0
N0470 G01 Y0.000 Z80
N0480 X0.000 Z0
N0490 Y2000.000 Z80
N0500 X6000.000 Z0
N0010 (Filename: 2000x6000.tap)
N0020 (Post processor: PLAZMAKROY_XYZ_v1.scpost)
N0030 (Date: 11.11.2020)
N0040 G21 
N0050 G40 G54 G90 G49 G80 G91.1
N0060 F1000
N0070 S500
N0080 G00 X0.000 Y294.031
N0100 G01 X335.583 Y0.000 F12000.0
N0110 X0.000 Y685.370 Z80
N0120 X682.896 Y0.000  Z0
N0130 X0.000 Y1115.842 Z80
N0140 X971.508 Y0.000 Z0
N0150 X0.000 Y1482.722 Z80 
N0160 X1460.681 Y0.000 Z0
N0170 X0.000 Y1756.659 Z80
N0180 X1773.752 Y0.000 Z0
N0190 X0.000 Y2000.000 Z80
N0200 X2155.307 Y0.000 Z0
N0210 X485.754 Y2000.000 Z80
N0220 X2683.615 Y0.000 Z0
N0230 X1255.229 Y2000.000 Z80
N0240 X3167.896 Y0.000 Z0
N0250 X1842.237 Y2000.000 Z80
N0260 X3569.018 Y0.000 Z0
N0270 X2505.066 Y2000.000 Z80
N0280 X4058.191 Y0.000 Z0
N0290 X3000.000 Y2000.000 Z80
N0300 X4684.333 Y0.000 Z0
N0310 X4058.191 Y2000.000 Z80
N0320 X5359.392 Y0.000 Z0
N0330 X4708.792 Y2000.000 Z80
N0340 X5736.056 Y0.000 Z0
N0350 X5034.092 Y2000.000 Z80
N0360 X6000.000 Y0.000 Z0
N0370 X5359.392 Y2000.000 Z80
N0380 X6000.000 Y741.361 Z0
N0390 X5517.046 Y2000.000 Z80
N0400 X6000.000 Y1291.945 Z0
N0410 X5758.523 Y2000.000 Z80
N0420 X6000.000 Y1756.659 Z0
N0430 X5879.261 Y2000.000 Z80
N0450 G00 X6000.000 Z0
N0470 G01 Y0.000 Z80
N0480 X0.000 Z0
N0490 Y2000.000 Z80
N0500 X6000.000 Z0
N0010 (Filename: 2000x6000.tap)
N0020 (Post processor: PLAZMAKROY_XYZ_v1.scpost)
N0030 (Date: 11.11.2020)
N0040 G21 
N0050 G40 G54 G90 G49 G80 G91.1
N0060 F1000
N0070 S500
N0080 G00 X0.000 Y294.031
N0100 G01 X335.583 Y0.000 F12000.0
N0110 X0.000 Y685.370 Z80
N0120 X682.896 Y0.000  Z0
N0130 X0.000 Y1115.842 Z80
N0140 X971.508 Y0.000 Z0
N0150 X0.000 Y1482.722 Z80 
N0160 X1460.681 Y0.000 Z0
N0170 X0.000 Y1756.659 Z80
N0180 X1773.752 Y0.000 Z0
N0190 X0.000 Y2000.000 Z80
N0200 X2155.307 Y0.000 Z0
N0210 X485.754 Y2000.000 Z80
N0220 X2683.615 Y0.000 Z0
N0230 X1255.229 Y2000.000 Z80
N0240 X3167.896 Y0.000 Z0
N0250 X1842.237 Y2000.000 Z80
N0260 X3569.018 Y0.000 Z0
N0270 X2505.066 Y2000.000 Z80
N0280 X4058.191 Y0.000 Z0
N0290 X3000.000 Y2000.000 Z80
N0300 X4684.333 Y0.000 Z0
N0310 X4058.191 Y2000.000 Z80
N0320 X5359.392 Y0.000 Z0
N0330 X4708.792 Y2000.000 Z80
N0340 X5736.056 Y0.000 Z0
N0350 X5034.092 Y2000.000 Z80
N0360 X6000.000 Y0.000 Z0
N0370 X5359.392 Y2000.000 Z80
N0380 X6000.000 Y741.361 Z0
N0390 X5517.046 Y2000.000 Z80
N0400 X6000.000 Y1291.945 Z0
N0410 X5758.523 Y2000.000 Z80
N0420 X6000.000 Y1756.659 Z0
N0430 X5879.261 Y2000.000 Z80
N0450 G00 X6000.000 Z0
N0470 G01 Y0.000 Z80
N0480 X0.000 Z0
N0490 Y2000.000 Z80
N0500 X6000.000 Z0
N0010 (Filename: 2000x6000.tap)
N0020 (Post processor: PLAZMAKROY_XYZ_v1.scpost)
N0030 (Date: 11.11.2020)
N0040 G21 
N0050 G40 G54 G90 G49 G80 G91.1
N0060 F1000
N0070 S500
N0080 G00 X0.000 Y294.031
N0100 G01 X335.583 Y0.000 F12000.0
N0110 X0.000 Y685.370 Z80
N0120 X682.896 Y0.000  Z0
N0130 X0.000 Y1115.842 Z80
N0140 X971.508 Y0.000 Z0
N0150 X0.000 Y1482.722 Z80 
N0160 X1460.681 Y0.000 Z0
N0170 X0.000 Y1756.659 Z80
N0180 X1773.752 Y0.000 Z0
N0190 X0.000 Y2000.000 Z80
N0200 X2155.307 Y0.000 Z0
N0210 X485.754 Y2000.000 Z80
N0220 X2683.615 Y0.000 Z0
N0230 X1255.229 Y2000.000 Z80
N0240 X3167.896 Y0.000 Z0
N0250 X1842.237 Y2000.000 Z80
N0260 X3569.018 Y0.000 Z0
N0270 X2505.066 Y2000.000 Z80
N0280 X4058.191 Y0.000 Z0
N0290 X3000.000 Y2000.000 Z80
N0300 X4684.333 Y0.000 Z0
N0310 X4058.191 Y2000.000 Z80
N0320 X5359.392 Y0.000 Z0
N0330 X4708.792 Y2000.000 Z80
N0340 X5736.056 Y0.000 Z0
N0350 X5034.092 Y2000.000 Z80
N0360 X6000.000 Y0.000 Z0
N0370 X5359.392 Y2000.000 Z80
N0380 X6000.000 Y741.361 Z0
N0390 X5517.046 Y2000.000 Z80
N0400 X6000.000 Y1291.945 Z0
N0410 X5758.523 Y2000.000 Z80
N0420 X6000.000 Y1756.659 Z0
N0430 X5879.261 Y2000.000 Z80
N0450 G00 X6000.000 Z0
N0470 G01 Y0.000 Z80
N0480 X0.000 Z0
N0490 Y2000.000 Z80
N0500 X6000.000 Z0
N0010 (Filename: 2000x6000.tap)
N0020 (Post processor: PLAZMAKROY_XYZ_v1.scpost)
N0030 (Date: 11.11.2020)
N0040 G21 
N0050 G40 G54 G90 G49 G80 G91.1
N0060 F1000
N0070 S500
N0080 G00 X0.000 Y294.031
N0100 G01 X335.583 Y0.000 F12000.0
N0110 X0.000 Y685.370 Z80
N0120 X682.896 Y0.000  Z0
N0130 X0.000 Y1115.842 Z80
N0140 X971.508 Y0.000 Z0
N0150 X0.000 Y1482.722 Z80 
N0160 X1460.681 Y0.000 Z0
N0170 X0.000 Y1756.659 Z80
N0180 X1773.752 Y0.000 Z0
N0190 X0.000 Y2000.000 Z80
N0200 X2155.307 Y0.000 Z0
N0210 X485.754 Y2000.000 Z80
N0220 X2683.615 Y0.000 Z0
N0230 X1255.229 Y2000.000 Z80
N0240 X3167.896 Y0.000 Z0
N0250 X1842.237 Y2000.000 Z80
N0260 X3569.018 Y0.000 Z0
N0270 X2505.066 Y2000.000 Z80
N0280 X4058.191 Y0.000 Z0
N0290 X3000.000 Y2000.000 Z80
N0300 X4684.333 Y0.000 Z0
N0310 X4058.191 Y2000.000 Z80
N0320 X5359.392 Y0.000 Z0
N0330 X4708.792 Y2000.000 Z80
N0340 X5736.056 Y0.000 Z0
N0350 X5034.092 Y2000.000 Z80
N0360 X6000.000 Y0.000 Z0
N0370 X5359.392 Y2000.000 Z80
N0380 X6000.000 Y741.361 Z0
N0390 X5517.046 Y2000.000 Z80
N0400 X6000.000 Y1291.945 Z0
N0410 X5758.523 Y2000.000 Z80
N0420 X6000.000 Y1756.659 Z0
N0430 X5879.261 Y2000.000 Z80
N0450 G00 X6000.000 Z0
N0470 G01 Y0.000 Z80
N0480 X0.000 Z0
N0490 Y2000.000 Z80
N0500 X6000.000 Z0
N0010 (Filename: 2000x6000.tap)
N0020 (Post processor: PLAZMAKROY_XYZ_v1.scpost)
N0030 (Date: 11.11.2020)
N0040 G21 
N0050 G40 G54 G90 G49 G80 G91.1
N0060 F1000
N0070 S500
N0080 G00 X0.000 Y294.031
N0100 G01 X335.583 Y0.000 F12000.0
N0110 X0.000 Y685.370 Z80
N0120 X682.896 Y0.000  Z0
N0130 X0.000 Y1115.842 Z80
N0140 X971.508 Y0.000 Z0
N0150 X0.000 Y1482.722 Z80 
N0160 X1460.681 Y0.000 Z0
N0170 X0.000 Y1756.659 Z80
N0180 X1773.752 Y0.000 Z0
N0190 X0.000 Y2000.000 Z80
N0200 X2155.307 Y0.000 Z0
N0210 X485.754 Y2000.000 Z80
N0220 X2683.615 Y0.000 Z0
N0230 X1255.229 Y2000.000 Z80
N0240 X3167.896 Y0.000 Z0
N0250 X1842.237 Y2000.000 Z80
N0260 X3569.018 Y0.000 Z0
N0270 X2505.066 Y2000.000 Z80
N0280 X4058.191 Y0.000 Z0
N0290 X3000.000 Y2000.000 Z80
N0300 X4684.333 Y0.000 Z0
N0310 X4058.191 Y2000.000 Z80
N0320 X5359.392 Y0.000 Z0
N0330 X4708.792 Y2000.000 Z80
N0340 X5736.056 Y0.000 Z0
N0350 X5034.092 Y2000.000 Z80
N0360 X6000.000 Y0.000 Z0
N0370 X5359.392 Y2000.000 Z80
N0380 X6000.000 Y741.361 Z0
N0390 X5517.046 Y2000.000 Z80
N0400 X6000.000 Y1291.945 Z0
N0410 X5758.523 Y2000.000 Z80
N0420 X6000.000 Y1756.659 Z0
N0430 X5879.261 Y2000.000 Z80
N0450 G00 X6000.000 Z0
N0470 G01 Y0.000 Z80
N0480 X0.000 Z0
N0490 Y2000.000 Z80
N0500 X6000.000 Z0
N0010 (Filename: 2000x6000.tap)
N0020 (Post processor: PLAZMAKROY_XYZ_v1.scpost)
N0030 (Date: 11.11.2020)
N0040 G21 
N0050 G40 G54 G90 G49 G80 G91.1
N0060 F1000
N0070 S500
N0080 G00 X0.000 Y294.031
N0100 G01 X335.583 Y0.000 F12000.0
N0110 X0.000 Y685.370 Z80
N0120 X682.896 Y0.000  Z0
N0130 X0.000 Y1115.842 Z80
N0140 X971.508 Y0.000 Z0
N0150 X0.000 Y1482.722 Z80 
N0160 X1460.681 Y0.000 Z0
N0170 X0.000 Y1756.659 Z80
N0180 X1773.752 Y0.000 Z0
N0190 X0.000 Y2000.000 Z80
N0200 X2155.307 Y0.000 Z0
N0210 X485.754 Y2000.000 Z80
N0220 X2683.615 Y0.000 Z0
N0230 X1255.229 Y2000.000 Z80
N0240 X3167.896 Y0.000 Z0
N0250 X1842.237 Y2000.000 Z80
N0260 X3569.018 Y0.000 Z0
N0270 X2505.066 Y2000.000 Z80
N0280 X4058.191 Y0.000 Z0
N0290 X3000.000 Y2000.000 Z80
N0300 X4684.333 Y0.000 Z0
N0310 X4058.191 Y2000.000 Z80
N0320 X5359.392 Y0.000 Z0
N0330 X4708.792 Y2000.000 Z80
N0340 X5736.056 Y0.000 Z0
N0350 X5034.092 Y2000.000 Z80
N0360 X6000.000 Y0.000 Z0
N0370 X5359.392 Y2000.000 Z80
N0380 X6000.000 Y741.361 Z0
N0390 X5517.046 Y2000.000 Z80
N0400 X6000.000 Y1291.945 Z0
N0410 X5758.523 Y2000.000 Z80
N0420 X6000.000 Y1756.659 Z0
N0430 X5879.261 Y2000.000 Z80
N0450 G00 X6000.000 Z0
N0470 G01 Y0.000 Z80
N0480 X0.000 Z0
N0490 Y2000.000 Z80
N0500 X6000.000 Z0
N0010 (Filename: 2000x6000.tap)
N0020 (Post processor: PLAZMAKROY_XYZ_v1.scpost)
N0030 (Date: 11.11.2020)
N0040 G21 
N0050 G40 G54 G90 G49 G80 G91.1
N0060 F1000
N0070 S500
N0080 G00 X0.000 Y294.031
N0100 G01 X335.583 Y0.000 F12000.0
N0110 X0.000 Y685.370 Z80
N0120 X682.896 Y0.000  Z0
N0130 X0.000 Y1115.842 Z80
N0140 X971.508 Y0.000 Z0
N0150 X0.000 Y1482.722 Z80 
N0160 X1460.681 Y0.000 Z0
N0170 X0.000 Y1756.659 Z80
N0180 X1773.752 Y0.000 Z0
N0190 X0.000 Y2000.000 Z80
N0200 X2155.307 Y0.000 Z0
N0210 X485.754 Y2000.000 Z80
N0220 X2683.615 Y0.000 Z0
N0230 X1255.229 Y2000.000 Z80
N0240 X3167.896 Y0.000 Z0
N0250 X1842.237 Y2000.000 Z80
N0260 X3569.018 Y0.000 Z0
N0270 X2505.066 Y2000.000 Z80
N0280 X4058.191 Y0.000 Z0
N0290 X3000.000 Y2000.000 Z80
N0300 X4684.333 Y0.000 Z0
N0310 X4058.191 Y2000.000 Z80
N0320 X5359.392 Y0.000 Z0
N0330 X4708.792 Y2000.000 Z80
N0340 X5736.056 Y0.000 Z0
N0350 X5034.092 Y2000.000 Z80
N0360 X6000.000 Y0.000 Z0
N0370 X5359.392 Y2000.000 Z80
N0380 X6000.000 Y741.361 Z0
N0390 X5517.046 Y2000.000 Z80
N0400 X6000.000 Y1291.945 Z0
N0410 X5758.523 Y2000.000 Z80
N0420 X6000.000 Y1756.659 Z0
N0430 X5879.261 Y2000.000 Z80
N0450 G00 X6000.000 Z0
N0470 G01 Y0.000 Z80
N0480 X0.000 Z0
N0490 Y2000.000 Z80
N0500 X6000.000 Z0
N0010 (Filename: 2000x6000.tap)
N0020 (Post processor: PLAZMAKROY_XYZ_v1.scpost)
N0030 (Date: 11.11.2020)
N0040 G21 
N0050 G40 G54 G90 G49 G80 G91.1
N0060 F1000
N0070 S500
N0080 G00 X0.000 Y294.031
N0100 G01 X335.583 Y0.000 F12000.0
N0110 X0.000 Y685.370 Z80
N0120 X682.896 Y0.000  Z0
N0130 X0.000 Y1115.842 Z80
N0140 X971.508 Y0.000 Z0
N0150 X0.000 Y1482.722 Z80 
N0160 X1460.681 Y0.000 Z0
N0170 X0.000 Y1756.659 Z80
N0180 X1773.752 Y0.000 Z0
N0190 X0.000 Y2000.000 Z80
N0200 X2155.307 Y0.000 Z0
N0210 X485.754 Y2000.000 Z80
N0220 X2683.615 Y0.000 Z0
N0230 X1255.229 Y2000.000 Z80
N0240 X3167.896 Y0.000 Z0
N0250 X1842.237 Y2000.000 Z80
N0260 X3569.018 Y0.000 Z0
N0270 X2505.066 Y2000.000 Z80
N0280 X4058.191 Y0.000 Z0
N0290 X3000.000 Y2000.000 Z80
N0300 X4684.333 Y0.000 Z0
N0310 X4058.191 Y2000.000 Z80
N0320 X5359.392 Y0.000 Z0
N0330 X4708.792 Y2000.000 Z80
N0340 X5736.056 Y0.000 Z0
N0350 X5034.092 Y2000.000 Z80
N0360 X6000.000 Y0.000 Z0
N0370 X5359.392 Y2000.000 Z80
N0380 X6000.000 Y741.361 Z0
N0390 X5517.046 Y2000.000 Z80
N0400 X6000.000 Y1291.945 Z0
N0410 X5758.523 Y2000.000 Z80
N0420 X6000.000 Y1756.659 Z0
N0430 X5879.261 Y2000.000 Z80
N0450 G00 X6000.000 Z0
N0470 G01 Y0.000 Z80
N0480 X0.000 Z0
N0490 Y2000.000 Z80
N0500 X6000.000 Z0
N0010 (Filename: 2000x6000.tap)
N0020 (Post processor: PLAZMAKROY_XYZ_v1.scpost)
N0030 (Date: 11.11.2020)
N0040 G21 
N0050 G40 G54 G90 G49 G80 G91.1
N0060 F1000
N0070 S500
N0080 G00 X0.000 Y294.031
N0100 G01 X335.583 Y0.000 F12000.0
N0110 X0.000 Y685.370 Z80
N0120 X682.896 Y0.000  Z0
N0130 X0.000 Y1115.842 Z80
N0140 X971.508 Y0.000 Z0
N0150 X0.000 Y1482.722 Z80 
N0160 X1460.681 Y0.000 Z0
N0170 X0.000 Y1756.659 Z80
N0180 X1773.752 Y0.000 Z0
N0190 X0.000 Y2000.000 Z80
N0200 X2155.307 Y0.000 Z0
N0210 X485.754 Y2000.000 Z80
N0220 X2683.615 Y0.000 Z0
N0230 X1255.229 Y2000.000 Z80
N0240 X3167.896 Y0.000 Z0
N0250 X1842.237 Y2000.000 Z80
N0260 X3569.018 Y0.000 Z0
N0270 X2505.066 Y2000.000 Z80
N0280 X4058.191 Y0.000 Z0
N0290 X3000.000 Y2000.000 Z80
N0300 X4684.333 Y0.000 Z0
N0310 X4058.191 Y2000.000 Z80
N0320 X5359.392 Y0.000 Z0
N0330 X4708.792 Y2000.000 Z80
N0340 X5736.056 Y0.000 Z0
N0350 X5034.092 Y2000.000 Z80
N0360 X6000.000 Y0.000 Z0
N0370 X5359.392 Y2000.000 Z80
N0380 X6000.000 Y741.361 Z0
N0390 X5517.046 Y2000.000 Z80
N0400 X6000.000 Y1291.945 Z0
N0410 X5758.523 Y2000.000 Z80
N0420 X6000.000 Y1756.659 Z0
N0430 X5879.261 Y2000.000 Z80
N0450 G00 X6000.000 Z0
N0470 G01 Y0.000 Z80
N0480 X0.000 Z0
N0490 Y2000.000 Z80
N0500 X6000.000 Z0
N0010 (Filename: 2000x6000.tap)
N0020 (Post processor: PLAZMAKROY_XYZ_v1.scpost)
N0030 (Date: 11.11.2020)
N0040 G21 
N0050 G40 G54 G90 G49 G80 G91.1
N0060 F1000
N0070 S500
N0080 G00 X0.000 Y294.031
N0100 G01 X335.583 Y0.000 F12000.0
N0110 X0.000 Y685.370 Z80
N0120 X682.896 Y0.000  Z0
N0130 X0.000 Y1115.842 Z80
N0140 X971.508 Y0.000 Z0
N0150 X0.000 Y1482.722 Z80 
N0160 X1460.681 Y0.000 Z0
N0170 X0.000 Y1756.659 Z80
N0180 X1773.752 Y0.000 Z0
N0190 X0.000 Y2000.000 Z80
N0200 X2155.307 Y0.000 Z0
N0210 X485.754 Y2000.000 Z80
N0220 X2683.615 Y0.000 Z0
N0230 X1255.229 Y2000.000 Z80
N0240 X3167.896 Y0.000 Z0
N0250 X1842.237 Y2000.000 Z80
N0260 X3569.018 Y0.000 Z0
N0270 X2505.066 Y2000.000 Z80
N0280 X4058.191 Y0.000 Z0
N0290 X3000.000 Y2000.000 Z80
N0300 X4684.333 Y0.000 Z0
N0310 X4058.191 Y2000.000 Z80
N0320 X5359.392 Y0.000 Z0
N0330 X4708.792 Y2000.000 Z80
N0340 X5736.056 Y0.000 Z0
N0350 X5034.092 Y2000.000 Z80
N0360 X6000.000 Y0.000 Z0
N0370 X5359.392 Y2000.000 Z80
N0380 X6000.000 Y741.361 Z0
N0390 X5517.046 Y2000.000 Z80
N0400 X6000.000 Y1291.945 Z0
N0410 X5758.523 Y2000.000 Z80
N0420 X6000.000 Y1756.659 Z0
N0430 X5879.261 Y2000.000 Z80
N0450 G00 X6000.000 Z0
N0470 G01 Y0.000 Z80
N0480 X0.000 Z0
N0490 Y2000.000 Z80
N0500 X6000.000 Z0
N0010 (Filename: 2000x6000.tap)
N0020 (Post processor: PLAZMAKROY_XYZ_v1.scpost)
N0030 (Date: 11.11.2020)
N0040 G21 
N0050 G40 G54 G90 G49 G80 G91.1
N0060 F1000
N0070 S500
N0080 G00 X0.000 Y294.031
N0100 G01 X335.583 Y0.000 F12000.0
N0110 X0.000 Y685.370 Z80
N0120 X682.896 Y0.000  Z0
N0130 X0.000 Y1115.842 Z80
N0140 X971.508 Y0.000 Z0
N0150 X0.000 Y1482.722 Z80 
N0160 X1460.681 Y0.000 Z0
N0170 X0.000 Y1756.659 Z80
N0180 X1773.752 Y0.000 Z0
N0190 X0.000 Y2000.000 Z80
N0200 X2155.307 Y0.000 Z0
N0210 X485.754 Y2000.000 Z80
N0220 X2683.615 Y0.000 Z0
N0230 X1255.229 Y2000.000 Z80
N0240 X3167.896 Y0.000 Z0
N0250 X1842.237 Y2000.000 Z80
N0260 X3569.018 Y0.000 Z0
N0270 X2505.066 Y2000.000 Z80
N0280 X4058.191 Y0.000 Z0
N0290 X3000.000 Y2000.000 Z80
N0300 X4684.333 Y0.000 Z0
N0310 X4058.191 Y2000.000 Z80
N0320 X5359.392 Y0.000 Z0
N0330 X4708.792 Y2000.000 Z80
N0340 X5736.056 Y0.000 Z0
N0350 X5034.092 Y2000.000 Z80
N0360 X6000.000 Y0.000 Z0
N0370 X5359.392 Y2000.000 Z80
N0380 X6000.000 Y741.361 Z0
N0390 X5517.046 Y2000.000 Z80
N0400 X6000.000 Y1291.945 Z0
N0410 X5758.523 Y2000.000 Z80
N0420 X6000.000 Y1756.659 Z0
N0430 X5879.261 Y2000.000 Z80
N0450 G00 X6000.000 Z0
N0470 G01 Y0.000 Z80
N0480 X0.000 Z0
N0490 Y2000.000 Z80
N0500 X6000.000 Z0
N0010 (Filename: 2000x6000.tap)
N0020 (Post processor: PLAZMAKROY_XYZ_v1.scpost)
N0030 (Date: 11.11.2020)
N0040 G21 
N0050 G40 G54 G90 G49 G80 G91.1
N0060 F1000
N0070 S500
N0080 G00 X0.000 Y294.031
N0100 G01 X335.583 Y0.000 F12000.0
N0110 X0.000 Y685.370 Z80
N0120 X682.896 Y0.000  Z0
N0130 X0.000 Y1115.842 Z80
N0140 X971.508 Y0.000 Z0
N0150 X0.000 Y1482.722 Z80 
N0160 X1460.681 Y0.000 Z0
N0170 X0.000 Y1756.659 Z80
N0180 X1773.752 Y0.000 Z0
N0190 X0.000 Y2000.000 Z80
N0200 X2155.307 Y0.000 Z0
N0210 X485.754 Y2000.000 Z80
N0220 X2683.615 Y0.000 Z0
N0230 X1255.229 Y2000.000 Z80
N0240 X3167.896 Y0.000 Z0
N0250 X1842.237 Y2000.000 Z80
N0260 X3569.018 Y0.000 Z0
N0270 X2505.066 Y2000.000 Z80
N0280 X4058.191 Y0.000 Z0
N0290 X3000.000 Y2000.000 Z80
N0300 X4684.333 Y0.000 Z0
N0310 X4058.191 Y2000.000 Z80
N0320 X5359.392 Y0.000 Z0
N0330 X4708.792 Y2000.000 Z80
N0340 X5736.056 Y0.000 Z0
N0350 X5034.092 Y2000.000 Z80
N0360 X6000.000 Y0.000 Z0
N0370 X5359.392 Y2000.000 Z80
N0380 X6000.000 Y741.361 Z0
N0390 X5517.046 Y2000.000 Z80
N0400 X6000.000 Y1291.945 Z0
N0410 X5758.523 Y2000.000 Z80
N0420 X6000.000 Y1756.659 Z0
N0430 X5879.261 Y2000.000 Z80
N0450 G00 X6000.000 Z0
N0470 G01 Y0.000 Z80
N0480 X0.000 Z0
N0490 Y2000.000 Z80
N0500 X6000.000 Z0
N0010 (Filename: 2000x6000.tap)
N0020 (Post processor: PLAZMAKROY_XYZ_v1.scpost)
N0030 (Date: 11.11.2020)
N0040 G21 
N0050 G40 G54 G90 G49 G80 G91.1
N0060 F1000
N0070 S500
N0080 G00 X0.000 Y294.031
N0100 G01 X335.583 Y0.000 F12000.0
N0110 X0.000 Y685.370 Z80
N0120 X682.896 Y0.000  Z0
N0130 X0.000 Y1115.842 Z80
N0140 X971.508 Y0.000 Z0
N0150 X0.000 Y1482.722 Z80 
N0160 X1460.681 Y0.000 Z0
N0170 X0.000 Y1756.659 Z80
N0180 X1773.752 Y0.000 Z0
N0190 X0.000 Y2000.000 Z80
N0200 X2155.307 Y0.000 Z0
N0210 X485.754 Y2000.000 Z80
N0220 X2683.615 Y0.000 Z0
N0230 X1255.229 Y2000.000 Z80
N0240 X3167.896 Y0.000 Z0
N0250 X1842.237 Y2000.000 Z80
N0260 X3569.018 Y0.000 Z0
N0270 X2505.066 Y2000.000 Z80
N0280 X4058.191 Y0.000 Z0
N0290 X3000.000 Y2000.000 Z80
N0300 X4684.333 Y0.000 Z0
N0310 X4058.191 Y2000.000 Z80
N0320 X5359.392 Y0.000 Z0
N0330 X4708.792 Y2000.000 Z80
N0340 X5736.056 Y0.000 Z0
N0350 X5034.092 Y2000.000 Z80
N0360 X6000.000 Y0.000 Z0
N0370 X5359.392 Y2000.000 Z80
N0380 X6000.000 Y741.361 Z0
N0390 X5517.046 Y2000.000 Z80
N0400 X6000.000 Y1291.945 Z0
N0410 X5758.523 Y2000.000 Z80
N0420 X6000.000 Y1756.659 Z0
N0430 X5879.261 Y2000.000 Z80
N0450 G00 X6000.000 Z0
N0470 G01 Y0.000 Z80
N0480 X0.000 Z0
N0490 Y2000.000 Z80
N0500 X6000.000 Z0
N0010 (Filename: 2000x6000.tap)
N0020 (Post processor: PLAZMAKROY_XYZ_v1.scpost)
N0030 (Date: 11.11.2020)
N0040 G21 
N0050 G40 G54 G90 G49 G80 G91.1
N0060 F1000
N0070 S500
N0080 G00 X0.000 Y294.031
N0100 G01 X335.583 Y0.000 F12000.0
N0110 X0.000 Y685.370 Z80
N0120 X682.896 Y0.000  Z0
N0130 X0.000 Y1115.842 Z80
N0140 X971.508 Y0.000 Z0
N0150 X0.000 Y1482.722 Z80 
N0160 X1460.681 Y0.000 Z0
N0170 X0.000 Y1756.659 Z80
N0180 X1773.752 Y0.000 Z0
N0190 X0.000 Y2000.000 Z80
N0200 X2155.307 Y0.000 Z0
N0210 X485.754 Y2000.000 Z80
N0220 X2683.615 Y0.000 Z0
N0230 X1255.229 Y2000.000 Z80
N0240 X3167.896 Y0.000 Z0
N0250 X1842.237 Y2000.000 Z80
N0260 X3569.018 Y0.000 Z0
N0270 X2505.066 Y2000.000 Z80
N0280 X4058.191 Y0.000 Z0
N0290 X3000.000 Y2000.000 Z80
N0300 X4684.333 Y0.000 Z0
N0310 X4058.191 Y2000.000 Z80
N0320 X5359.392 Y0.000 Z0
N0330 X4708.792 Y2000.000 Z80
N0340 X5736.056 Y0.000 Z0
N0350 X5034.092 Y2000.000 Z80
N0360 X6000.000 Y0.000 Z0
N0370 X5359.392 Y2000.000 Z80
N0380 X6000.000 Y741.361 Z0
N0390 X5517.046 Y2000.000 Z80
N0400 X6000.000 Y1291.945 Z0
N0410 X5758.523 Y2000.000 Z80
N0420 X6000.000 Y1756.659 Z0
N0430 X5879.261 Y2000.000 Z80
N0450 G00 X6000.000 Z0
N0470 G01 Y0.000 Z80
N0480 X0.000 Z0
N0490 Y2000.000 Z80
N0500 X6000.000 Z0
N0010 (Filename: 2000x6000.tap)
N0020 (Post processor: PLAZMAKROY_XYZ_v1.scpost)
N0030 (Date: 11.11.2020)
N0040 G21 
N0050 G40 G54 G90 G49 G80 G91.1
N0060 F1000
N0070 S500
N0080 G00 X0.000 Y294.031
N0100 G01 X335.583 Y0.000 F12000.0
N0110 X0.000 Y685.370 Z80
N0120 X682.896 Y0.000  Z0
N0130 X0.000 Y1115.842 Z80
N0140 X971.508 Y0.000 Z0
N0150 X0.000 Y1482.722 Z80 
N0160 X1460.681 Y0.000 Z0
N0170 X0.000 Y1756.659 Z80
N0180 X1773.752 Y0.000 Z0
N0190 X0.000 Y2000.000 Z80
N0200 X2155.307 Y0.000 Z0
N0210 X485.754 Y2000.000 Z80
N0220 X2683.615 Y0.000 Z0
N0230 X1255.229 Y2000.000 Z80
N0240 X3167.896 Y0.000 Z0
N0250 X1842.237 Y2000.000 Z80
N0260 X3569.018 Y0.000 Z0
N0270 X2505.066 Y2000.000 Z80
N0280 X4058.191 Y0.000 Z0
N0290 X3000.000 Y2000.000 Z80
N0300 X4684.333 Y0.000 Z0
N0310 X4058.191 Y2000.000 Z80
N0320 X5359.392 Y0.000 Z0
N0330 X4708.792 Y2000.000 Z80
N0340 X5736.056 Y0.000 Z0
N0350 X5034.092 Y2000.000 Z80
N0360 X6000.000 Y0.000 Z0
N0370 X5359.392 Y2000.000 Z80
N0380 X6000.000 Y741.361 Z0
N0390 X5517.046 Y2000.000 Z80
N0400 X6000.000 Y1291.945 Z0
N0410 X5758.523 Y2000.000 Z80
N0420 X6000.000 Y1756.659 Z0
N0430 X5879.261 Y2000.000 Z80
N0450 G00 X6000.000 Z0
N0470 G01 Y0.000 Z80
N0480 X0.000 Z0
N0490 Y2000.000 Z80
N0500 X6000.000 Z0
N0010 (Filename: 2000x6000.tap)
N0020 (Post processor: PLAZMAKROY_XYZ_v1.scpost)
N0030 (Date: 11.11.2020)
N0040 G21 
N0050 G40 G54 G90 G49 G80 G91.1
N0060 F1000
N0070 S500
N0080 G00 X0.000 Y294.031
N0100 G01 X335.583 Y0.000 F12000.0
N0110 X0.000 Y685.370 Z80
N0120 X682.896 Y0.000  Z0
N0130 X0.000 Y1115.842 Z80
N0140 X971.508 Y0.000 Z0
N0150 X0.000 Y1482.722 Z80 
N0160 X1460.681 Y0.000 Z0
N0170 X0.000 Y1756.659 Z80
N0180 X1773.752 Y0.000 Z0
N0190 X0.000 Y2000.000 Z80
N0200 X2155.307 Y0.000 Z0
N0210 X485.754 Y2000.000 Z80
N0220 X2683.615 Y0.000 Z0
N0230 X1255.229 Y2000.000 Z80
N0240 X3167.896 Y0.000 Z0
N0250 X1842.237 Y2000.000 Z80
N0260 X3569.018 Y0.000 Z0
N0270 X2505.066 Y2000.000 Z80
N0280 X4058.191 Y0.000 Z0
N0290 X3000.000 Y2000.000 Z80
N0300 X4684.333 Y0.000 Z0
N0310 X4058.191 Y2000.000 Z80
N0320 X5359.392 Y0.000 Z0
N0330 X4708.792 Y2000.000 Z80
N0340 X5736.056 Y0.000 Z0
N0350 X5034.092 Y2000.000 Z80
N0360 X6000.000 Y0.000 Z0
N0370 X5359.392 Y2000.000 Z80
N0380 X6000.000 Y741.361 Z0
N0390 X5517.046 Y2000.000 Z80
N0400 X6000.000 Y1291.945 Z0
N0410 X5758.523 Y2000.000 Z80
N0420 X6000.000 Y1756.659 Z0
N0430 X5879.261 Y2000.000 Z80
N0450 G00 X6000.000 Z0
N0470 G01 Y0.000 Z80
N0480 X0.000 Z0
N0490 Y2000.000 Z80
N0500 X6000.000 Z0
N0010 (Filename: 2000x6000.tap)
N0020 (Post processor: PLAZMAKROY_XYZ_v1.scpost)
N0030 (Date: 11.11.2020)
N0040 G21 
N0050 G40 G54 G90 G49 G80 G91.1
N0060 F1000
N0070 S500
N0080 G00 X0.000 Y294.031
N0100 G01 X335.583 Y0.000 F12000.0
N0110 X0.000 Y685.370 Z80
N0120 X682.896 Y0.000  Z0
N0130 X0.000 Y1115.842 Z80
N0140 X971.508 Y0.000 Z0
N0150 X0.000 Y1482.722 Z80 
N0160 X1460.681 Y0.000 Z0
N0170 X0.000 Y1756.659 Z80
N0180 X1773.752 Y0.000 Z0
N0190 X0.000 Y2000.000 Z80
N0200 X2155.307 Y0.000 Z0
N0210 X485.754 Y2000.000 Z80
N0220 X2683.615 Y0.000 Z0
N0230 X1255.229 Y2000.000 Z80
N0240 X3167.896 Y0.000 Z0
N0250 X1842.237 Y2000.000 Z80
N0260 X3569.018 Y0.000 Z0
N0270 X2505.066 Y2000.000 Z80
N0280 X4058.191 Y0.000 Z0
N0290 X3000.000 Y2000.000 Z80
N0300 X4684.333 Y0.000 Z0
N0310 X4058.191 Y2000.000 Z80
N0320 X5359.392 Y0.000 Z0
N0330 X4708.792 Y2000.000 Z80
N0340 X5736.056 Y0.000 Z0
N0350 X5034.092 Y2000.000 Z80
N0360 X6000.000 Y0.000 Z0
N0370 X5359.392 Y2000.000 Z80
N0380 X6000.000 Y741.361 Z0
N0390 X5517.046 Y2000.000 Z80
N0400 X6000.000 Y1291.945 Z0
N0410 X5758.523 Y2000.000 Z80
N0420 X6000.000 Y1756.659 Z0
N0430 X5879.261 Y2000.000 Z80
N0450 G00 X6000.000 Z0
N0470 G01 Y0.000 Z80
N0480 X0.000 Z0
N0490 Y2000.000 Z80
N0500 X6000.000 Z0
N0010 (Filename: 2000x6000.tap)
N0020 (Post processor: PLAZMAKROY_XYZ_v1.scpost)
N0030 (Date: 11.11.2020)
N0040 G21 
N0050 G40 G54 G90 G49 G80 G91.1
N0060 F1000
N0070 S500
N0080 G00 X0.000 Y294.031
N0100 G01 X335.583 Y0.000 F12000.0
N0110 X0.000 Y685.370 Z80
N0120 X682.896 Y0.000  Z0
N0130 X0.000 Y1115.842 Z80
N0140 X971.508 Y0.000 Z0
N0150 X0.000 Y1482.722 Z80 
N0160 X1460.681 Y0.000 Z0
N0170 X0.000 Y1756.659 Z80
N0180 X1773.752 Y0.000 Z0
N0190 X0.000 Y2000.000 Z80
N0200 X2155.307 Y0.000 Z0
N0210 X485.754 Y2000.000 Z80
N0220 X2683.615 Y0.000 Z0
N0230 X1255.229 Y2000.000 Z80
N0240 X3167.896 Y0.000 Z0
N0250 X1842.237 Y2000.000 Z80
N0260 X3569.018 Y0.000 Z0
N0270 X2505.066 Y2000.000 Z80
N0280 X4058.191 Y0.000 Z0
N0290 X3000.000 Y2000.000 Z80
N0300 X4684.333 Y0.000 Z0
N0310 X4058.191 Y2000.000 Z80
N0320 X5359.392 Y0.000 Z0
N0330 X4708.792 Y2000.000 Z80
N0340 X5736.056 Y0.000 Z0
N0350 X5034.092 Y2000.000 Z80
N0360 X6000.000 Y0.000 Z0
N0370 X5359.392 Y2000.000 Z80
N0380 X6000.000 Y741.361 Z0
N0390 X5517.046 Y2000.000 Z80
N0400 X6000.000 Y1291.945 Z0
N0410 X5758.523 Y2000.000 Z80
N0420 X6000.000 Y1756.659 Z0
N0430 X5879.261 Y2000.000 Z80
N0450 G00 X6000.000 Z0
N0470 G01 Y0.000 Z80
N0480 X0.000 Z0
N0490 Y2000.000 Z80
N0500 X6000.000 Z0
N0010 (Filename: 2000x6000.tap)
N0020 (Post processor: PLAZMAKROY_XYZ_v1.scpost)
N0030 (Date: 11.11.2020)
N0040 G21 
N0050 G40 G54 G90 G49 G80 G91.1
N0060 F1000
N0070 S500
N0080 G00 X0.000 Y294.031
N0100 G01 X335.583 Y0.000 F12000.0
N0110 X0.000 Y685.370 Z80
N0120 X682.896 Y0.000  Z0
N0130 X0.000 Y1115.842 Z80
N0140 X971.508 Y0.000 Z0
N0150 X0.000 Y1482.722 Z80 
N0160 X1460.681 Y0.000 Z0
N0170 X0.000 Y1756.659 Z80
N0180 X1773.752 Y0.000 Z0
N0190 X0.000 Y2000.000 Z80
N0200 X2155.307 Y0.000 Z0
N0210 X485.754 Y2000.000 Z80
N0220 X2683.615 Y0.000 Z0
N0230 X1255.229 Y2000.000 Z80
N0240 X3167.896 Y0.000 Z0
N0250 X1842.237 Y2000.000 Z80
N0260 X3569.018 Y0.000 Z0
N0270 X2505.066 Y2000.000 Z80
N0280 X4058.191 Y0.000 Z0
N0290 X3000.000 Y2000.000 Z80
N0300 X4684.333 Y0.000 Z0
N0310 X4058.191 Y2000.000 Z80
N0320 X5359.392 Y0.000 Z0
N0330 X4708.792 Y2000.000 Z80
N0340 X5736.056 Y0.000 Z0
N0350 X5034.092 Y2000.000 Z80
N0360 X6000.000 Y0.000 Z0
N0370 X5359.392 Y2000.000 Z80
N0380 X6000.000 Y741.361 Z0
N0390 X5517.046 Y2000.000 Z80
N0400 X6000.000 Y1291.945 Z0
N0410 X5758.523 Y2000.000 Z80
N0420 X6000.000 Y1756.659 Z0
N0430 X5879.261 Y2000.000 Z80
N0450 G00 X6000.000 Z0
N0470 G01 Y0.000 Z80
N0480 X0.000 Z0
N0490 Y2000.000 Z80
N0500 X6000.000 Z0
N0010 (Filename: 2000x6000.tap)
N0020 (Post processor: PLAZMAKROY_XYZ_v1.scpost)
N0030 (Date: 11.11.2020)
N0040 G21 
N0050 G40 G54 G90 G49 G80 G91.1
N0060 F1000
N0070 S500
N0080 G00 X0.000 Y294.031
N0100 G01 X335.583 Y0.000 F12000.0
N0110 X0.000 Y685.370 Z80
N0120 X682.896 Y0.000  Z0
N0130 X0.000 Y1115.842 Z80
N0140 X971.508 Y0.000 Z0
N0150 X0.000 Y1482.722 Z80 
N0160 X1460.681 Y0.000 Z0
N0170 X0.000 Y1756.659 Z80
N0180 X1773.752 Y0.000 Z0
N0190 X0.000 Y2000.000 Z80
N0200 X2155.307 Y0.000 Z0
N0210 X485.754 Y2000.000 Z80
N0220 X2683.615 Y0.000 Z0
N0230 X1255.229 Y2000.000 Z80
N0240 X3167.896 Y0.000 Z0
N0250 X1842.237 Y2000.000 Z80
N0260 X3569.018 Y0.000 Z0
N0270 X2505.066 Y2000.000 Z80
N0280 X4058.191 Y0.000 Z0
N0290 X3000.000 Y2000.000 Z80
N0300 X4684.333 Y0.000 Z0
N0310 X4058.191 Y2000.000 Z80
N0320 X5359.392 Y0.000 Z0
N0330 X4708.792 Y2000.000 Z80
N0340 X5736.056 Y0.000 Z0
N0350 X5034.092 Y2000.000 Z80
N0360 X6000.000 Y0.000 Z0
N0370 X5359.392 Y2000.000 Z80
N0380 X6000.000 Y741.361 Z0
N0390 X5517.046 Y2000.000 Z80
N0400 X6000.000 Y1291.945 Z0
N0410 X5758.523 Y2000.000 Z80
N0420 X6000.000 Y1756.659 Z0
N0430 X5879.261 Y2000.000 Z80
N0450 G00 X6000.000 Z0
N0470 G01 Y0.000 Z80
N0480 X0.000 Z0
N0490 Y2000.000 Z80
N0500 X6000.000 Z0
N0010 (Filename: 2000x6000.tap)
N0020 (Post processor: PLAZMAKROY_XYZ_v1.scpost)
N0030 (Date: 11.11.2020)
N0040 G21 
N0050 G40 G54 G90 G49 G80 G91.1
N0060 F1000
N0070 S500
N0080 G00 X0.000 Y294.031
N0100 G01 X335.583 Y0.000 F12000.0
N0110 X0.000 Y685.370 Z80
N0120 X682.896 Y0.000  Z0
N0130 X0.000 Y1115.842 Z80
N0140 X971.508 Y0.000 Z0
N0150 X0.000 Y1482.722 Z80 
N0160 X1460.681 Y0.000 Z0
N0170 X0.000 Y1756.659 Z80
N0180 X1773.752 Y0.000 Z0
N0190 X0.000 Y2000.000 Z80
N0200 X2155.307 Y0.000 Z0
N0210 X485.754 Y2000.000 Z80
N0220 X2683.615 Y0.000 Z0
N0230 X1255.229 Y2000.000 Z80
N0240 X3167.896 Y0.000 Z0
N0250 X1842.237 Y2000.000 Z80
N0260 X3569.018 Y0.000 Z0
N0270 X2505.066 Y2000.000 Z80
N0280 X4058.191 Y0.000 Z0
N0290 X3000.000 Y2000.000 Z80
N0300 X4684.333 Y0.000 Z0
N0310 X4058.191 Y2000.000 Z80
N0320 X5359.392 Y0.000 Z0
N0330 X4708.792 Y2000.000 Z80
N0340 X5736.056 Y0.000 Z0
N0350 X5034.092 Y2000.000 Z80
N0360 X6000.000 Y0.000 Z0
N0370 X5359.392 Y2000.000 Z80
N0380 X6000.000 Y741.361 Z0
N0390 X5517.046 Y2000.000 Z80
N0400 X6000.000 Y1291.945 Z0
N0410 X5758.523 Y2000.000 Z80
N0420 X6000.000 Y1756.659 Z0
N0430 X5879.261 Y2000.000 Z80
N0450 G00 X6000.000 Z0
N0470 G01 Y0.000 Z80
N0480 X0.000 Z0
N0490 Y2000.000 Z80
N0500 X6000.000 Z0
N0010 (Filename: 2000x6000.tap)
N0020 (Post processor: PLAZMAKROY_XYZ_v1.scpost)
N0030 (Date: 11.11.2020)
N0040 G21 
N0050 G40 G54 G90 G49 G80 G91.1
N0060 F1000
N0070 S500
N0080 G00 X0.000 Y294.031
N0100 G01 X335.583 Y0.000 F12000.0
N0110 X0.000 Y685.370 Z80
N0120 X682.896 Y0.000  Z0
N0130 X0.000 Y1115.842 Z80
N0140 X971.508 Y0.000 Z0
N0150 X0.000 Y1482.722 Z80 
N0160 X1460.681 Y0.000 Z0
N0170 X0.000 Y1756.659 Z80
N0180 X1773.752 Y0.000 Z0
N0190 X0.000 Y2000.000 Z80
N0200 X2155.307 Y0.000 Z0
N0210 X485.754 Y2000.000 Z80
N0220 X2683.615 Y0.000 Z0
N0230 X1255.229 Y2000.000 Z80
N0240 X3167.896 Y0.000 Z0
N0250 X1842.237 Y2000.000 Z80
N0260 X3569.018 Y0.000 Z0
N0270 X2505.066 Y2000.000 Z80
N0280 X4058.191 Y0.000 Z0
N0290 X3000.000 Y2000.000 Z80
N0300 X4684.333 Y0.000 Z0
N0310 X4058.191 Y2000.000 Z80
N0320 X5359.392 Y0.000 Z0
N0330 X4708.792 Y2000.000 Z80
N0340 X5736.056 Y0.000 Z0
N0350 X5034.092 Y2000.000 Z80
N0360 X6000.000 Y0.000 Z0
N0370 X5359.392 Y2000.000 Z80
N0380 X6000.000 Y741.361 Z0
N0390 X5517.046 Y2000.000 Z80
N0400 X6000.000 Y1291.945 Z0
N0410 X5758.523 Y2000.000 Z80
N0420 X6000.000 Y1756.659 Z0
N0430 X5879.261 Y2000.000 Z80
N0450 G00 X6000.000 Z0
N0470 G01 Y0.000 Z80
N0480 X0.000 Z0
N0490 Y2000.000 Z80
N0500 X6000.000 Z0
N0010 (Filename: 2000x6000.tap)
N0020 (Post processor: PLAZMAKROY_XYZ_v1.scpost)
N0030 (Date: 11.11.2020)
N0040 G21 
N0050 G40 G54 G90 G49 G80 G91.1
N0060 F1000
N0070 S500
N0080 G00 X0.000 Y294.031
N0100 G01 X335.583 Y0.000 F12000.0
N0110 X0.000 Y685.370 Z80
N0120 X682.896 Y0.000  Z0
N0130 X0.000 Y1115.842 Z80
N0140 X971.508 Y0.000 Z0
N0150 X0.000 Y1482.722 Z80 
N0160 X1460.681 Y0.000 Z0
N0170 X0.000 Y1756.659 Z80
N0180 X1773.752 Y0.000 Z0
N0190 X0.000 Y2000.000 Z80
N0200 X2155.307 Y0.000 Z0
N0210 X485.754 Y2000.000 Z80
N0220 X2683.615 Y0.000 Z0
N0230 X1255.229 Y2000.000 Z80
N0240 X3167.896 Y0.000 Z0
N0250 X1842.237 Y2000.000 Z80
N0260 X3569.018 Y0.000 Z0
N0270 X2505.066 Y2000.000 Z80
N0280 X4058.191 Y0.000 Z0
N0290 X3000.000 Y2000.000 Z80
N0300 X4684.333 Y0.000 Z0
N0310 X4058.191 Y2000.000 Z80
N0320 X5359.392 Y0.000 Z0
N0330 X4708.792 Y2000.000 Z80
N0340 X5736.056 Y0.000 Z0
N0350 X5034.092 Y2000.000 Z80
N0360 X6000.000 Y0.000 Z0
N0370 X5359.392 Y2000.000 Z80
N0380 X6000.000 Y741.361 Z0
N0390 X5517.046 Y2000.000 Z80
N0400 X6000.000 Y1291.945 Z0
N0410 X5758.523 Y2000.000 Z80
N0420 X6000.000 Y1756.659 Z0
N0430 X5879.261 Y2000.000 Z80
N0450 G00 X6000.000 Z0
N0470 G01 Y0.000 Z80
N0480 X0.000 Z0
N0490 Y2000.000 Z80
N0500 X6000.000 Z0
N0010 (Filename: 2000x6000.tap)
N0020 (Post processor: PLAZMAKROY_XYZ_v1.scpost)
N0030 (Date: 11.11.2020)
N0040 G21 
N0050 G40 G54 G90 G49 G80 G91.1
N0060 F1000
N0070 S500
N0080 G00 X0.000 Y294.031
N0100 G01 X335.583 Y0.000 F12000.0
N0110 X0.000 Y685.370 Z80
N0120 X682.896 Y0.000  Z0
N0130 X0.000 Y1115.842 Z80
N0140 X971.508 Y0.000 Z0
N0150 X0.000 Y1482.722 Z80 
N0160 X1460.681 Y0.000 Z0
N0170 X0.000 Y1756.659 Z80
N0180 X1773.752 Y0.000 Z0
N0190 X0.000 Y2000.000 Z80
N0200 X2155.307 Y0.000 Z0
N0210 X485.754 Y2000.000 Z80
N0220 X2683.615 Y0.000 Z0
N0230 X1255.229 Y2000.000 Z80
N0240 X3167.896 Y0.000 Z0
N0250 X1842.237 Y2000.000 Z80
N0260 X3569.018 Y0.000 Z0
N0270 X2505.066 Y2000.000 Z80
N0280 X4058.191 Y0.000 Z0
N0290 X3000.000 Y2000.000 Z80
N0300 X4684.333 Y0.000 Z0
N0310 X4058.191 Y2000.000 Z80
N0320 X5359.392 Y0.000 Z0
N0330 X4708.792 Y2000.000 Z80
N0340 X5736.056 Y0.000 Z0
N0350 X5034.092 Y2000.000 Z80
N0360 X6000.000 Y0.000 Z0
N0370 X5359.392 Y2000.000 Z80
N0380 X6000.000 Y741.361 Z0
N0390 X5517.046 Y2000.000 Z80
N0400 X6000.000 Y1291.945 Z0
N0410 X5758.523 Y2000.000 Z80
N0420 X6000.000 Y1756.659 Z0
N0430 X5879.261 Y2000.000 Z80
N0450 G00 X6000.000 Z0
N0470 G01 Y0.000 Z80
N0480 X0.000 Z0
N0490 Y2000.000 Z80
N0500 X6000.000 Z0
N0010 (Filename: 2000x6000.tap)
N0020 (Post processor: PLAZMAKROY_XYZ_v1.scpost)
N0030 (Date: 11.11.2020)
N0040 G21 
N0050 G40 G54 G90 G49 G80 G91.1
N0060 F1000
N0070 S500
N0080 G00 X0.000 Y294.031
N0100 G01 X335.583 Y0.000 F12000.0
N0110 X0.000 Y685.370 Z80
N0120 X682.896 Y0.000  Z0
N0130 X0.000 Y1115.842 Z80
N0140 X971.508 Y0.000 Z0
N0150 X0.000 Y1482.722 Z80 
N0160 X1460.681 Y0.000 Z0
N0170 X0.000 Y1756.659 Z80
N0180 X1773.752 Y0.000 Z0
N0190 X0.000 Y2000.000 Z80
N0200 X2155.307 Y0.000 Z0
N0210 X485.754 Y2000.000 Z80
N0220 X2683.615 Y0.000 Z0
N0230 X1255.229 Y2000.000 Z80
N0240 X3167.896 Y0.000 Z0
N0250 X1842.237 Y2000.000 Z80
N0260 X3569.018 Y0.000 Z0
N0270 X2505.066 Y2000.000 Z80
N0280 X4058.191 Y0.000 Z0
N0290 X3000.000 Y2000.000 Z80
N0300 X4684.333 Y0.000 Z0
N0310 X4058.191 Y2000.000 Z80
N0320 X5359.392 Y0.000 Z0
N0330 X4708.792 Y2000.000 Z80
N0340 X5736.056 Y0.000 Z0
N0350 X5034.092 Y2000.000 Z80
N0360 X6000.000 Y0.000 Z0
N0370 X5359.392 Y2000.000 Z80
N0380 X6000.000 Y741.361 Z0
N0390 X5517.046 Y2000.000 Z80
N0400 X6000.000 Y1291.945 Z0
N0410 X5758.523 Y2000.000 Z80
N0420 X6000.000 Y1756.659 Z0
N0430 X5879.261 Y2000.000 Z80
N0450 G00 X6000.000 Z0
N0470 G01 Y0.000 Z80
N0480 X0.000 Z0
N0490 Y2000.000 Z80
N0500 X6000.000 Z0
N0010 (Filename: 2000x6000.tap)
N0020 (Post processor: PLAZMAKROY_XYZ_v1.scpost)
N0030 (Date: 11.11.2020)
N0040 G21 
N0050 G40 G54 G90 G49 G80 G91.1
N0060 F1000
N0070 S500
N0080 G00 X0.000 Y294.031
N0100 G01 X335.583 Y0.000 F12000.0
N0110 X0.000 Y685.370 Z80
N0120 X682.896 Y0.000  Z0
N0130 X0.000 Y1115.842 Z80
N0140 X971.508 Y0.000 Z0
N0150 X0.000 Y1482.722 Z80 
N0160 X1460.681 Y0.000 Z0
N0170 X0.000 Y1756.659 Z80
N0180 X1773.752 Y0.000 Z0
N0190 X0.000 Y2000.000 Z80
N0200 X2155.307 Y0.000 Z0
N0210 X485.754 Y2000.000 Z80
N0220 X2683.615 Y0.000 Z0
N0230 X1255.229 Y2000.000 Z80
N0240 X3167.896 Y0.000 Z0
N0250 X1842.237 Y2000.000 Z80
N0260 X3569.018 Y0.000 Z0
N0270 X2505.066 Y2000.000 Z80
N0280 X4058.191 Y0.000 Z0
N0290 X3000.000 Y2000.000 Z80
N0300 X4684.333 Y0.000 Z0
N0310 X4058.191 Y2000.000 Z80
N0320 X5359.392 Y0.000 Z0
N0330 X4708.792 Y2000.000 Z80
N0340 X5736.056 Y0.000 Z0
N0350 X5034.092 Y2000.000 Z80
N0360 X6000.000 Y0.000 Z0
N0370 X5359.392 Y2000.000 Z80
N0380 X6000.000 Y741.361 Z0
N0390 X5517.046 Y2000.000 Z80
N0400 X6000.000 Y1291.945 Z0
N0410 X5758.523 Y2000.000 Z80
N0420 X6000.000 Y1756.659 Z0
N0430 X5879.261 Y2000.000 Z80
N0450 G00 X6000.000 Z0
N0470 G01 Y0.000 Z80
N0480 X0.000 Z0
N0490 Y2000.000 Z80
N0500 X6000.000 Z0
N0010 (Filename: 2000x6000.tap)
N0020 (Post processor: PLAZMAKROY_XYZ_v1.scpost)
N0030 (Date: 11.11.2020)
N0040 G21 
N0050 G40 G54 G90 G49 G80 G91.1
N0060 F1000
N0070 S500
N0080 G00 X0.000 Y294.031
N0100 G01 X335.583 Y0.000 F12000.0
N0110 X0.000 Y685.370 Z80
N0120 X682.896 Y0.000  Z0
N0130 X0.000 Y1115.842 Z80
N0140 X971.508 Y0.000 Z0
N0150 X0.000 Y1482.722 Z80 
N0160 X1460.681 Y0.000 Z0
N0170 X0.000 Y1756.659 Z80
N0180 X1773.752 Y0.000 Z0
N0190 X0.000 Y2000.000 Z80
N0200 X2155.307 Y0.000 Z0
N0210 X485.754 Y2000.000 Z80
N0220 X2683.615 Y0.000 Z0
N0230 X1255.229 Y2000.000 Z80
N0240 X3167.896 Y0.000 Z0
N0250 X1842.237 Y2000.000 Z80
N0260 X3569.018 Y0.000 Z0
N0270 X2505.066 Y2000.000 Z80
N0280 X4058.191 Y0.000 Z0
N0290 X3000.000 Y2000.000 Z80
N0300 X4684.333 Y0.000 Z0
N0310 X4058.191 Y2000.000 Z80
N0320 X5359.392 Y0.000 Z0
N0330 X4708.792 Y2000.000 Z80
N0340 X5736.056 Y0.000 Z0
N0350 X5034.092 Y2000.000 Z80
N0360 X6000.000 Y0.000 Z0
N0370 X5359.392 Y2000.000 Z80
N0380 X6000.000 Y741.361 Z0
N0390 X5517.046 Y2000.000 Z80
N0400 X6000.000 Y1291.945 Z0
N0410 X5758.523 Y2000.000 Z80
N0420 X6000.000 Y1756.659 Z0
N0430 X5879.261 Y2000.000 Z80
N0450 G00 X6000.000 Z0
N0470 G01 Y0.000 Z80
N0480 X0.000 Z0
N0490 Y2000.000 Z80
N0500 X6000.000 Z0
N0010 (Filename: 2000x6000.tap)
N0020 (Post processor: PLAZMAKROY_XYZ_v1.scpost)
N0030 (Date: 11.11.2020)
N0040 G21 
N0050 G40 G54 G90 G49 G80 G91.1
N0060 F1000
N0070 S500
N0080 G00 X0.000 Y294.031
N0100 G01 X335.583 Y0.000 F12000.0
N0110 X0.000 Y685.370 Z80
N0120 X682.896 Y0.000  Z0
N0130 X0.000 Y1115.842 Z80
N0140 X971.508 Y0.000 Z0
N0150 X0.000 Y1482.722 Z80 
N0160 X1460.681 Y0.000 Z0
N0170 X0.000 Y1756.659 Z80
N0180 X1773.752 Y0.000 Z0
N0190 X0.000 Y2000.000 Z80
N0200 X2155.307 Y0.000 Z0
N0210 X485.754 Y2000.000 Z80
N0220 X2683.615 Y0.000 Z0
N0230 X1255.229 Y2000.000 Z80
N0240 X3167.896 Y0.000 Z0
N0250 X1842.237 Y2000.000 Z80
N0260 X3569.018 Y0.000 Z0
N0270 X2505.066 Y2000.000 Z80
N0280 X4058.191 Y0.000 Z0
N0290 X3000.000 Y2000.000 Z80
N0300 X4684.333 Y0.000 Z0
N0310 X4058.191 Y2000.000 Z80
N0320 X5359.392 Y0.000 Z0
N0330 X4708.792 Y2000.000 Z80
N0340 X5736.056 Y0.000 Z0
N0350 X5034.092 Y2000.000 Z80
N0360 X6000.000 Y0.000 Z0
N0370 X5359.392 Y2000.000 Z80
N0380 X6000.000 Y741.361 Z0
N0390 X5517.046 Y2000.000 Z80
N0400 X6000.000 Y1291.945 Z0
N0410 X5758.523 Y2000.000 Z80
N0420 X6000.000 Y1756.659 Z0
N0430 X5879.261 Y2000.000 Z80
N0450 G00 X6000.000 Z0
N0470 G01 Y0.000 Z80
N0480 X0.000 Z0
N0490 Y2000.000 Z80
N0500 X6000.000 Z0
N0010 (Filename: 2000x6000.tap)
N0020 (Post processor: PLAZMAKROY_XYZ_v1.scpost)
N0030 (Date: 11.11.2020)
N0040 G21 
N0050 G40 G54 G90 G49 G80 G91.1
N0060 F1000
N0070 S500
N0080 G00 X0.000 Y294.031
N0100 G01 X335.583 Y0.000 F12000.0
N0110 X0.000 Y685.370 Z80
N0120 X682.896 Y0.000  Z0
N0130 X0.000 Y1115.842 Z80
N0140 X971.508 Y0.000 Z0
N0150 X0.000 Y1482.722 Z80 
N0160 X1460.681 Y0.000 Z0
N0170 X0.000 Y1756.659 Z80
N0180 X1773.752 Y0.000 Z0
N0190 X0.000 Y2000.000 Z80
N0200 X2155.307 Y0.000 Z0
N0210 X485.754 Y2000.000 Z80
N0220 X2683.615 Y0.000 Z0
N0230 X1255.229 Y2000.000 Z80
N0240 X3167.896 Y0.000 Z0
N0250 X1842.237 Y2000.000 Z80
N0260 X3569.018 Y0.000 Z0
N0270 X2505.066 Y2000.000 Z80
N0280 X4058.191 Y0.000 Z0
N0290 X3000.000 Y2000.000 Z80
N0300 X4684.333 Y0.000 Z0
N0310 X4058.191 Y2000.000 Z80
N0320 X5359.392 Y0.000 Z0
N0330 X4708.792 Y2000.000 Z80
N0340 X5736.056 Y0.000 Z0
N0350 X5034.092 Y2000.000 Z80
N0360 X6000.000 Y0.000 Z0
N0370 X5359.392 Y2000.000 Z80
N0380 X6000.000 Y741.361 Z0
N0390 X5517.046 Y2000.000 Z80
N0400 X6000.000 Y1291.945 Z0
N0410 X5758.523 Y2000.000 Z80
N0420 X6000.000 Y1756.659 Z0
N0430 X5879.261 Y2000.000 Z80
N0450 G00 X6000.000 Z0
N0470 G01 Y0.000 Z80
N0480 X0.000 Z0
N0490 Y2000.000 Z80
N0500 X6000.000 Z0
N0010 (Filename: 2000x6000.tap)
N0020 (Post processor: PLAZMAKROY_XYZ_v1.scpost)
N0030 (Date: 11.11.2020)
N0040 G21 
N0050 G40 G54 G90 G49 G80 G91.1
N0060 F1000
N0070 S500
N0080 G00 X0.000 Y294.031
N0100 G01 X335.583 Y0.000 F12000.0
N0110 X0.000 Y685.370 Z80
N0120 X682.896 Y0.000  Z0
N0130 X0.000 Y1115.842 Z80
N0140 X971.508 Y0.000 Z0
N0150 X0.000 Y1482.722 Z80 
N0160 X1460.681 Y0.000 Z0
N0170 X0.000 Y1756.659 Z80
N0180 X1773.752 Y0.000 Z0
N0190 X0.000 Y2000.000 Z80
N0200 X2155.307 Y0.000 Z0
N0210 X485.754 Y2000.000 Z80
N0220 X2683.615 Y0.000 Z0
N0230 X1255.229 Y2000.000 Z80
N0240 X3167.896 Y0.000 Z0
N0250 X1842.237 Y2000.000 Z80
N0260 X3569.018 Y0.000 Z0
N0270 X2505.066 Y2000.000 Z80
N0280 X4058.191 Y0.000 Z0
N0290 X3000.000 Y2000.000 Z80
N0300 X4684.333 Y0.000 Z0
N0310 X4058.191 Y2000.000 Z80
N0320 X5359.392 Y0.000 Z0
N0330 X4708.792 Y2000.000 Z80
N0340 X5736.056 Y0.000 Z0
N0350 X5034.092 Y2000.000 Z80
N0360 X6000.000 Y0.000 Z0
N0370 X5359.392 Y2000.000 Z80
N0380 X6000.000 Y741.361 Z0
N0390 X5517.046 Y2000.000 Z80
N0400 X6000.000 Y1291.945 Z0
N0410 X5758.523 Y2000.000 Z80
N0420 X6000.000 Y1756.659 Z0
N0430 X5879.261 Y2000.000 Z80
N0450 G00 X6000.000 Z0
N0470 G01 Y0.000 Z80
N0480 X0.000 Z0
N0490 Y2000.000 Z80
N0500 X6000.000 Z0
N0010 (Filename: 2000x6000.tap)
N0020 (Post processor: PLAZMAKROY_XYZ_v1.scpost)
N0030 (Date: 11.11.2020)
N0040 G21 
N0050 G40 G54 G90 G49 G80 G91.1
N0060 F1000
N0070 S500
N0080 G00 X0.000 Y294.031
N0100 G01 X335.583 Y0.000 F12000.0
N0110 X0.000 Y685.370 Z80
N0120 X682.896 Y0.000  Z0
N0130 X0.000 Y1115.842 Z80
N0140 X971.508 Y0.000 Z0
N0150 X0.000 Y1482.722 Z80 
N0160 X1460.681 Y0.000 Z0
N0170 X0.000 Y1756.659 Z80
N0180 X1773.752 Y0.000 Z0
N0190 X0.000 Y2000.000 Z80
N0200 X2155.307 Y0.000 Z0
N0210 X485.754 Y2000.000 Z80
N0220 X2683.615 Y0.000 Z0
N0230 X1255.229 Y2000.000 Z80
N0240 X3167.896 Y0.000 Z0
N0250 X1842.237 Y2000.000 Z80
N0260 X3569.018 Y0.000 Z0
N0270 X2505.066 Y2000.000 Z80
N0280 X4058.191 Y0.000 Z0
N0290 X3000.000 Y2000.000 Z80
N0300 X4684.333 Y0.000 Z0
N0310 X4058.191 Y2000.000 Z80
N0320 X5359.392 Y0.000 Z0
N0330 X4708.792 Y2000.000 Z80
N0340 X5736.056 Y0.000 Z0
N0350 X5034.092 Y2000.000 Z80
N0360 X6000.000 Y0.000 Z0
N0370 X5359.392 Y2000.000 Z80
N0380 X6000.000 Y741.361 Z0
N0390 X5517.046 Y2000.000 Z80
N0400 X6000.000 Y1291.945 Z0
N0410 X5758.523 Y2000.000 Z80
N0420 X6000.000 Y1756.659 Z0
N0430 X5879.261 Y2000.000 Z80
N0450 G00 X6000.000 Z0
N0470 G01 Y0.000 Z80
N0480 X0.000 Z0
N0490 Y2000.000 Z80
N0500 X6000.000 Z0
N0010 (Filename: 2000x6000.tap)
N0020 (Post processor: PLAZMAKROY_XYZ_v1.scpost)
N0030 (Date: 11.11.2020)
N0040 G21 
N0050 G40 G54 G90 G49 G80 G91.1
N0060 F1000
N0070 S500
N0080 G00 X0.000 Y294.031
N0100 G01 X335.583 Y0.000 F12000.0
N0110 X0.000 Y685.370 Z80
N0120 X682.896 Y0.000  Z0
N0130 X0.000 Y1115.842 Z80
N0140 X971.508 Y0.000 Z0
N0150 X0.000 Y1482.722 Z80 
N0160 X1460.681 Y0.000 Z0
N0170 X0.000 Y1756.659 Z80
N0180 X1773.752 Y0.000 Z0
N0190 X0.000 Y2000.000 Z80
N0200 X2155.307 Y0.000 Z0
N0210 X485.754 Y2000.000 Z80
N0220 X2683.615 Y0.000 Z0
N0230 X1255.229 Y2000.000 Z80
N0240 X3167.896 Y0.000 Z0
N0250 X1842.237 Y2000.000 Z80
N0260 X3569.018 Y0.000 Z0
N0270 X2505.066 Y2000.000 Z80
N0280 X4058.191 Y0.000 Z0
N0290 X3000.000 Y2000.000 Z80
N0300 X4684.333 Y0.000 Z0
N0310 X4058.191 Y2000.000 Z80
N0320 X5359.392 Y0.000 Z0
N0330 X4708.792 Y2000.000 Z80
N0340 X5736.056 Y0.000 Z0
N0350 X5034.092 Y2000.000 Z80
N0360 X6000.000 Y0.000 Z0
N0370 X5359.392 Y2000.000 Z80
N0380 X6000.000 Y741.361 Z0
N0390 X5517.046 Y2000.000 Z80
N0400 X6000.000 Y1291.945 Z0
N0410 X5758.523 Y2000.000 Z80
N0420 X6000.000 Y1756.659 Z0
N0430 X5879.261 Y2000.000 Z80
N0450 G00 X6000.000 Z0
N0470 G01 Y0.000 Z80
N0480 X0.000 Z0
N0490 Y2000.000 Z80
N0500 X6000.000 Z0
N0010 (Filename: 2000x6000.tap)
N0020 (Post processor: PLAZMAKROY_XYZ_v1.scpost)
N0030 (Date: 11.11.2020)
N0040 G21 
N0050 G40 G54 G90 G49 G80 G91.1
N0060 F1000
N0070 S500
N0080 G00 X0.000 Y294.031
N0100 G01 X335.583 Y0.000 F12000.0
N0110 X0.000 Y685.370 Z80
N0120 X682.896 Y0.000  Z0
N0130 X0.000 Y1115.842 Z80
N0140 X971.508 Y0.000 Z0
N0150 X0.000 Y1482.722 Z80 
N0160 X1460.681 Y0.000 Z0
N0170 X0.000 Y1756.659 Z80
N0180 X1773.752 Y0.000 Z0
N0190 X0.000 Y2000.000 Z80
N0200 X2155.307 Y0.000 Z0
N0210 X485.754 Y2000.000 Z80
N0220 X2683.615 Y0.000 Z0
N0230 X1255.229 Y2000.000 Z80
N0240 X3167.896 Y0.000 Z0
N0250 X1842.237 Y2000.000 Z80
N0260 X3569.018 Y0.000 Z0
N0270 X2505.066 Y2000.000 Z80
N0280 X4058.191 Y0.000 Z0
N0290 X3000.000 Y2000.000 Z80
N0300 X4684.333 Y0.000 Z0
N0310 X4058.191 Y2000.000 Z80
N0320 X5359.392 Y0.000 Z0
N0330 X4708.792 Y2000.000 Z80
N0340 X5736.056 Y0.000 Z0
N0350 X5034.092 Y2000.000 Z80
N0360 X6000.000 Y0.000 Z0
N0370 X5359.392 Y2000.000 Z80
N0380 X6000.000 Y741.361 Z0
N0390 X5517.046 Y2000.000 Z80
N0400 X6000.000 Y1291.945 Z0
N0410 X5758.523 Y2000.000 Z80
N0420 X6000.000 Y1756.659 Z0
N0430 X5879.261 Y2000.000 Z80
N0450 G00 X6000.000 Z0
N0470 G01 Y0.000 Z80
N0480 X0.000 Z0
N0490 Y2000.000 Z80
N0500 X6000.000 Z0
N0010 (Filename: 2000x6000.tap)
N0020 (Post processor: PLAZMAKROY_XYZ_v1.scpost)
N0030 (Date: 11.11.2020)
N0040 G21 
N0050 G40 G54 G90 G49 G80 G91.1
N0060 F1000
N0070 S500
N0080 G00 X0.000 Y294.031
N0100 G01 X335.583 Y0.000 F12000.0
N0110 X0.000 Y685.370 Z80
N0120 X682.896 Y0.000  Z0
N0130 X0.000 Y1115.842 Z80
N0140 X971.508 Y0.000 Z0
N0150 X0.000 Y1482.722 Z80 
N0160 X1460.681 Y0.000 Z0
N0170 X0.000 Y1756.659 Z80
N0180 X1773.752 Y0.000 Z0
N0190 X0.000 Y2000.000 Z80
N0200 X2155.307 Y0.000 Z0
N0210 X485.754 Y2000.000 Z80
N0220 X2683.615 Y0.000 Z0
N0230 X1255.229 Y2000.000 Z80
N0240 X3167.896 Y0.000 Z0
N0250 X1842.237 Y2000.000 Z80
N0260 X3569.018 Y0.000 Z0
N0270 X2505.066 Y2000.000 Z80
N0280 X4058.191 Y0.000 Z0
N0290 X3000.000 Y2000.000 Z80
N0300 X4684.333 Y0.000 Z0
N0310 X4058.191 Y2000.000 Z80
N0320 X5359.392 Y0.000 Z0
N0330 X4708.792 Y2000.000 Z80
N0340 X5736.056 Y0.000 Z0
N0350 X5034.092 Y2000.000 Z80
N0360 X6000.000 Y0.000 Z0
N0370 X5359.392 Y2000.000 Z80
N0380 X6000.000 Y741.361 Z0
N0390 X5517.046 Y2000.000 Z80
N0400 X6000.000 Y1291.945 Z0
N0410 X5758.523 Y2000.000 Z80
N0420 X6000.000 Y1756.659 Z0
N0430 X5879.261 Y2000.000 Z80
N0450 G00 X6000.000 Z0
N0470 G01 Y0.000 Z80
N0480 X0.000 Z0
N0490 Y2000.000 Z80
N0500 X6000.000 Z0
N0010 (Filename: 2000x6000.tap)
N0020 (Post processor: PLAZMAKROY_XYZ_v1.scpost)
N0030 (Date: 11.11.2020)
N0040 G21 
N0050 G40 G54 G90 G49 G80 G91.1
N0060 F1000
N0070 S500
N0080 G00 X0.000 Y294.031
N0100 G01 X335.583 Y0.000 F12000.0
N0110 X0.000 Y685.370 Z80
N0120 X682.896 Y0.000  Z0
N0130 X0.000 Y1115.842 Z80
N0140 X971.508 Y0.000 Z0
N0150 X0.000 Y1482.722 Z80 
N0160 X1460.681 Y0.000 Z0
N0170 X0.000 Y1756.659 Z80
N0180 X1773.752 Y0.000 Z0
N0190 X0.000 Y2000.000 Z80
N0200 X2155.307 Y0.000 Z0
N0210 X485.754 Y2000.000 Z80
N0220 X2683.615 Y0.000 Z0
N0230 X1255.229 Y2000.000 Z80
N0240 X3167.896 Y0.000 Z0
N0250 X1842.237 Y2000.000 Z80
N0260 X3569.018 Y0.000 Z0
N0270 X2505.066 Y2000.000 Z80
N0280 X4058.191 Y0.000 Z0
N0290 X3000.000 Y2000.000 Z80
N0300 X4684.333 Y0.000 Z0
N0310 X4058.191 Y2000.000 Z80
N0320 X5359.392 Y0.000 Z0
N0330 X4708.792 Y2000.000 Z80
N0340 X5736.056 Y0.000 Z0
N0350 X5034.092 Y2000.000 Z80
N0360 X6000.000 Y0.000 Z0
N0370 X5359.392 Y2000.000 Z80
N0380 X6000.000 Y741.361 Z0
N0390 X5517.046 Y2000.000 Z80
N0400 X6000.000 Y1291.945 Z0
N0410 X5758.523 Y2000.000 Z80
N0420 X6000.000 Y1756.659 Z0
N0430 X5879.261 Y2000.000 Z80
N0450 G00 X6000.000 Z0
N0470 G01 Y0.000 Z80
N0480 X0.000 Z0
N0490 Y2000.000 Z80
N0500 X6000.000 Z0
N0010 (Filename: 2000x6000.tap)
