N0010 (Filename: Алексей Ю.tap)
N0020 (Post processor: PLAZMAKROY_XYZ_v1.scpost)
N0030 (Date: 08.02.2024)
N0040 G21 (Units: Metric)
N0050 G40 G54 G90 G49 G80 G91.1
N0060 F1
N0070 S500
N0080 (Part: Алексей Ю)
N0090 (Operation: Со смещением вовнутрь, 0, T1: Плазма, 1,5 мм прорез)
N0100 G00 X258.382 Y49.448
N0110 M03
N0120 G04 P0.5
N0130 G01 Y43.448 F2000.0
N0140 G03 I0.0000 J107.4655
N0150 X259.3820 Y43.4527 I0.0000 J107.4655
N0160 G01 X259.354 Y46.453
N0170 (Operation: Со смещением наружу, Новый слой, T1: Плазма, 1,5 мм прорез)
N0180 M05
N0190 G00 X276.797 Y1.742
N0200 M03
N0210 G04 P0.5
N0220 G01 X273.809 Y6.945
N0230 X262.890 Y0.677
N0240 G02 X252.1442 Y0.7010 I-5.3519 J9.3231
N0250 G01 X4.573 Y144.300
N0260 G02 X4.6774 Y162.9189 I5.4272 J9.2794
N0270 G01 X252.132 Y303.985
N0280 G02 X262.8540 Y303.9423 I5.3239 J-9.3391
N0290 G01 X509.413 Y160.787
N0300 G02 X509.3668 Y142.1676 I-5.3981 J-9.2964
N0310 G01 X273.809 Y6.945
N0320 X272.942 Y6.448
N0330 X274.436 Y3.846
N0340 (Part: Алексей Ю Дубликат 5)
N0350 (Operation: Со смещением вовнутрь, 0, T1: Плазма, 1,5 мм прорез)
N0360 M05
N0370 G00 X517.382 Y216.448
N0380 M03
N0390 G04 P0.5
N0400 G01 Y210.448
N0410 G03 I0.0000 J107.4655
N0420 X518.3820 Y210.4527 I0.0000 J107.4655
N0430 G01 X518.354 Y213.453
N0440 (Operation: Со смещением наружу, Новый слой, T1: Плазма, 1,5 мм прорез)
N0450 M05
N0460 G00 X535.797 Y168.742
N0470 M03
N0480 G04 P0.5
N0490 G01 X532.809 Y173.945
N0500 X521.890 Y167.677
N0510 G02 X511.1442 Y167.7010 I-5.3519 J9.3231
N0520 G01 X263.573 Y311.300
N0530 G02 X263.6774 Y329.9189 I5.4272 J9.2794
N0540 G01 X511.132 Y470.985
N0550 G02 X521.8540 Y470.9423 I5.3239 J-9.3391
N0560 G01 X768.413 Y327.787
N0570 G02 X768.3668 Y309.1676 I-5.3981 J-9.2964
N0580 G01 X532.809 Y173.945
N0590 X531.942 Y173.448
N0600 X533.436 Y170.846
N0610 (Part: Алексей Ю Дубликат 10)
N0620 (Operation: Со смещением вовнутрь, 0, T1: Плазма, 1,5 мм прорез)
N0630 M05
N0640 G00 X258.382 Y384.448
N0650 M03
N0660 G04 P0.5
N0670 G01 Y378.448
N0680 G03 I0.0000 J107.4655
N0690 X259.3820 Y378.4527 I0.0000 J107.4655
N0700 G01 X259.354 Y381.453
N0710 (Operation: Со смещением наружу, Новый слой, T1: Плазма, 1,5 мм прорез)
N0720 M05
N0730 G00 X276.797 Y336.742
N0740 M03
N0750 G04 P0.5
N0760 G01 X273.809 Y341.945
N0770 X262.890 Y335.677
N0780 G02 X252.1442 Y335.7010 I-5.3519 J9.3231
N0790 G01 X4.573 Y479.300
N0800 G02 X4.6774 Y497.9189 I5.4272 J9.2794
N0810 G01 X252.132 Y638.985
N0820 G02 X262.8540 Y638.9423 I5.3239 J-9.3391
N0830 G01 X509.413 Y495.787
N0840 G02 X509.3668 Y477.1676 I-5.3981 J-9.2964
N0850 G01 X273.809 Y341.945
N0860 X272.942 Y341.448
N0870 X274.436 Y338.846
N0880 (Part: Алексей Ю Дубликат 15)
N0890 (Operation: Со смещением вовнутрь, 0, T1: Плазма, 1,5 мм прорез)
N0900 M05
N0910 G00 X517.382 Y551.448
N0920 M03
N0930 G04 P0.5
N0940 G01 Y545.448
N0950 G03 I0.0000 J107.4655
N0960 X518.3820 Y545.4527 I0.0000 J107.4655
N0970 G01 X518.354 Y548.453
N0980 (Operation: Со смещением наружу, Новый слой, T1: Плазма, 1,5 мм прорез)
N0990 M05
N1000 G00 X535.797 Y503.742
N1010 M03
N1020 G04 P0.5
N1030 G01 X532.809 Y508.945
N1040 X521.890 Y502.677
N1050 G02 X511.1442 Y502.7010 I-5.3519 J9.3231
N1060 G01 X263.573 Y646.300
N1070 G02 X263.6774 Y664.9189 I5.4272 J9.2794
N1080 G01 X511.132 Y805.985
N1090 G02 X521.8540 Y805.9423 I5.3239 J-9.3391
N1100 G01 X768.413 Y662.787
N1110 G02 X768.3668 Y644.1676 I-5.3981 J-9.2964
N1120 G01 X532.809 Y508.945
N1130 X531.942 Y508.448
N1140 X533.436 Y505.846
N1150 (Part: Алексей Ю Дубликат 11)
N1160 (Operation: Со смещением вовнутрь, 0, T1: Плазма, 1,5 мм прорез)
N1170 M05
N1180 G00 X777.397 Y384.448
N1190 M03
N1200 G04 P0.5
N1210 G01 Y378.448
N1220 G03 I0.0000 J107.4655
N1230 X778.3969 Y378.4527 I0.0000 J107.4655
N1240 G01 X778.369 Y381.453
N1250 (Operation: Со смещением наружу, Новый слой, T1: Плазма, 1,5 мм прорез)
N1260 M05
N1270 G00 X795.811 Y336.742
N1280 M03
N1290 G04 P0.5
N1300 G01 X792.824 Y341.945
N1310 X781.905 Y335.677
N1320 G02 X771.1591 Y335.7010 I-5.3519 J9.3231
N1330 G01 X523.588 Y479.300
N1340 G02 X523.6923 Y497.9189 I5.4272 J9.2794
N1350 G01 X771.147 Y638.985
N1360 G02 X781.8690 Y638.9423 I5.3239 J-9.3391
N1370 G01 X1028.428 Y495.787
N1380 G02 X1028.3817 Y477.1676 I-5.3981 J-9.2964
N1390 G01 X792.824 Y341.945
N1400 X791.957 Y341.448
N1410 X793.451 Y338.846
N1420 (Part: Алексей Ю Дубликат 16)
N1430 (Operation: Со смещением вовнутрь, 0, T1: Плазма, 1,5 мм прорез)
N1440 M05
N1450 G00 X1036.397 Y551.448
N1460 M03
N1470 G04 P0.5
N1480 G01 Y545.448
N1490 G03 I0.0000 J107.4655
N1500 X1037.3969 Y545.4527 I0.0000 J107.4655
N1510 G01 X1037.369 Y548.453
N1520 (Operation: Со смещением наружу, Новый слой, T1: Плазма, 1,5 мм прорез)
N1530 M05
N1540 G00 X1054.811 Y503.742
N1550 M03
N1560 G04 P0.5
N1570 G01 X1051.824 Y508.945
N1580 X1040.905 Y502.677
N1590 G02 X1030.1591 Y502.7010 I-5.3519 J9.3231
N1600 G01 X782.588 Y646.300
N1610 G02 X782.6923 Y664.9189 I5.4272 J9.2794
N1620 G01 X1030.147 Y805.985
N1630 G02 X1040.8690 Y805.9423 I5.3239 J-9.3391
N1640 G01 X1287.428 Y662.787
N1650 G02 X1287.3817 Y644.1676 I-5.3981 J-9.2964
N1660 G01 X1051.824 Y508.945
N1670 X1050.957 Y508.448
N1680 X1052.451 Y505.846
N1690 (Part: Алексей Ю Дубликат 12)
N1700 (Operation: Со смещением вовнутрь, 0, T1: Плазма, 1,5 мм прорез)
N1710 M05
N1720 G00 X1296.412 Y384.448
N1730 M03
N1740 G04 P0.5
N1750 G01 Y378.448
N1760 G03 I0.0000 J107.4655
N1770 X1297.4118 Y378.4527 I0.0000 J107.4655
N1780 G01 X1297.384 Y381.453
N1790 (Operation: Со смещением наружу, Новый слой, T1: Плазма, 1,5 мм прорез)
N1800 M05
N1810 G00 X1314.826 Y336.742
N1820 M03
N1830 G04 P0.5
N1840 G01 X1311.839 Y341.945
N1850 X1300.920 Y335.677
N1860 G02 X1290.1741 Y335.7010 I-5.3519 J9.3231
N1870 G01 X1042.603 Y479.300
N1880 G02 X1042.7072 Y497.9189 I5.4272 J9.2794
N1890 G01 X1290.162 Y638.985
N1900 G02 X1300.8839 Y638.9423 I5.3239 J-9.3391
N1910 G01 X1547.443 Y495.787
N1920 G02 X1547.3966 Y477.1676 I-5.3981 J-9.2964
N1930 G01 X1311.839 Y341.945
N1940 X1310.972 Y341.448
N1950 X1312.466 Y338.846
N1960 (Part: Алексей Ю Дубликат 17)
N1970 (Operation: Со смещением вовнутрь, 0, T1: Плазма, 1,5 мм прорез)
N1980 M05
N1990 G00 X1555.412 Y551.448
N2000 M03
N2010 G04 P0.5
N2020 G01 Y545.448
N2030 G03 I0.0000 J107.4655
N2040 X1556.4118 Y545.4527 I0.0000 J107.4655
N2050 G01 X1556.384 Y548.453
N2060 (Operation: Со смещением наружу, Новый слой, T1: Плазма, 1,5 мм прорез)
N2070 M05
N2080 G00 X1573.826 Y503.742
N2090 M03
N2100 G04 P0.5
N2110 G01 X1570.839 Y508.945
N2120 X1559.920 Y502.677
N2130 G02 X1549.1741 Y502.7010 I-5.3519 J9.3231
N2140 G01 X1301.603 Y646.300
N2150 G02 X1301.7072 Y664.9189 I5.4272 J9.2794
N2160 G01 X1549.162 Y805.985
N2170 G02 X1559.8839 Y805.9423 I5.3239 J-9.3391
N2180 G01 X1806.443 Y662.787
N2190 G02 X1806.3966 Y644.1676 I-5.3981 J-9.2964
N2200 G01 X1570.839 Y508.945
N2210 X1569.972 Y508.448
N2220 X1571.466 Y505.846
N2230 (Part: Алексей Ю Дубликат 13)
N2240 (Operation: Со смещением вовнутрь, 0, T1: Плазма, 1,5 мм прорез)
N2250 M05
N2260 G00 X1815.427 Y384.448
N2270 M03
N2280 G04 P0.5
N2290 G01 Y378.448
N2300 G03 I0.0000 J107.4655
N2310 X1816.4268 Y378.4527 I0.0000 J107.4655
N2320 G01 X1816.399 Y381.453
N2330 (Operation: Со смещением наружу, Новый слой, T1: Плазма, 1,5 мм прорез)
N2340 M05
N2350 G00 X1833.841 Y336.742
N2360 M03
N2370 G04 P0.5
N2380 G01 X1830.854 Y341.945
N2390 X1819.935 Y335.677
N2400 G02 X1809.1890 Y335.7010 I-5.3519 J9.3231
N2410 G01 X1561.618 Y479.300
N2420 G02 X1561.7222 Y497.9189 I5.4272 J9.2794
N2430 G01 X1809.177 Y638.985
N2440 G02 X1819.8988 Y638.9423 I5.3239 J-9.3391
N2450 G01 X2066.458 Y495.787
N2460 G02 X2066.4115 Y477.1676 I-5.3981 J-9.2964
N2470 G01 X1830.854 Y341.945
N2480 X1829.987 Y341.448
N2490 X1831.480 Y338.846
N2500 (Part: Алексей Ю Дубликат 18)
N2510 (Operation: Со смещением вовнутрь, 0, T1: Плазма, 1,5 мм прорез)
N2520 M05
N2530 G00 X2074.427 Y551.448
N2540 M03
N2550 G04 P0.5
N2560 G01 Y545.448
N2570 G03 I0.0000 J107.4655
N2580 X2075.4268 Y545.4527 I0.0000 J107.4655
N2590 G01 X2075.399 Y548.453
N2600 (Operation: Со смещением наружу, Новый слой, T1: Плазма, 1,5 мм прорез)
N2610 M05
N2620 G00 X2092.841 Y503.742
N2630 M03
N2640 G04 P0.5
N2650 G01 X2089.854 Y508.945
N2660 X2078.935 Y502.677
N2670 G02 X2068.1890 Y502.7010 I-5.3519 J9.3231
N2680 G01 X1820.618 Y646.300
N2690 G02 X1820.7222 Y664.9189 I5.4272 J9.2794
N2700 G01 X2068.177 Y805.985
N2710 G02 X2078.8988 Y805.9423 I5.3239 J-9.3391
N2720 G01 X2325.458 Y662.787
N2730 G02 X2325.4115 Y644.1676 I-5.3981 J-9.2964
N2740 G01 X2089.854 Y508.945
N2750 X2088.987 Y508.448
N2760 X2090.480 Y505.846
N2770 (Part: Алексей Ю Дубликат 14)
N2780 (Operation: Со смещением вовнутрь, 0, T1: Плазма, 1,5 мм прорез)
N2790 M05
N2800 G00 X2334.442 Y384.448
N2810 M03
N2820 G04 P0.5
N2830 G01 Y378.448
N2840 G03 I0.0000 J107.4655
N2850 X2335.4417 Y378.4527 I0.0000 J107.4655
N2860 G01 X2335.414 Y381.453
N2870 (Operation: Со смещением наружу, Новый слой, T1: Плазма, 1,5 мм прорез)
N2880 M05
N2890 G00 X2352.856 Y336.742
N2900 M03
N2910 G04 P0.5
N2920 G01 X2349.869 Y341.945
N2930 X2338.949 Y335.677
N2940 G02 X2328.2039 Y335.7010 I-5.3519 J9.3231
N2950 G01 X2080.632 Y479.300
N2960 G02 X2080.7371 Y497.9189 I5.4272 J9.2794
N2970 G01 X2328.192 Y638.985
N2980 G02 X2338.9137 Y638.9423 I5.3239 J-9.3391
N2990 G01 X2585.473 Y495.787
N3000 G02 X2585.4264 Y477.1676 I-5.3981 J-9.2964
N3010 G01 X2349.869 Y341.945
N3020 X2349.002 Y341.448
N3030 X2350.495 Y338.846
N3040 (Part: Алексей Ю Дубликат 19)
N3050 (Operation: Со смещением вовнутрь, 0, T1: Плазма, 1,5 мм прорез)
N3060 M05
N3070 G00 X2593.442 Y551.448
N3080 M03
N3090 G04 P0.5
N3100 G01 Y545.448
N3110 G03 I0.0000 J107.4655
N3120 X2594.4417 Y545.4527 I0.0000 J107.4655
N3130 G01 X2594.414 Y548.453
N3140 (Operation: Со смещением наружу, Новый слой, T1: Плазма, 1,5 мм прорез)
N3150 M05
N3160 G00 X2611.856 Y503.742
N3170 M03
N3180 G04 P0.5
N3190 G01 X2608.869 Y508.945
N3200 X2597.949 Y502.677
N3210 G02 X2587.2039 Y502.7010 I-5.3519 J9.3231
N3220 G01 X2339.632 Y646.300
N3230 G02 X2339.7371 Y664.9189 I5.4272 J9.2794
N3240 G01 X2587.192 Y805.985
N3250 G02 X2597.9137 Y805.9423 I5.3239 J-9.3391
N3260 G01 X2844.473 Y662.787
N3270 G02 X2844.4264 Y644.1676 I-5.3981 J-9.2964
N3280 G01 X2608.869 Y508.945
N3290 X2608.002 Y508.448
N3300 X2609.495 Y505.846
N3310 (Part: Алексей Ю Дубликат 24)
N3320 (Operation: Со смещением вовнутрь, 0, T1: Плазма, 1,5 мм прорез)
N3330 M05
N3340 G00 X2334.442 Y724.448
N3350 M03
N3360 G04 P0.5
N3370 G01 Y718.448
N3380 G03 I0.0000 J107.4655
N3390 X2335.4417 Y718.4527 I0.0000 J107.4655
N3400 G01 X2335.414 Y721.453
N3410 (Operation: Со смещением наружу, Новый слой, T1: Плазма, 1,5 мм прорез)
N3420 M05
N3430 G00 X2352.856 Y676.742
N3440 M03
N3450 G04 P0.5
N3460 G01 X2349.869 Y681.945
N3470 X2338.949 Y675.677
N3480 G02 X2328.2039 Y675.7010 I-5.3519 J9.3231
N3490 G01 X2080.632 Y819.300
N3500 G02 X2080.7371 Y837.9189 I5.4272 J9.2794
N3510 G01 X2328.192 Y978.985
N3520 G02 X2338.9137 Y978.9423 I5.3239 J-9.3391
N3530 G01 X2585.473 Y835.787
N3540 G02 X2585.4264 Y817.1676 I-5.3981 J-9.2964
N3550 G01 X2349.869 Y681.945
N3560 X2349.002 Y681.448
N3570 X2350.495 Y678.846
N3580 (Part: Алексей Ю Дубликат 29)
N3590 (Operation: Со смещением вовнутрь, 0, T1: Плазма, 1,5 мм прорез)
N3600 M05
N3610 G00 X2593.442 Y891.448
N3620 M03
N3630 G04 P0.5
N3640 G01 Y885.448
N3650 G03 I0.0000 J107.4655
N3660 X2594.4417 Y885.4527 I0.0000 J107.4655
N3670 G01 X2594.414 Y888.453
N3680 (Operation: Со смещением наружу, Новый слой, T1: Плазма, 1,5 мм прорез)
N3690 M05
N3700 G00 X2611.856 Y843.742
N3710 M03
N3720 G04 P0.5
N3730 G01 X2608.869 Y848.945
N3740 X2597.949 Y842.677
N3750 G02 X2587.2039 Y842.7010 I-5.3519 J9.3231
N3760 G01 X2339.632 Y986.300
N3770 G02 X2339.7371 Y1004.9189 I5.4272 J9.2794
N3780 G01 X2587.192 Y1145.985
N3790 G02 X2597.9137 Y1145.9423 I5.3239 J-9.3391
N3800 G01 X2844.473 Y1002.787
N3810 G02 X2844.4264 Y984.1676 I-5.3981 J-9.2964
N3820 G01 X2608.869 Y848.945
N3830 X2608.002 Y848.448
N3840 X2609.495 Y845.846
N3850 (Part: Алексей Ю Дубликат 34)
N3860 (Operation: Со смещением вовнутрь, 0, T1: Плазма, 1,5 мм прорез)
N3870 M05
N3880 G00 X2334.442 Y1059.448
N3890 M03
N3900 G04 P0.5
N3910 G01 Y1053.448
N3920 G03 I0.0000 J107.4655
N3930 X2335.4417 Y1053.4527 I0.0000 J107.4655
N3940 G01 X2335.414 Y1056.453
N3950 (Operation: Со смещением наружу, Новый слой, T1: Плазма, 1,5 мм прорез)
N3960 M05
N3970 G00 X2352.856 Y1011.742
N3980 M03
N3990 G04 P0.5
N4000 G01 X2349.869 Y1016.945
N4010 X2338.949 Y1010.677
N4020 G02 X2328.2039 Y1010.7010 I-5.3519 J9.3231
N4030 G01 X2080.632 Y1154.300
N4040 G02 X2080.7371 Y1172.9189 I5.4272 J9.2794
N4050 G01 X2328.192 Y1313.985
N4060 G02 X2338.9137 Y1313.9423 I5.3239 J-9.3391
N4070 G01 X2585.473 Y1170.787
N4080 G02 X2585.4264 Y1152.1676 I-5.3981 J-9.2964
N4090 G01 X2349.869 Y1016.945
N4100 X2349.002 Y1016.448
N4110 X2350.495 Y1013.846
N4120 (Part: Алексей Ю Дубликат 39)
N4130 (Operation: Со смещением вовнутрь, 0, T1: Плазма, 1,5 мм прорез)
N4140 M05
N4150 G00 X2593.442 Y1226.448
N4160 M03
N4170 G04 P0.5
N4180 G01 Y1220.448
N4190 G03 I0.0000 J107.4655
N4200 X2594.4417 Y1220.4527 I0.0000 J107.4655
N4210 G01 X2594.414 Y1223.453
N4220 (Operation: Со смещением наружу, Новый слой, T1: Плазма, 1,5 мм прорез)
N4230 M05
N4240 G00 X2611.856 Y1178.742
N4250 M03
N4260 G04 P0.5
N4270 G01 X2608.869 Y1183.945
N4280 X2597.949 Y1177.677
N4290 G02 X2587.2039 Y1177.7010 I-5.3519 J9.3231
N4300 G01 X2339.632 Y1321.300
N4310 G02 X2339.7371 Y1339.9189 I5.4272 J9.2794
N4320 G01 X2587.192 Y1480.985
N4330 G02 X2597.9137 Y1480.9423 I5.3239 J-9.3391
N4340 G01 X2844.473 Y1337.787
N4350 G02 X2844.4264 Y1319.1676 I-5.3981 J-9.2964
N4360 G01 X2608.869 Y1183.945
N4370 X2608.002 Y1183.448
N4380 X2609.495 Y1180.846
N4390 (Part: Алексей Ю Дубликат 38)
N4400 (Operation: Со смещением вовнутрь, 0, T1: Плазма, 1,5 мм прорез)
N4410 M05
N4420 G00 X2074.427 Y1226.448
N4430 M03
N4440 G04 P0.5
N4450 G01 Y1220.448
N4460 G03 I0.0000 J107.4655
N4470 X2075.4268 Y1220.4527 I0.0000 J107.4655
N4480 G01 X2075.399 Y1223.453
N4490 (Operation: Со смещением наружу, Новый слой, T1: Плазма, 1,5 мм прорез)
N4500 M05
N4510 G00 X2092.841 Y1178.742
N4520 M03
N4530 G04 P0.5
N4540 G01 X2089.854 Y1183.945
N4550 X2078.935 Y1177.677
N4560 G02 X2068.1890 Y1177.7010 I-5.3519 J9.3231
N4570 G01 X1820.618 Y1321.300
N4580 G02 X1820.7222 Y1339.9189 I5.4272 J9.2794
N4590 G01 X2068.177 Y1480.985
N4600 G02 X2078.8988 Y1480.9423 I5.3239 J-9.3391
N4610 G01 X2325.458 Y1337.787
N4620 G02 X2325.4115 Y1319.1676 I-5.3981 J-9.2964
N4630 G01 X2089.854 Y1183.945
N4640 X2088.987 Y1183.448
N4650 X2090.480 Y1180.846
N4660 (Part: Алексей Ю Дубликат 33)
N4670 (Operation: Со смещением вовнутрь, 0, T1: Плазма, 1,5 мм прорез)
N4680 M05
N4690 G00 X1815.427 Y1059.448
N4700 M03
N4710 G04 P0.5
N4720 G01 Y1053.448
N4730 G03 I0.0000 J107.4655
N4740 X1816.4268 Y1053.4527 I0.0000 J107.4655
N4750 G01 X1816.399 Y1056.453
N4760 (Operation: Со смещением наружу, Новый слой, T1: Плазма, 1,5 мм прорез)
N4770 M05
N4780 G00 X1833.841 Y1011.742
N4790 M03
N4800 G04 P0.5
N4810 G01 X1830.854 Y1016.945
N4820 X1819.935 Y1010.677
N4830 G02 X1809.1890 Y1010.7010 I-5.3519 J9.3231
N4840 G01 X1561.618 Y1154.300
N4850 G02 X1561.7222 Y1172.9189 I5.4272 J9.2794
N4860 G01 X1809.177 Y1313.985
N4870 G02 X1819.8988 Y1313.9423 I5.3239 J-9.3391
N4880 G01 X2066.458 Y1170.787
N4890 G02 X2066.4115 Y1152.1676 I-5.3981 J-9.2964
N4900 G01 X1830.854 Y1016.945
N4910 X1829.987 Y1016.448
N4920 X1831.480 Y1013.846
N4930 (Part: Алексей Ю Дубликат 28)
N4940 (Operation: Со смещением вовнутрь, 0, T1: Плазма, 1,5 мм прорез)
N4950 M05
N4960 G00 X2074.427 Y891.448
N4970 M03
N4980 G04 P0.5
N4990 G01 Y885.448
N5000 G03 I0.0000 J107.4655
N5010 X2075.4268 Y885.4527 I0.0000 J107.4655
N5020 G01 X2075.399 Y888.453
N5030 (Operation: Со смещением наружу, Новый слой, T1: Плазма, 1,5 мм прорез)
N5040 M05
N5050 G00 X2092.841 Y843.742
N5060 M03
N5070 G04 P0.5
N5080 G01 X2089.854 Y848.945
N5090 X2078.935 Y842.677
N5100 G02 X2068.1890 Y842.7010 I-5.3519 J9.3231
N5110 G01 X1820.618 Y986.300
N5120 G02 X1820.7222 Y1004.9189 I5.4272 J9.2794
N5130 G01 X2068.177 Y1145.985
N5140 G02 X2078.8988 Y1145.9423 I5.3239 J-9.3391
N5150 G01 X2325.458 Y1002.787
N5160 G02 X2325.4115 Y984.1676 I-5.3981 J-9.2964
N5170 G01 X2089.854 Y848.945
N5180 X2088.987 Y848.448
N5190 X2090.480 Y845.846
N5200 (Part: Алексей Ю Дубликат 23)
N5210 (Operation: Со смещением вовнутрь, 0, T1: Плазма, 1,5 мм прорез)
N5220 M05
N5230 G00 X1815.427 Y724.448
N5240 M03
N5250 G04 P0.5
N5260 G01 Y718.448
N5270 G03 I0.0000 J107.4655
N5280 X1816.4268 Y718.4527 I0.0000 J107.4655
N5290 G01 X1816.399 Y721.453
N5300 (Operation: Со смещением наружу, Новый слой, T1: Плазма, 1,5 мм прорез)
N5310 M05
N5320 G00 X1833.841 Y676.742
N5330 M03
N5340 G04 P0.5
N5350 G01 X1830.854 Y681.945
N5360 X1819.935 Y675.677
N5370 G02 X1809.1890 Y675.7010 I-5.3519 J9.3231
N5380 G01 X1561.618 Y819.300
N5390 G02 X1561.7222 Y837.9189 I5.4272 J9.2794
N5400 G01 X1809.177 Y978.985
N5410 G02 X1819.8988 Y978.9423 I5.3239 J-9.3391
N5420 G01 X2066.458 Y835.787
N5430 G02 X2066.4115 Y817.1676 I-5.3981 J-9.2964
N5440 G01 X1830.854 Y681.945
N5450 X1829.987 Y681.448
N5460 X1831.480 Y678.846
N5470 (Part: Алексей Ю Дубликат 27)
N5480 (Operation: Со смещением вовнутрь, 0, T1: Плазма, 1,5 мм прорез)
N5490 M05
N5500 G00 X1555.412 Y891.448
N5510 M03
N5520 G04 P0.5
N5530 G01 Y885.448
N5540 G03 I0.0000 J107.4655
N5550 X1556.4118 Y885.4527 I0.0000 J107.4655
N5560 G01 X1556.384 Y888.453
N5570 (Operation: Со смещением наружу, Новый слой, T1: Плазма, 1,5 мм прорез)
N5580 M05
N5590 G00 X1573.826 Y843.742
N5600 M03
N5610 G04 P0.5
N5620 G01 X1570.839 Y848.945
N5630 X1559.920 Y842.677
N5640 G02 X1549.1741 Y842.7010 I-5.3519 J9.3231
N5650 G01 X1301.603 Y986.300
N5660 G02 X1301.7072 Y1004.9189 I5.4272 J9.2794
N5670 G01 X1549.162 Y1145.985
N5680 G02 X1559.8839 Y1145.9423 I5.3239 J-9.3391
N5690 G01 X1806.443 Y1002.787
N5700 G02 X1806.3966 Y984.1676 I-5.3981 J-9.2964
N5710 G01 X1570.839 Y848.945
N5720 X1569.972 Y848.448
N5730 X1571.466 Y845.846
N5740 (Part: Алексей Ю Дубликат 22)
N5750 (Operation: Со смещением вовнутрь, 0, T1: Плазма, 1,5 мм прорез)
N5760 M05
N5770 G00 X1296.412 Y724.448
N5780 M03
N5790 G04 P0.5
N5800 G01 Y718.448
N5810 G03 I0.0000 J107.4655
N5820 X1297.4118 Y718.4527 I0.0000 J107.4655
N5830 G01 X1297.384 Y721.453
N5840 (Operation: Со смещением наружу, Новый слой, T1: Плазма, 1,5 мм прорез)
N5850 M05
N5860 G00 X1314.826 Y676.742
N5870 M03
N5880 G04 P0.5
N5890 G01 X1311.839 Y681.945
N5900 X1300.920 Y675.677
N5910 G02 X1290.1741 Y675.7010 I-5.3519 J9.3231
N5920 G01 X1042.603 Y819.300
N5930 G02 X1042.7072 Y837.9189 I5.4272 J9.2794
N5940 G01 X1290.162 Y978.985
N5950 G02 X1300.8839 Y978.9423 I5.3239 J-9.3391
N5960 G01 X1547.443 Y835.787
N5970 G02 X1547.3966 Y817.1676 I-5.3981 J-9.2964
N5980 G01 X1311.839 Y681.945
N5990 X1310.972 Y681.448
N6000 X1312.466 Y678.846
N6010 (Part: Алексей Ю Дубликат 26)
N6020 (Operation: Со смещением вовнутрь, 0, T1: Плазма, 1,5 мм прорез)
N6030 M05
N6040 G00 X1036.397 Y891.448
N6050 M03
N6060 G04 P0.5
N6070 G01 Y885.448
N6080 G03 I0.0000 J107.4655
N6090 X1037.3969 Y885.4527 I0.0000 J107.4655
N6100 G01 X1037.369 Y888.453
N6110 (Operation: Со смещением наружу, Новый слой, T1: Плазма, 1,5 мм прорез)
N6120 M05
N6130 G00 X1054.811 Y843.742
N6140 M03
N6150 G04 P0.5
N6160 G01 X1051.824 Y848.945
N6170 X1040.905 Y842.677
N6180 G02 X1030.1591 Y842.7010 I-5.3519 J9.3231
N6190 G01 X782.588 Y986.300
N6200 G02 X782.6923 Y1004.9189 I5.4272 J9.2794
N6210 G01 X1030.147 Y1145.985
N6220 G02 X1040.8690 Y1145.9423 I5.3239 J-9.3391
N6230 G01 X1287.428 Y1002.787
N6240 G02 X1287.3817 Y984.1676 I-5.3981 J-9.2964
N6250 G01 X1051.824 Y848.945
N6260 X1050.957 Y848.448
N6270 X1052.451 Y845.846
N6280 (Part: Алексей Ю Дубликат 21)
N6290 (Operation: Со смещением вовнутрь, 0, T1: Плазма, 1,5 мм прорез)
N6300 M05
N6310 G00 X777.397 Y724.448
N6320 M03
N6330 G04 P0.5
N6340 G01 Y718.448
N6350 G03 I0.0000 J107.4655
N6360 X778.3969 Y718.4527 I0.0000 J107.4655
N6370 G01 X778.369 Y721.453
N6380 (Operation: Со смещением наружу, Новый слой, T1: Плазма, 1,5 мм прорез)
N6390 M05
N6400 G00 X795.811 Y676.742
N6410 M03
N6420 G04 P0.5
N6430 G01 X792.824 Y681.945
N6440 X781.905 Y675.677
N6450 G02 X771.1591 Y675.7010 I-5.3519 J9.3231
N6460 G01 X523.588 Y819.300
N6470 G02 X523.6923 Y837.9189 I5.4272 J9.2794
N6480 G01 X771.147 Y978.985
N6490 G02 X781.8690 Y978.9423 I5.3239 J-9.3391
N6500 G01 X1028.428 Y835.787
N6510 G02 X1028.3817 Y817.1676 I-5.3981 J-9.2964
N6520 G01 X792.824 Y681.945
N6530 X791.957 Y681.448
N6540 X793.451 Y678.846
N6550 (Part: Алексей Ю Дубликат 25)
N6560 (Operation: Со смещением вовнутрь, 0, T1: Плазма, 1,5 мм прорез)
N6570 M05
N6580 G00 X517.382 Y891.448
N6590 M03
N6600 G04 P0.5
N6610 G01 Y885.448
N6620 G03 I0.0000 J107.4655
N6630 X518.3820 Y885.4527 I0.0000 J107.4655
N6640 G01 X518.354 Y888.453
N6650 (Operation: Со смещением наружу, Новый слой, T1: Плазма, 1,5 мм прорез)
N6660 M05
N6670 G00 X535.797 Y843.742
N6680 M03
N6690 G04 P0.5
N6700 G01 X532.809 Y848.945
N6710 X521.890 Y842.677
N6720 G02 X511.1442 Y842.7010 I-5.3519 J9.3231
N6730 G01 X263.573 Y986.300
N6740 G02 X263.6774 Y1004.9189 I5.4272 J9.2794
N6750 G01 X511.132 Y1145.985
N6760 G02 X521.8540 Y1145.9423 I5.3239 J-9.3391
N6770 G01 X768.413 Y1002.787
N6780 G02 X768.3668 Y984.1676 I-5.3981 J-9.2964
N6790 G01 X532.809 Y848.945
N6800 X531.942 Y848.448
N6810 X533.436 Y845.846
N6820 (Part: Алексей Ю Дубликат 20)
N6830 (Operation: Со смещением вовнутрь, 0, T1: Плазма, 1,5 мм прорез)
N6840 M05
N6850 G00 X258.382 Y724.448
N6860 M03
N6870 G04 P0.5
N6880 G01 Y718.448
N6890 G03 I0.0000 J107.4655
N6900 X259.3820 Y718.4527 I0.0000 J107.4655
N6910 G01 X259.354 Y721.453
N6920 (Operation: Со смещением наружу, Новый слой, T1: Плазма, 1,5 мм прорез)
N6930 M05
N6940 G00 X276.797 Y676.742
N6950 M03
N6960 G04 P0.5
N6970 G01 X273.809 Y681.945
N6980 X262.890 Y675.677
N6990 G02 X252.1442 Y675.7010 I-5.3519 J9.3231
N7000 G01 X4.573 Y819.300
N7010 G02 X4.6774 Y837.9189 I5.4272 J9.2794
N7020 G01 X252.132 Y978.985
N7030 G02 X262.8540 Y978.9423 I5.3239 J-9.3391
N7040 G01 X509.413 Y835.787
N7050 G02 X509.3668 Y817.1676 I-5.3981 J-9.2964
N7060 G01 X273.809 Y681.945
N7070 X272.942 Y681.448
N7080 X274.436 Y678.846
N7090 (Part: Алексей Ю Дубликат 30)
N7100 (Operation: Со смещением вовнутрь, 0, T1: Плазма, 1,5 мм прорез)
N7110 M05
N7120 G00 X258.382 Y1059.448
N7130 M03
N7140 G04 P0.5
N7150 G01 Y1053.448
N7160 G03 I0.0000 J107.4655
N7170 X259.3820 Y1053.4527 I0.0000 J107.4655
N7180 G01 X259.354 Y1056.453
N7190 (Operation: Со смещением наружу, Новый слой, T1: Плазма, 1,5 мм прорез)
N7200 M05
N7210 G00 X276.797 Y1011.742
N7220 M03
N7230 G04 P0.5
N7240 G01 X273.809 Y1016.945
N7250 X262.890 Y1010.677
N7260 G02 X252.1442 Y1010.7010 I-5.3519 J9.3231
N7270 G01 X4.573 Y1154.300
N7280 G02 X4.6774 Y1172.9189 I5.4272 J9.2794
N7290 G01 X252.132 Y1313.985
N7300 G02 X262.8540 Y1313.9423 I5.3239 J-9.3391
N7310 G01 X509.413 Y1170.787
N7320 G02 X509.3668 Y1152.1676 I-5.3981 J-9.2964
N7330 G01 X273.809 Y1016.945
N7340 X272.942 Y1016.448
N7350 X274.436 Y1013.846
N7360 (Part: Алексей Ю Дубликат 35)
N7370 (Operation: Со смещением вовнутрь, 0, T1: Плазма, 1,5 мм прорез)
N7380 M05
N7390 G00 X517.382 Y1226.448
N7400 M03
N7410 G04 P0.5
N7420 G01 Y1220.448
N7430 G03 I0.0000 J107.4655
N7440 X518.3820 Y1220.4527 I0.0000 J107.4655
N7450 G01 X518.354 Y1223.453
N7460 (Operation: Со смещением наружу, Новый слой, T1: Плазма, 1,5 мм прорез)
N7470 M05
N7480 G00 X535.797 Y1178.742
N7490 M03
N7500 G04 P0.5
N7510 G01 X532.809 Y1183.945
N7520 X521.890 Y1177.677
N7530 G02 X511.1442 Y1177.7010 I-5.3519 J9.3231
N7540 G01 X263.573 Y1321.300
N7550 G02 X263.6774 Y1339.9189 I5.4272 J9.2794
N7560 G01 X511.132 Y1480.985
N7570 G02 X521.8540 Y1480.9423 I5.3239 J-9.3391
N7580 G01 X768.413 Y1337.787
N7590 G02 X768.3668 Y1319.1676 I-5.3981 J-9.2964
N7600 G01 X532.809 Y1183.945
N7610 X531.942 Y1183.448
N7620 X533.436 Y1180.846
N7630 (Part: Алексей Ю Дубликат 31)
N7640 (Operation: Со смещением вовнутрь, 0, T1: Плазма, 1,5 мм прорез)
N7650 M05
N7660 G00 X777.397 Y1059.448
N7670 M03
N7680 G04 P0.5
N7690 G01 Y1053.448
N7700 G03 I0.0000 J107.4655
N7710 X778.3969 Y1053.4527 I0.0000 J107.4655
N7720 G01 X778.369 Y1056.453
N7730 (Operation: Со смещением наружу, Новый слой, T1: Плазма, 1,5 мм прорез)
N7740 M05
N7750 G00 X795.811 Y1011.742
N7760 M03
N7770 G04 P0.5
N7780 G01 X792.824 Y1016.945
N7790 X781.905 Y1010.677
N7800 G02 X771.1591 Y1010.7010 I-5.3519 J9.3231
N7810 G01 X523.588 Y1154.300
N7820 G02 X523.6923 Y1172.9189 I5.4272 J9.2794
N7830 G01 X771.147 Y1313.985
N7840 G02 X781.8690 Y1313.9423 I5.3239 J-9.3391
N7850 G01 X1028.428 Y1170.787
N7860 G02 X1028.3817 Y1152.1676 I-5.3981 J-9.2964
N7870 G01 X792.824 Y1016.945
N7880 X791.957 Y1016.448
N7890 X793.451 Y1013.846
N7900 (Part: Алексей Ю Дубликат 36)
N7910 (Operation: Со смещением вовнутрь, 0, T1: Плазма, 1,5 мм прорез)
N7920 M05
N7930 G00 X1036.397 Y1226.448
N7940 M03
N7950 G04 P0.5
N7960 G01 Y1220.448
N7970 G03 I0.0000 J107.4655
N7980 X1037.3969 Y1220.4527 I0.0000 J107.4655
N7990 G01 X1037.369 Y1223.453
N8000 (Operation: Со смещением наружу, Новый слой, T1: Плазма, 1,5 мм прорез)
N8010 M05
N8020 G00 X1054.811 Y1178.742
N8030 M03
N8040 G04 P0.5
N8050 G01 X1051.824 Y1183.945
N8060 X1040.905 Y1177.677
N8070 G02 X1030.1591 Y1177.7010 I-5.3519 J9.3231
N8080 G01 X782.588 Y1321.300
N8090 G02 X782.6923 Y1339.9189 I5.4272 J9.2794
N8100 G01 X1030.147 Y1480.985
N8110 G02 X1040.8690 Y1480.9423 I5.3239 J-9.3391
N8120 G01 X1287.428 Y1337.787
N8130 G02 X1287.3817 Y1319.1676 I-5.3981 J-9.2964
N8140 G01 X1051.824 Y1183.945
N8150 X1050.957 Y1183.448
N8160 X1052.451 Y1180.846
N8170 (Part: Алексей Ю Дубликат 32)
N8180 (Operation: Со смещением вовнутрь, 0, T1: Плазма, 1,5 мм прорез)
N8190 M05
N8200 G00 X1296.412 Y1059.448
N8210 M03
N8220 G04 P0.5
N8230 G01 Y1053.448
N8240 G03 I0.0000 J107.4655
N8250 X1297.4118 Y1053.4527 I0.0000 J107.4655
N8260 G01 X1297.384 Y1056.453
N8270 (Operation: Со смещением наружу, Новый слой, T1: Плазма, 1,5 мм прорез)
N8280 M05
N8290 G00 X1314.826 Y1011.742
N8300 M03
N8310 G04 P0.5
N8320 G01 X1311.839 Y1016.945
N8330 X1300.920 Y1010.677
N8340 G02 X1290.1741 Y1010.7010 I-5.3519 J9.3231
N8350 G01 X1042.603 Y1154.300
N8360 G02 X1042.7072 Y1172.9189 I5.4272 J9.2794
N8370 G01 X1290.162 Y1313.985
N8380 G02 X1300.8839 Y1313.9423 I5.3239 J-9.3391
N8390 G01 X1547.443 Y1170.787
N8400 G02 X1547.3966 Y1152.1676 I-5.3981 J-9.2964
N8410 G01 X1311.839 Y1016.945
N8420 X1310.972 Y1016.448
N8430 X1312.466 Y1013.846
N8440 (Part: Алексей Ю Дубликат 37)
N8450 (Operation: Со смещением вовнутрь, 0, T1: Плазма, 1,5 мм прорез)
N8460 M05
N8470 G00 X1555.412 Y1226.448
N8480 M03
N8490 G04 P0.5
N8500 G01 Y1220.448
N8510 G03 I0.0000 J107.4655
N8520 X1556.4118 Y1220.4527 I0.0000 J107.4655
N8530 G01 X1556.384 Y1223.453
N8540 (Operation: Со смещением наружу, Новый слой, T1: Плазма, 1,5 мм прорез)
N8550 M05
N8560 G00 X1573.826 Y1178.742
N8570 M03
N8580 G04 P0.5
N8590 G01 X1570.839 Y1183.945
N8600 X1559.920 Y1177.677
N8610 G02 X1549.1741 Y1177.7010 I-5.3519 J9.3231
N8620 G01 X1301.603 Y1321.300
N8630 G02 X1301.7072 Y1339.9189 I5.4272 J9.2794
N8640 G01 X1549.162 Y1480.985
N8650 G02 X1559.8839 Y1480.9423 I5.3239 J-9.3391
N8660 G01 X1806.443 Y1337.787
N8670 G02 X1806.3966 Y1319.1676 I-5.3981 J-9.2964
N8680 G01 X1570.839 Y1183.945
N8690 X1569.972 Y1183.448
N8700 X1571.466 Y1180.846
N8710 (Part: Алексей Ю Дубликат 7)
N8720 (Operation: Со смещением вовнутрь, 0, T1: Плазма, 1,5 мм прорез)
N8730 M05
N8740 G00 X1555.412 Y216.448
N8750 M03
N8760 G04 P0.5
N8770 G01 Y210.448
N8780 G03 I0.0000 J107.4655
N8790 X1556.4118 Y210.4527 I0.0000 J107.4655
N8800 G01 X1556.384 Y213.453
N8810 (Operation: Со смещением наружу, Новый слой, T1: Плазма, 1,5 мм прорез)
N8820 M05
N8830 G00 X1573.826 Y168.742
N8840 M03
N8850 G04 P0.5
N8860 G01 X1570.839 Y173.945
N8870 X1559.920 Y167.677
N8880 G02 X1549.1741 Y167.7010 I-5.3519 J9.3231
N8890 G01 X1301.603 Y311.300
N8900 G02 X1301.7072 Y329.9189 I5.4272 J9.2794
N8910 G01 X1549.162 Y470.985
N8920 G02 X1559.8839 Y470.9423 I5.3239 J-9.3391
N8930 G01 X1806.443 Y327.787
N8940 G02 X1806.3966 Y309.1676 I-5.3981 J-9.2964
N8950 G01 X1570.839 Y173.945
N8960 X1569.972 Y173.448
N8970 X1571.466 Y170.846
N8980 (Part: Алексей Ю Дубликат 2)
N8990 (Operation: Со смещением вовнутрь, 0, T1: Плазма, 1,5 мм прорез)
N9000 M05
N9010 G00 X1296.412 Y49.448
N9020 M03
N9030 G04 P0.5
N9040 G01 Y43.448
N9050 G03 I0.0000 J107.4655
N9060 X1297.4118 Y43.4527 I0.0000 J107.4655
N9070 G01 X1297.384 Y46.453
N9080 (Operation: Со смещением наружу, Новый слой, T1: Плазма, 1,5 мм прорез)
N9090 M05
N9100 G00 X1314.826 Y1.742
N9110 M03
N9120 G04 P0.5
N9130 G01 X1311.839 Y6.945
N9140 X1300.920 Y0.677
N9150 G02 X1290.1741 Y0.7010 I-5.3519 J9.3231
N9160 G01 X1042.603 Y144.300
N9170 G02 X1042.7072 Y162.9189 I5.4272 J9.2794
N9180 G01 X1290.162 Y303.985
N9190 G02 X1300.8839 Y303.9423 I5.3239 J-9.3391
N9200 G01 X1547.443 Y160.787
N9210 G02 X1547.3966 Y142.1676 I-5.3981 J-9.2964
N9220 G01 X1311.839 Y6.945
N9230 X1310.972 Y6.448
N9240 X1312.466 Y3.846
N9250 (Part: Алексей Ю Дубликат 6)
N9260 (Operation: Со смещением вовнутрь, 0, T1: Плазма, 1,5 мм прорез)
N9270 M05
N9280 G00 X1036.397 Y216.448
N9290 M03
N9300 G04 P0.5
N9310 G01 Y210.448
N9320 G03 I0.0000 J107.4655
N9330 X1037.3969 Y210.4527 I0.0000 J107.4655
N9340 G01 X1037.369 Y213.453
N9350 (Operation: Со смещением наружу, Новый слой, T1: Плазма, 1,5 мм прорез)
N9360 M05
N9370 G00 X1054.811 Y168.742
N9380 M03
N9390 G04 P0.5
N9400 G01 X1051.824 Y173.945
N9410 X1040.905 Y167.677
N9420 G02 X1030.1591 Y167.7010 I-5.3519 J9.3231
N9430 G01 X782.588 Y311.300
N9440 G02 X782.6923 Y329.9189 I5.4272 J9.2794
N9450 G01 X1030.147 Y470.985
N9460 G02 X1040.8690 Y470.9423 I5.3239 J-9.3391
N9470 G01 X1287.428 Y327.787
N9480 G02 X1287.3817 Y309.1676 I-5.3981 J-9.2964
N9490 G01 X1051.824 Y173.945
N9500 X1050.957 Y173.448
N9510 X1052.451 Y170.846
N9520 (Part: Алексей Ю Дубликат 1)
N9530 (Operation: Со смещением вовнутрь, 0, T1: Плазма, 1,5 мм прорез)
N9540 M05
N9550 G00 X777.397 Y49.448
N9560 M03
N9570 G04 P0.5
N9580 G01 Y43.448
N9590 G03 I0.0000 J107.4655
N9600 X778.3969 Y43.4527 I0.0000 J107.4655
N9610 G01 X778.369 Y46.453
N9620 (Operation: Со смещением наружу, Новый слой, T1: Плазма, 1,5 мм прорез)
N9630 M05
N9640 G00 X795.811 Y1.742
N9650 M03
N9660 G04 P0.5
N9670 G01 X792.824 Y6.945
N9680 X781.905 Y0.677
N9690 G02 X771.1591 Y0.7010 I-5.3519 J9.3231
N9700 G01 X523.588 Y144.300
N9710 G02 X523.6923 Y162.9189 I5.4272 J9.2794
N9720 G01 X771.147 Y303.985
N9730 G02 X781.8690 Y303.9423 I5.3239 J-9.3391
N9740 G01 X1028.428 Y160.787
N9750 G02 X1028.3817 Y142.1676 I-5.3981 J-9.2964
N9760 G01 X792.824 Y6.945
N9770 X791.957 Y6.448
N9780 X793.451 Y3.846
N9790 (Part: Алексей Ю Дубликат 3)
N9800 (Operation: Со смещением вовнутрь, 0, T1: Плазма, 1,5 мм прорез)
N9810 M05
N9820 G00 X1815.427 Y49.448
N9830 M03
N9840 G04 P0.5
N9850 G01 Y43.448
N9860 G03 I0.0000 J107.4655
N9870 X1816.4268 Y43.4527 I0.0000 J107.4655
N9880 G01 X1816.399 Y46.453
N9890 (Operation: Со смещением наружу, Новый слой, T1: Плазма, 1,5 мм прорез)
N9900 M05
N9910 G00 X1833.841 Y1.742
N9920 M03
N9930 G04 P0.5
N9940 G01 X1830.854 Y6.945
N9950 X1819.935 Y0.677
N9960 G02 X1809.1890 Y0.7010 I-5.3519 J9.3231
N9970 G01 X1561.618 Y144.300
N9980 G02 X1561.7222 Y162.9189 I5.4272 J9.2794
N9990 G01 X1809.177 Y303.985
N10000 G02 X1819.8988 Y303.9423 I5.3239 J-9.3391
N10010 G01 X2066.458 Y160.787
N10020 G02 X2066.4115 Y142.1676 I-5.3981 J-9.2964
N10030 G01 X1830.854 Y6.945
N10040 X1829.987 Y6.448
N10050 X1831.480 Y3.846
N10060 (Part: Алексей Ю Дубликат 8)
N10070 (Operation: Со смещением вовнутрь, 0, T1: Плазма, 1,5 мм прорез)
N10080 M05
N10090 G00 X2074.427 Y216.448
N10100 M03
N10110 G04 P0.5
N10120 G01 Y210.448
N10130 G03 I0.0000 J107.4655
N10140 X2075.4268 Y210.4527 I0.0000 J107.4655
N10150 G01 X2075.399 Y213.453
N10160 (Operation: Со смещением наружу, Новый слой, T1: Плазма, 1,5 мм прорез)
N10170 M05
N10180 G00 X2092.841 Y168.742
N10190 M03
N10200 G04 P0.5
N10210 G01 X2089.854 Y173.945
N10220 X2078.935 Y167.677
N10230 G02 X2068.1890 Y167.7010 I-5.3519 J9.3231
N10240 G01 X1820.618 Y311.300
N10250 G02 X1820.7222 Y329.9189 I5.4272 J9.2794
N10260 G01 X2068.177 Y470.985
N10270 G02 X2078.8988 Y470.9423 I5.3239 J-9.3391
N10280 G01 X2325.458 Y327.787
N10290 G02 X2325.4115 Y309.1676 I-5.3981 J-9.2964
N10300 G01 X2089.854 Y173.945
N10310 X2088.987 Y173.448
N10320 X2090.480 Y170.846
N10330 (Part: Алексей Ю Дубликат 4)
N10340 (Operation: Со смещением вовнутрь, 0, T1: Плазма, 1,5 мм прорез)
N10350 M05
N10360 G00 X2334.442 Y49.448
N10370 M03
N10380 G04 P0.5
N10390 G01 Y43.448
N10400 G03 I0.0000 J107.4655
N10410 X2335.4417 Y43.4527 I0.0000 J107.4655
N10420 G01 X2335.414 Y46.453
N10430 (Operation: Со смещением наружу, Новый слой, T1: Плазма, 1,5 мм прорез)
N10440 M05
N10450 G00 X2352.856 Y1.742
N10460 M03
N10470 G04 P0.5
N10480 G01 X2349.869 Y6.945
N10490 X2338.949 Y0.677
N10500 G02 X2328.2039 Y0.7010 I-5.3519 J9.3231
N10510 G01 X2080.632 Y144.300
N10520 G02 X2080.7371 Y162.9189 I5.4272 J9.2794
N10530 G01 X2328.192 Y303.985
N10540 G02 X2338.9137 Y303.9423 I5.3239 J-9.3391
N10550 G01 X2585.473 Y160.787
N10560 G02 X2585.4264 Y142.1676 I-5.3981 J-9.2964
N10570 G01 X2349.869 Y6.945
N10580 X2349.002 Y6.448
N10590 X2350.495 Y3.846
N10600 (Part: Алексей Ю Дубликат 9)
N10610 (Operation: Со смещением вовнутрь, 0, T1: Плазма, 1,5 мм прорез)
N10620 M05
N10630 G00 X2593.442 Y216.448
N10640 M03
N10650 G04 P0.5
N10660 G01 Y210.448
N10670 G03 I0.0000 J107.4655
N10680 X2594.4417 Y210.4527 I0.0000 J107.4655
N10690 G01 X2594.414 Y213.453
N10700 (Operation: Со смещением наружу, Новый слой, T1: Плазма, 1,5 мм прорез)
N10710 M05
N10720 G00 X2611.856 Y168.742
N10730 M03
N10740 G04 P0.5
N10750 G01 X2608.869 Y173.945
N10760 X2597.949 Y167.677
N10770 G02 X2587.2039 Y167.7010 I-5.3519 J9.3231
N10780 G01 X2339.632 Y311.300
N10790 G02 X2339.7371 Y329.9189 I5.4272 J9.2794
N10800 G01 X2587.192 Y470.985
N10810 G02 X2597.9137 Y470.9423 I5.3239 J-9.3391
N10820 G01 X2844.473 Y327.787
N10830 G02 X2844.4264 Y309.1676 I-5.3981 J-9.2964
N10840 G01 X2608.869 Y173.945
N10850 X2608.002 Y173.448
N10860 X2609.495 Y170.846
N10870 M05
