N0010 (Filename: выставка бот2.tap)
N0020 (Post processor: PLAZMAKROY_XYZ_v1.scpost)
N0030 (Date: 13.11.2024)
N0040 G21 (Units: Metric)
N0050 G40 G54 G90 G49 G80 G91.1
N0060 F1
N0070 S500
N0080 (Part: выставка бот2)
N0090 (Operation: Ѕез смещени€, 0, T0: ѕлазма, 0,8 мм прорез)
N0100 (€фч€ыф)
N0110 G00 Z90.0 X0.000 Y55.000
N0120 G00 Z0.0 X0.000 Y00.000
N0130 g01 z90 y0.000 f500.0
N0140 (Part: выставка бот2 ƒубликат 1)
N0150 (Operation: Ѕез смещени€, 0, T0: ѕлазма, 0,8 мм прорез)
N0160 (€фч€ыф)
N0170 G01 z90
N0180 G00 Y55.000
N0190 G00 Z0.0 X0.000 Y00.000
N0200 G00 Z90.0 X0.000 Y55.000
N0210 (Part: выставка бот2 ƒубликат 2)
N0220 (Operation: Ѕез смещени€, 0, T0: ѕлазма, 0,8 мм прорез)
N0230 (€фч€ыф)
N0240 G01 z90
N0250 G00 Y55.000
N0260 G00 Z0.0 X0.000 Y00.000
N0270 G00 Z90.0 X0.000 Y55.000
N0280 (Part: выставка бот2 ƒубликат 3)
N0290 (Operation: Ѕез смещени€, 0, T0: ѕлазма, 0,8 мм прорез)
N0300 (€фч€ыф)
N0310 G01 z90
N0320 G00 Y55.000
N0330 G00 Z0.0 X0.000 Y00.000
N0340 G00 Z90.0 X0.000 Y55.000
N0350 (Part: выставка бот2 ƒубликат 4)
N0360 (Operation: Ѕез смещени€, 0, T0: ѕлазма, 0,8 мм прорез)
N0370 (€фч€ыф)
N0380 G01 z90
N0390 G00 Y55.000
N0400 G00 Z0.0 X0.000 Y00.000
N0410 G00 Z90.0 X0.000 Y55.000
N0420 (Part: выставка бот2 ƒубликат 5)
N0430 (Operation: Ѕез смещени€, 0, T0: ѕлазма, 0,8 мм прорез)
N0440 (€фч€ыф)
N0450 G01 z90
N0460 G00 Y55.000
N0470 G00 Z0.0 X0.000 Y00.000
N0480 G00 Z90.0 X0.000 Y55.000
N0490 (Part: выставка бот2 ƒубликат 6)
N0500 (Operation: Ѕез смещени€, 0, T0: ѕлазма, 0,8 мм прорез)
N0510 (€фч€ыф)
N0520 G01 z90
N0530 G00 Y55.000
N0540 G00 Z0.0 X0.000 Y00.000
N0550 G00 Z90.0 X0.000 Y55.000
N0560 (Part: выставка бот2 ƒубликат 7)
N0570 (Operation: Ѕез смещени€, 0, T0: ѕлазма, 0,8 мм прорез)
N0580 (€фч€ыф)
N0590 G01 z90
N0600 G00 Y55.000
N0610 G00 Z0.0 X0.000 Y00.000
N0620 G00 Z90.0 X0.000 Y55.000
N0630 (Part: выставка бот2 ƒубликат 8)
N0640 (Operation: Ѕез смещени€, 0, T0: ѕлазма, 0,8 мм прорез)
N0650 (€фч€ыф)
N0660 G01 z90
N0670 G00 Y55.000
N0680 G00 Z0.0 X0.000 Y00.000
N0690 G00 Z90.0 X0.000 Y55.000
N0700 (Part: выставка бот2 ƒубликат 9)
N0710 (Operation: Ѕез смещени€, 0, T0: ѕлазма, 0,8 мм прорез)
N0720 (€фч€ыф)
N0730 G01 z90
N0740 G00 Y55.000
N0750 G00 Z0.0 X0.000 Y00.000
N0760 G00 Z90.0 X0.000 Y55.000
N0770 (Part: выставка бот2 ƒубликат 10)
N0780 (Operation: Ѕез смещени€, 0, T0: ѕлазма, 0,8 мм прорез)
N0790 (€фч€ыф)
N0800 G01 z90
N0810 G00 Y55.000
N0820 G00 Z0.0 X0.000 Y00.000
N0830 G00 Z90.0 X0.000 Y55.000
N0840 (Part: выставка бот2 ƒубликат 11)
N0850 (Operation: Ѕез смещени€, 0, T0: ѕлазма, 0,8 мм прорез)
N0860 (€фч€ыф)
N0870 G01 z90
N0880 G00 Y55.000
N0890 G00 Z0.0 X0.000 Y00.000
N0900 G00 Z90.0 X0.000 Y55.000
N0910 (Part: выставка бот2 ƒубликат 12)
N0920 (Operation: Ѕез смещени€, 0, T0: ѕлазма, 0,8 мм прорез)
N0930 (€фч€ыф)
N0940 G01 z90
N0950 G00 Y55.000
N0960 G00 Z0.0 X0.000 Y00.000
N0970 G00 Z90.0 X0.000 Y55.000
N0980 (Part: выставка бот2 ƒубликат 13)
N0990 (Operation: Ѕез смещени€, 0, T0: ѕлазма, 0,8 мм прорез)
N1000 (€фч€ыф)
N1010 G01 z90
N1020 G00 Y55.000
N1030 G00 Z0.0 X0.000 Y00.000
N1040 G00 Z90.0 X0.000 Y55.000
N1050 (Part: выставка бот2 ƒубликат 14)
N1060 (Operation: Ѕез смещени€, 0, T0: ѕлазма, 0,8 мм прорез)
N1070 (€фч€ыф)
N1080 G01 z90
N1090 G00 Y55.000
N1100 G00 Z0.0 X0.000 Y00.000
N1110 G00 Z90.0 X0.000 Y55.000
N1120 (Part: выставка бот2 ƒубликат 15)
N1130 (Operation: Ѕез смещени€, 0, T0: ѕлазма, 0,8 мм прорез)
N1140 (€фч€ыф)
N1150 G01 z90
N1160 G00 Y55.000
N1170 G00 Z0.0 X0.000 Y00.000
N1180 G00 Z90.0 X0.000 Y55.000
N1190 (Part: выставка бот2 ƒубликат 16)
N1200 (Operation: Ѕез смещени€, 0, T0: ѕлазма, 0,8 мм прорез)
N1210 (€фч€ыф)
N1220 G01 z90
N1230 G00 Y55.000
N1240 G00 Z0.0 X0.000 Y00.000
N1250 G00 Z90.0 X0.000 Y55.000
N1260 (Part: выставка бот2 ƒубликат 17)
N1270 (Operation: Ѕез смещени€, 0, T0: ѕлазма, 0,8 мм прорез)
N1280 (€фч€ыф)
N1290 G01 z90
N1300 G00 Y55.000
N1310 G00 Z0.0 X0.000 Y00.000
N1320 G00 Z90.0 X0.000 Y55.000
N1330 (Part: выставка бот2 ƒубликат 18)
N1340 (Operation: Ѕез смещени€, 0, T0: ѕлазма, 0,8 мм прорез)
N1350 (€фч€ыф)
N1360 G01 z90
N1370 G00 Y55.000
N1380 G00 Z0.0 X0.000 Y00.000
N1390 G00 Z90.0 X0.000 Y55.000
N1400 (Part: выставка бот2 ƒубликат 19)
N1410 (Operation: Ѕез смещени€, 0, T0: ѕлазма, 0,8 мм прорез)
N1420 (€фч€ыф)
N1430 G01 z90
N1440 G00 Y55.000
N1450 G00 Z0.0 X0.000 Y00.000
N1460 G00 Z90.0 X0.000 Y55.000
N1470 (Part: выставка бот2 ƒубликат 20)
N1480 (Operation: Ѕез смещени€, 0, T0: ѕлазма, 0,8 мм прорез)
N1490 (€фч€ыф)
N1500 G01 z90
N1510 G00 Y55.000
N1520 G00 Z0.0 X0.000 Y00.000
N1530 G00 Z90.0 X0.000 Y55.000
N1540 (Part: выставка бот2 ƒубликат 21)
N1550 (Operation: Ѕез смещени€, 0, T0: ѕлазма, 0,8 мм прорез)
N1560 (€фч€ыф)
N1570 G01 z90
N1580 G00 Y55.000
N1590 G00 Z0.0 X0.000 Y00.000
N1600 G00 Z90.0 X0.000 Y55.000
N1610 (Part: выставка бот2 ƒубликат 22)
N1620 (Operation: Ѕез смещени€, 0, T0: ѕлазма, 0,8 мм прорез)
N1630 (€фч€ыф)
N1640 G01 z90
N1650 G00 Y55.000
N1660 G00 Z0.0 X0.000 Y00.000
N1670 G00 Z90.0 X0.000 Y55.000
N1680 (Part: выставка бот2 ƒубликат 23)
N1690 (Operation: Ѕез смещени€, 0, T0: ѕлазма, 0,8 мм прорез)
N1700 (€фч€ыф)
N1710 G01 z90
N1720 G00 Y55.000
N1730 G00 Z0.0 X0.000 Y00.000
N1740 G00 Z90.0 X0.000 Y55.000
N1750 (Part: выставка бот2 ƒубликат 24)
N1760 (Operation: Ѕез смещени€, 0, T0: ѕлазма, 0,8 мм прорез)
N1770 (€фч€ыф)
N1780 G01 z90
N1790 G00 Y55.000
N1800 G00 Z0.0 X0.000 Y00.000
N1810 G00 Z90.0 X0.000 Y55.000
N1820 (Part: выставка бот2 ƒубликат 25)
N1830 (Operation: Ѕез смещени€, 0, T0: ѕлазма, 0,8 мм прорез)
N1840 (€фч€ыф)
N1850 G01 z90
N1860 G00 Y55.000
N1870 G00 Z0.0 X0.000 Y00.000
N1880 G00 Z90.0 X0.000 Y55.000
N1890 (Part: выставка бот2 ƒубликат 26)
N1900 (Operation: Ѕез смещени€, 0, T0: ѕлазма, 0,8 мм прорез)
N1910 (€фч€ыф)
N1920 G01 z90
N1930 G00 Y55.000
N1940 G00 Z0.0 X0.000 Y00.000
N1950 G00 Z90.0 X0.000 Y55.000
N1960 (Part: выставка бот2 ƒубликат 27)
N1970 (Operation: Ѕез смещени€, 0, T0: ѕлазма, 0,8 мм прорез)
N1980 (€фч€ыф)
N1990 G01 z90
N2000 G00 Y55.000
N2010 G00 Z0.0 X0.000 Y00.000
N2020 G00 Z90.0 X0.000 Y55.000
N2030 (Part: выставка бот2 ƒубликат 28)
N2040 (Operation: Ѕез смещени€, 0, T0: ѕлазма, 0,8 мм прорез)
N2050 (€фч€ыф)
N2060 G01 z90
N2070 G00 Y55.000
N2080 G00 Z0.0 X0.000 Y00.000
N2090 G00 Z90.0 X0.000 Y55.000
N2100 (Part: выставка бот2 ƒубликат 29)
N2110 (Operation: Ѕез смещени€, 0, T0: ѕлазма, 0,8 мм прорез)
N2120 (€фч€ыф)
N2130 G01 z90
N2140 G00 Y55.000
N2150 G00 Z0.0 X0.000 Y00.000
N2160 G00 Z90.0 X0.000 Y55.000
N2170 (Part: выставка бот2 ƒубликат 30)
N2180 (Operation: Ѕез смещени€, 0, T0: ѕлазма, 0,8 мм прорез)
N2190 (€фч€ыф)
N2200 G01 z90
N2210 G00 Y55.000
N2220 G00 Z0.0 X0.000 Y00.000
N2230 G00 Z90.0 X0.000 Y55.000
N2240 (Part: выставка бот2 ƒубликат 31)
N2250 (Operation: Ѕез смещени€, 0, T0: ѕлазма, 0,8 мм прорез)
N2260 (€фч€ыф)
N2270 G01 z90
N2280 G00 Y55.000
N2290 G00 Z0.0 X0.000 Y00.000
N2300 G00 Z90.0 X0.000 Y55.000
N2310 (Part: выставка бот2 ƒубликат 32)
N2320 (Operation: Ѕез смещени€, 0, T0: ѕлазма, 0,8 мм прорез)
N2330 (€фч€ыф)
N2340 G01 z90
N2350 G00 Y55.000
N2360 G00 Z0.0 X0.000 Y00.000
N2370 G00 Z90.0 X0.000 Y55.000
N2380 (Part: выставка бот2 ƒубликат 33)
N2390 (Operation: Ѕез смещени€, 0, T0: ѕлазма, 0,8 мм прорез)
N2400 (€фч€ыф)
N2410 G01 z90
N2420 G00 Y55.000
N2430 G00 Z0.0 X0.000 Y00.000
N2440 G00 Z90.0 X0.000 Y55.000
N2450 (Part: выставка бот2 ƒубликат 34)
N2460 (Operation: Ѕез смещени€, 0, T0: ѕлазма, 0,8 мм прорез)
N2470 (€фч€ыф)
N2480 G01 z90
N2490 G00 Y55.000
N2500 G00 Z0.0 X0.000 Y00.000
N2510 G00 Z90.0 X0.000 Y55.000
N2520 (Part: выставка бот2 ƒубликат 35)
N2530 (Operation: Ѕез смещени€, 0, T0: ѕлазма, 0,8 мм прорез)
N2540 (€фч€ыф)
N2550 G01 z90
N2560 G00 Y55.000
N2570 G00 Z0.0 X0.000 Y00.000
N2580 G00 Z90.0 X0.000 Y55.000
N2590 (Part: выставка бот2 ƒубликат 36)
N2600 (Operation: Ѕез смещени€, 0, T0: ѕлазма, 0,8 мм прорез)
N2610 (€фч€ыф)
N2620 G01 z90
N2630 G00 Y55.000
N2640 G00 Z0.0 X0.000 Y00.000
N2650 G00 Z90.0 X0.000 Y55.000
N2660 (Part: выставка бот2 ƒубликат 37)
N2670 (Operation: Ѕез смещени€, 0, T0: ѕлазма, 0,8 мм прорез)
N2680 (€фч€ыф)
N2690 G01 z90
N2700 G00 Y55.000
N2710 G00 Z0.0 X0.000 Y00.000
N2720 G00 Z90.0 X0.000 Y55.000
N2730 (Part: выставка бот2 ƒубликат 38)
N2740 (Operation: Ѕез смещени€, 0, T0: ѕлазма, 0,8 мм прорез)
N2750 (€фч€ыф)
N2760 G01 z90
N2770 G00 Y55.000
N2780 G00 Z0.0 X0.000 Y00.000
N2790 G00 Z90.0 X0.000 Y55.000
N2800 (Part: выставка бот2 ƒубликат 39)
N2810 (Operation: Ѕез смещени€, 0, T0: ѕлазма, 0,8 мм прорез)
N2820 (€фч€ыф)
N2830 G01 z90
N2840 G00 Y55.000
N2850 G00 Z0.0 X0.000 Y00.000
N2860 G00 Z90.0 X0.000 Y55.000
N2870 (Part: выставка бот2 ƒубликат 40)
N2880 (Operation: Ѕез смещени€, 0, T0: ѕлазма, 0,8 мм прорез)
N2890 (€фч€ыф)
N2900 G01 z90
N2910 G00 Y55.000
N2920 G00 Z0.0 X0.000 Y00.000
N2930 G00 Z90.0 X0.000 Y55.000
N2940 (Part: выставка бот2 ƒубликат 41)
N2950 (Operation: Ѕез смещени€, 0, T0: ѕлазма, 0,8 мм прорез)
N2960 (€фч€ыф)
N2970 G01 z90
N2980 G00 Y55.000
N2990 G00 Z0.0 X0.000 Y00.000
N3000 G00 Z90.0 X0.000 Y55.000
N3010 (Part: выставка бот2 ƒубликат 42)
N3020 (Operation: Ѕез смещени€, 0, T0: ѕлазма, 0,8 мм прорез)
N3030 (€фч€ыф)
N3040 G01 z90
N3050 G00 Y55.000
N3060 G00 Z0.0 X0.000 Y00.000
N3070 G00 Z90.0 X0.000 Y55.000
N3080 (Part: выставка бот2 ƒубликат 43)
N3090 (Operation: Ѕез смещени€, 0, T0: ѕлазма, 0,8 мм прорез)
N3100 (€фч€ыф)
N3110 G01 z90
N3120 G00 Y55.000
N3130 G00 Z0.0 X0.000 Y00.000
N3140 G00 Z90.0 X0.000 Y55.000
N3150 (Part: выставка бот2 ƒубликат 44)
N3160 (Operation: Ѕез смещени€, 0, T0: ѕлазма, 0,8 мм прорез)
N3170 (€фч€ыф)
N3180 G01 z90
N3190 G00 Y55.000
N3200 G00 Z0.0 X0.000 Y00.000
N3210 G00 Z90.0 X0.000 Y55.000
N3220 (Part: выставка бот2 ƒубликат 45)
N3230 (Operation: Ѕез смещени€, 0, T0: ѕлазма, 0,8 мм прорез)
N3240 (€фч€ыф)
N3250 G01 z90
N3260 G00 Y55.000
N3270 G00 Z0.0 X0.000 Y00.000
N3280 G00 Z90.0 X0.000 Y55.000
N3290 (Part: выставка бот2 ƒубликат 46)
N3300 (Operation: Ѕез смещени€, 0, T0: ѕлазма, 0,8 мм прорез)
N3310 (€фч€ыф)
N3320 G01 z90
N3330 G00 Y55.000
N3340 G00 Z0.0 X0.000 Y00.000
N3350 G00 Z90.0 X0.000 Y55.000
N3360 (Part: выставка бот2 ƒубликат 47)
N3370 (Operation: Ѕез смещени€, 0, T0: ѕлазма, 0,8 мм прорез)
N3380 (€фч€ыф)
N3390 G01 z90
N3400 G00 Y55.000
N3410 G00 Z0.0 X0.000 Y00.000
N3420 G00 Z90.0 X0.000 Y55.000
N3430 (Part: выставка бот2 ƒубликат 48)
N3440 (Operation: Ѕез смещени€, 0, T0: ѕлазма, 0,8 мм прорез)
N3450 (€фч€ыф)
N3460 G01 z90
N3470 G00 Y55.000
N3480 G00 Z0.0 X0.000 Y00.000
N3490 G00 Z90.0 X0.000 Y55.000
N3500 (Part: выставка бот2 ƒубликат 49)
N3510 (Operation: Ѕез смещени€, 0, T0: ѕлазма, 0,8 мм прорез)
N3520 (€фч€ыф)
N3530 G01 z90
N3540 G00 Y55.000
N3550 G00 Z0.0 X0.000 Y00.000
N3560 G00 Z90.0 X0.000 Y55.000
N3570 (Part: выставка бот2 ƒубликат 50)
N3580 (Operation: Ѕез смещени€, 0, T0: ѕлазма, 0,8 мм прорез)
N3590 (€фч€ыф)
N3600 G01 z90
N3610 G00 Y55.000
N3620 G00 Z0.0 X0.000 Y00.000
N3630 G00 Z90.0 X0.000 Y55.000
N3640 (Part: выставка бот2 ƒубликат 51)
N3650 (Operation: Ѕез смещени€, 0, T0: ѕлазма, 0,8 мм прорез)
N3660 (€фч€ыф)
N3670 G01 z90
N3680 G00 Y55.000
N3690 G00 Z0.0 X0.000 Y00.000
N3700 G00 Z90.0 X0.000 Y55.000
N3710 (Part: выставка бот2 ƒубликат 52)
N3720 (Operation: Ѕез смещени€, 0, T0: ѕлазма, 0,8 мм прорез)
N3730 (€фч€ыф)
N3740 G01 z90
N3750 G00 Y55.000
N3760 G00 Z0.0 X0.000 Y00.000
N3770 G00 Z90.0 X0.000 Y55.000
N3780 (Part: выставка бот2 ƒубликат 53)
N3790 (Operation: Ѕез смещени€, 0, T0: ѕлазма, 0,8 мм прорез)
N3800 (€фч€ыф)
N3810 G01 z90
N3820 G00 Y55.000
N3830 G00 Z0.0 X0.000 Y00.000
N3840 G00 Z90.0 X0.000 Y55.000
N3850 (Part: выставка бот2 ƒубликат 54)
N3860 (Operation: Ѕез смещени€, 0, T0: ѕлазма, 0,8 мм прорез)
N3870 (€фч€ыф)
N3880 G01 z90
N3890 G00 Y55.000
N3900 G00 Z0.0 X0.000 Y00.000
N3910 G00 Z90.0 X0.000 Y55.000
N3920 (Part: выставка бот2 ƒубликат 55)
N3930 (Operation: Ѕез смещени€, 0, T0: ѕлазма, 0,8 мм прорез)
N3940 (€фч€ыф)
N3950 G01 z90
N3960 G00 Y55.000
N3970 G00 Z0.0 X0.000 Y00.000
N3980 G00 Z90.0 X0.000 Y55.000
N3990 (Part: выставка бот2 ƒубликат 56)
N4000 (Operation: Ѕез смещени€, 0, T0: ѕлазма, 0,8 мм прорез)
N4010 (€фч€ыф)
N4020 G01 z90
N4030 G00 Y55.000
N4040 G00 Z0.0 X0.000 Y00.000
N4050 G00 Z90.0 X0.000 Y55.000
N4060 (Part: выставка бот2 ƒубликат 57)
N4070 (Operation: Ѕез смещени€, 0, T0: ѕлазма, 0,8 мм прорез)
N4080 (€фч€ыф)
N4090 G01 z90
N4100 G00 Y55.000
N4110 G00 Z0.0 X0.000 Y00.000
N4120 G00 Z90.0 X0.000 Y55.000
N4130 (Part: выставка бот2 ƒубликат 58)
N4140 (Operation: Ѕез смещени€, 0, T0: ѕлазма, 0,8 мм прорез)
N4150 (€фч€ыф)
N4160 G01 z90
N4170 G00 Y55.000
N4180 G00 Z0.0 X0.000 Y00.000
N4190 G00 Z90.0 X0.000 Y55.000
N4200 (Part: выставка бот2 ƒубликат 59)
N4210 (Operation: Ѕез смещени€, 0, T0: ѕлазма, 0,8 мм прорез)
N4220 (€фч€ыф)
N4230 G01 z90
N4240 G00 Y55.000
N4250 G00 Z0.0 X0.000 Y00.000
N4260 G00 Z90.0 X0.000 Y55.000
N4270 (Part: выставка бот2 ƒубликат 60)
N4280 (Operation: Ѕез смещени€, 0, T0: ѕлазма, 0,8 мм прорез)
N4290 (€фч€ыф)
N4300 G01 z90
N4310 G00 Y55.000
N4320 G00 Z0.0 X0.000 Y00.000
N4330 G00 Z90.0 X0.000 Y55.000
N4340 (Part: выставка бот2 ƒубликат 61)
N4350 (Operation: Ѕез смещени€, 0, T0: ѕлазма, 0,8 мм прорез)
N4360 (€фч€ыф)
N4370 G01 z90
N4380 G00 Y55.000
N4390 G00 Z0.0 X0.000 Y00.000
N4400 G00 Z90.0 X0.000 Y55.000
N4410 (Part: выставка бот2 ƒубликат 62)
N4420 (Operation: Ѕез смещени€, 0, T0: ѕлазма, 0,8 мм прорез)
N4430 (€фч€ыф)
N4440 G01 z90
N4450 G00 Y55.000
N4460 G00 Z0.0 X0.000 Y00.000
N4470 G00 Z90.0 X0.000 Y55.000
N4480 (Part: выставка бот2 ƒубликат 63)
N4490 (Operation: Ѕез смещени€, 0, T0: ѕлазма, 0,8 мм прорез)
N4500 (€фч€ыф)
N4510 G01 z90
N4520 G00 Y55.000
N4530 G00 Z0.0 X0.000 Y00.000
N4540 G00 Z90.0 X0.000 Y55.000
N4550 (Part: выставка бот2 ƒубликат 64)
N4560 (Operation: Ѕез смещени€, 0, T0: ѕлазма, 0,8 мм прорез)
N4570 (€фч€ыф)
N4580 G01 z90
N4590 G00 Y55.000
N4600 G00 Z0.0 X0.000 Y00.000
N4610 G00 Z90.0 X0.000 Y55.000
N4620 (Part: выставка бот2 ƒубликат 65)
N4630 (Operation: Ѕез смещени€, 0, T0: ѕлазма, 0,8 мм прорез)
N4640 (€фч€ыф)
N4650 G01 z90
N4660 G00 Y55.000
N4670 G00 Z0.0 X0.000 Y00.000
N4680 G00 Z90.0 X0.000 Y55.000
N4690 (Part: выставка бот2 ƒубликат 66)
N4700 (Operation: Ѕез смещени€, 0, T0: ѕлазма, 0,8 мм прорез)
N4710 (€фч€ыф)
N4720 G01 z90
N4730 G00 Y55.000
N4740 G00 Z0.0 X0.000 Y00.000
N4750 G00 Z90.0 X0.000 Y55.000
N4760 (Part: выставка бот2 ƒубликат 67)
N4770 (Operation: Ѕез смещени€, 0, T0: ѕлазма, 0,8 мм прорез)
N4780 (€фч€ыф)
N4790 G01 z90
N4800 G00 Y55.000
N4810 G00 Z0.0 X0.000 Y00.000
N4820 G00 Z90.0 X0.000 Y55.000
N4830 (Part: выставка бот2 ƒубликат 68)
N4840 (Operation: Ѕез смещени€, 0, T0: ѕлазма, 0,8 мм прорез)
N4850 (€фч€ыф)
N4860 G01 z90
N4870 G00 Y55.000
N4880 G00 Z0.0 X0.000 Y00.000
N4890 G00 Z90.0 X0.000 Y55.000
N4900 (Part: выставка бот2 ƒубликат 69)
N4910 (Operation: Ѕез смещени€, 0, T0: ѕлазма, 0,8 мм прорез)
N4920 (€фч€ыф)
N4930 G01 z90
N4940 G00 Y55.000
N4950 G00 Z0.0 X0.000 Y00.000
N4960 G00 Z90.0 X0.000 Y55.000
N4970 (Part: выставка бот2 ƒубликат 70)
N4980 (Operation: Ѕез смещени€, 0, T0: ѕлазма, 0,8 мм прорез)
N4990 (€фч€ыф)
N5000 G01 z90
N5010 G00 Y55.000
N5020 G00 Z0.0 X0.000 Y00.000
N5030 G00 Z90.0 X0.000 Y55.000
N5040 (Part: выставка бот2 ƒубликат 71)
N5050 (Operation: Ѕез смещени€, 0, T0: ѕлазма, 0,8 мм прорез)
N5060 (€фч€ыф)
N5070 G01 z90
N5080 G00 Y55.000
N5090 G00 Z0.0 X0.000 Y00.000
N5100 G00 Z90.0 X0.000 Y55.000
N5110 (Part: выставка бот2 ƒубликат 72)
N5120 (Operation: Ѕез смещени€, 0, T0: ѕлазма, 0,8 мм прорез)
N5130 (€фч€ыф)
N5140 G01 z90
N5150 G00 Y55.000
N5160 G00 Z0.0 X0.000 Y00.000
N5170 G00 Z90.0 X0.000 Y55.000
N5180 (Part: выставка бот2 ƒубликат 73)
N5190 (Operation: Ѕез смещени€, 0, T0: ѕлазма, 0,8 мм прорез)
N5200 (€фч€ыф)
N5210 G01 z90
N5220 G00 Y55.000
N5230 G00 Z0.0 X0.000 Y00.000
N5240 G00 Z90.0 X0.000 Y55.000
N5250 (Part: выставка бот2 ƒубликат 74)
N5260 (Operation: Ѕез смещени€, 0, T0: ѕлазма, 0,8 мм прорез)
N5270 (€фч€ыф)
N5280 G01 z90
N5290 G00 Y55.000
N5300 G00 Z0.0 X0.000 Y00.000
N5310 G00 Z90.0 X0.000 Y55.000
N5320 (Part: выставка бот2 ƒубликат 75)
N5330 (Operation: Ѕез смещени€, 0, T0: ѕлазма, 0,8 мм прорез)
N5340 (€фч€ыф)
N5350 G01 z90
N5360 G00 Y55.000
N5370 G00 Z0.0 X0.000 Y00.000
N5380 G00 Z90.0 X0.000 Y55.000
N5390 (Part: выставка бот2 ƒубликат 76)
N5400 (Operation: Ѕез смещени€, 0, T0: ѕлазма, 0,8 мм прорез)
N5410 (€фч€ыф)
N5420 G01 z90
N5430 G00 Y55.000
N5440 G00 Z0.0 X0.000 Y00.000
N5450 G00 Z90.0 X0.000 Y55.000
N5460 (Part: выставка бот2 ƒубликат 77)
N5470 (Operation: Ѕез смещени€, 0, T0: ѕлазма, 0,8 мм прорез)
N5480 (€фч€ыф)
N5490 G01 z90
N5500 G00 Y55.000
N5510 G00 Z0.0 X0.000 Y00.000
N5520 G00 Z90.0 X0.000 Y55.000
N5530 (Part: выставка бот2 ƒубликат 78)
N5540 (Operation: Ѕез смещени€, 0, T0: ѕлазма, 0,8 мм прорез)
N5550 (€фч€ыф)
N5560 G01 z90
N5570 G00 Y55.000
N5580 G00 Z0.0 X0.000 Y00.000
N5590 G00 Z90.0 X0.000 Y55.000
N5600 (Part: выставка бот2 ƒубликат 79)
N5610 (Operation: Ѕез смещени€, 0, T0: ѕлазма, 0,8 мм прорез)
N5620 (€фч€ыф)
N5630 G01 z90
N5640 G00 Y55.000
N5650 G00 Z0.0 X0.000 Y00.000
N5660 G00 Z90.0 X0.000 Y55.000
N5670 (Part: выставка бот2 ƒубликат 80)
N5680 (Operation: Ѕез смещени€, 0, T0: ѕлазма, 0,8 мм прорез)
N5690 (€фч€ыф)
N5700 G01 z90
N5710 G00 Y55.000
N5720 G00 Z0.0 X0.000 Y00.000
N5730 G00 Z90.0 X0.000 Y55.000
N5740 (Part: выставка бот2 ƒубликат 81)
N5750 (Operation: Ѕез смещени€, 0, T0: ѕлазма, 0,8 мм прорез)
N5760 (€фч€ыф)
N5770 G01 z90
N5780 G00 Y55.000
N5790 G00 Z0.0 X0.000 Y00.000
N5800 G00 Z90.0 X0.000 Y55.000
N5810 (Part: выставка бот2 ƒубликат 82)
N5820 (Operation: Ѕез смещени€, 0, T0: ѕлазма, 0,8 мм прорез)
N5830 (€фч€ыф)
N5840 G01 z90
N5850 G00 Y55.000
N5860 G00 Z0.0 X0.000 Y00.000
N5870 G00 Z90.0 X0.000 Y55.000
N5880 (Part: выставка бот2 ƒубликат 83)
N5890 (Operation: Ѕез смещени€, 0, T0: ѕлазма, 0,8 мм прорез)
N5900 (€фч€ыф)
N5910 G01 z90
N5920 G00 Y55.000
N5930 G00 Z0.0 X0.000 Y00.000
N5940 G00 Z90.0 X0.000 Y55.000
N5950 (Part: выставка бот2 ƒубликат 84)
N5960 (Operation: Ѕез смещени€, 0, T0: ѕлазма, 0,8 мм прорез)
N5970 (€фч€ыф)
N5980 G01 z90
N5990 G00 Y55.000
N6000 G00 Z0.0 X0.000 Y00.000
N6010 G00 Z90.0 X0.000 Y55.000
N6020 (Part: выставка бот2 ƒубликат 85)
N6030 (Operation: Ѕез смещени€, 0, T0: ѕлазма, 0,8 мм прорез)
N6040 (€фч€ыф)
N6050 G01 z90
N6060 G00 Y55.000
N6070 G00 Z0.0 X0.000 Y00.000
N6080 G00 Z90.0 X0.000 Y55.000
N6090 (Part: выставка бот2 ƒубликат 86)
N6100 (Operation: Ѕез смещени€, 0, T0: ѕлазма, 0,8 мм прорез)
N6110 (€фч€ыф)
N6120 G01 z90
N6130 G00 Y55.000
N6140 G00 Z0.0 X0.000 Y00.000
N6150 G00 Z90.0 X0.000 Y55.000
N6160 (Part: выставка бот2 ƒубликат 87)
N6170 (Operation: Ѕез смещени€, 0, T0: ѕлазма, 0,8 мм прорез)
N6180 (€фч€ыф)
N6190 G01 z90
N6200 G00 Y55.000
N6210 G00 Z0.0 X0.000 Y00.000
N6220 G00 Z90.0 X0.000 Y55.000
N6230 (Part: выставка бот2 ƒубликат 88)
N6240 (Operation: Ѕез смещени€, 0, T0: ѕлазма, 0,8 мм прорез)
N6250 (€фч€ыф)
N6260 G01 z90
N6270 G00 Y55.000
N6280 G00 Z0.0 X0.000 Y00.000
N6290 G00 Z90.0 X0.000 Y55.000
N6300 (Part: выставка бот2 ƒубликат 89)
N6310 (Operation: Ѕез смещени€, 0, T0: ѕлазма, 0,8 мм прорез)
N6320 (€фч€ыф)
N6330 G01 z90
N6340 G00 Y55.000
N6350 G00 Z0.0 X0.000 Y00.000
N6360 G00 Z90.0 X0.000 Y55.000
N6370 (Part: выставка бот2 ƒубликат 90)
N6380 (Operation: Ѕез смещени€, 0, T0: ѕлазма, 0,8 мм прорез)
N6390 (€фч€ыф)
N6400 G01 z90
N6410 G00 Y55.000
N6420 G00 Z0.0 X0.000 Y00.000
N6430 G00 Z90.0 X0.000 Y55.000
N6440 (Part: выставка бот2 ƒубликат 91)
N6450 (Operation: Ѕез смещени€, 0, T0: ѕлазма, 0,8 мм прорез)
N6460 (€фч€ыф)
N6470 G01 z90
N6480 G00 Y55.000
N6490 G00 Z0.0 X0.000 Y00.000
N6500 G00 Z90.0 X0.000 Y55.000
N6510 (Part: выставка бот2 ƒубликат 92)
N6520 (Operation: Ѕез смещени€, 0, T0: ѕлазма, 0,8 мм прорез)
N6530 (€фч€ыф)
N6540 G01 z90
N6550 G00 Y55.000
N6560 G00 Z0.0 X0.000 Y00.000
N6570 G00 Z90.0 X0.000 Y55.000
N6580 (Part: выставка бот2 ƒубликат 93)
N6590 (Operation: Ѕез смещени€, 0, T0: ѕлазма, 0,8 мм прорез)
N6600 (€фч€ыф)
N6610 G01 z90
N6620 G00 Y55.000
N6630 G00 Z0.0 X0.000 Y00.000
N6640 G00 Z90.0 X0.000 Y55.000
N6650 (Part: выставка бот2 ƒубликат 94)
N6660 (Operation: Ѕез смещени€, 0, T0: ѕлазма, 0,8 мм прорез)
N6670 (€фч€ыф)
N6680 G01 z90
N6690 G00 Y55.000
N6700 G00 Z0.0 X0.000 Y00.000
N6710 G00 Z90.0 X0.000 Y55.000
N6720 (Part: выставка бот2 ƒубликат 95)
N6730 (Operation: Ѕез смещени€, 0, T0: ѕлазма, 0,8 мм прорез)
N6740 (€фч€ыф)
N6750 G01 z90
N6760 G00 Y55.000
N6770 G00 Z0.0 X0.000 Y00.000
N6780 G00 Z90.0 X0.000 Y55.000
N6790 (Part: выставка бот2 ƒубликат 96)
N6800 (Operation: Ѕез смещени€, 0, T0: ѕлазма, 0,8 мм прорез)
N6810 (€фч€ыф)
N6820 G01 z90
N6830 G00 Y55.000
N6840 G00 Z0.0 X0.000 Y00.000
N6850 G00 Z90.0 X0.000 Y55.000
N6860 (Part: выставка бот2 ƒубликат 97)
N6870 (Operation: Ѕез смещени€, 0, T0: ѕлазма, 0,8 мм прорез)
N6880 (€фч€ыф)
N6890 G01 z90
N6900 G00 Y55.000
N6910 G00 Z0.0 X0.000 Y00.000
N6920 G00 Z90.0 X0.000 Y55.000
N6930 (Part: выставка бот2 ƒубликат 98)
N6940 (Operation: Ѕез смещени€, 0, T0: ѕлазма, 0,8 мм прорез)
N6950 (€фч€ыф)
N6960 G01 z90
N6970 G00 Y55.000
N6980 G00 Z0.0 X0.000 Y00.000
N6990 G00 Z90.0 X0.000 Y55.000
N7000 (Part: выставка бот2 ƒубликат 99)
N7010 (Operation: Ѕез смещени€, 0, T0: ѕлазма, 0,8 мм прорез)
N7020 (€фч€ыф)
N7030 G01 z90
N7040 G00 Y55.000
N7050 G00 Z0.0 X0.000 Y00.000
N7060 G00 Z90.0 X0.000 Y55.000
N7070 (Part: выставка бот2 ƒубликат 100)
N7080 (Operation: Ѕез смещени€, 0, T0: ѕлазма, 0,8 мм прорез)
N7090 (€фч€ыф)
N7100 G01 z90
N7110 G00 Y55.000
N7120 G00 Z0.0 X0.000 Y00.000
N7130 G00 Z90.0 X0.000 Y55.000
N7140 (Part: выставка бот2 ƒубликат 101)
N7150 (Operation: Ѕез смещени€, 0, T0: ѕлазма, 0,8 мм прорез)
N7160 (€фч€ыф)
N7170 G01 z90
N7180 G00 Y55.000
N7190 G00 Z0.0 X0.000 Y00.000
N7200 G00 Z90.0 X0.000 Y55.000
N7210 (Part: выставка бот2 ƒубликат 102)
N7220 (Operation: Ѕез смещени€, 0, T0: ѕлазма, 0,8 мм прорез)
N7230 (€фч€ыф)
N7240 G01 z90
N7250 G00 Y55.000
N7260 G00 Z0.0 X0.000 Y00.000
N7270 G00 Z90.0 X0.000 Y55.000
N7280 (Part: выставка бот2 ƒубликат 103)
N7290 (Operation: Ѕез смещени€, 0, T0: ѕлазма, 0,8 мм прорез)
N7300 (€фч€ыф)
N7310 G01 z90
N7320 G00 Y55.000
N7330 G00 Z0.0 X0.000 Y00.000
N7340 G00 Z90.0 X0.000 Y55.000
N7350 (Part: выставка бот2 ƒубликат 104)
N7360 (Operation: Ѕез смещени€, 0, T0: ѕлазма, 0,8 мм прорез)
N7370 (€фч€ыф)
N7380 G01 z90
N7390 G00 Y55.000
N7400 G00 Z0.0 X0.000 Y00.000
N7410 G00 Z90.0 X0.000 Y55.000
N7420 (Part: выставка бот2 ƒубликат 105)
N7430 (Operation: Ѕез смещени€, 0, T0: ѕлазма, 0,8 мм прорез)
N7440 (€фч€ыф)
N7450 G01 z90
N7460 G00 Y55.000
N7470 G00 Z0.0 X0.000 Y00.000
N7480 G00 Z90.0 X0.000 Y55.000
N7490 (Part: выставка бот2 ƒубликат 106)
N7500 (Operation: Ѕез смещени€, 0, T0: ѕлазма, 0,8 мм прорез)
N7510 (€фч€ыф)
N7520 G01 z90
N7530 G00 Y55.000
N7540 G00 Z0.0 X0.000 Y00.000
N7550 G00 Z90.0 X0.000 Y55.000
N7560 (Part: выставка бот2 ƒубликат 107)
N7570 (Operation: Ѕез смещени€, 0, T0: ѕлазма, 0,8 мм прорез)
N7580 (€фч€ыф)
N7590 G01 z90
N7600 G00 Y55.000
N7610 G00 Z0.0 X0.000 Y00.000
N7620 G00 Z90.0 X0.000 Y55.000
N7630 (Part: выставка бот2 ƒубликат 108)
N7640 (Operation: Ѕез смещени€, 0, T0: ѕлазма, 0,8 мм прорез)
N7650 (€фч€ыф)
N7660 G01 z90
N7670 G00 Y55.000
N7680 G00 Z0.0 X0.000 Y00.000
N7690 G00 Z90.0 X0.000 Y55.000
N7700 (Part: выставка бот2 ƒубликат 109)
N7710 (Operation: Ѕез смещени€, 0, T0: ѕлазма, 0,8 мм прорез)
N7720 (€фч€ыф)
N7730 G01 z90
N7740 G00 Y55.000
N7750 G00 Z0.0 X0.000 Y00.000
N7760 G00 Z90.0 X0.000 Y55.000
N7770 (Part: выставка бот2 ƒубликат 110)
N7780 (Operation: Ѕез смещени€, 0, T0: ѕлазма, 0,8 мм прорез)
N7790 (€фч€ыф)
N7800 G01 z90
N7810 G00 Y55.000
N7820 G00 Z0.0 X0.000 Y00.000
N7830 G00 Z90.0 X0.000 Y55.000
N7840 (Part: выставка бот2 ƒубликат 111)
N7850 (Operation: Ѕез смещени€, 0, T0: ѕлазма, 0,8 мм прорез)
N7860 (€фч€ыф)
N7870 G01 z90
N7880 G00 Y55.000
N7890 G00 Z0.0 X0.000 Y00.000
N7900 G00 Z90.0 X0.000 Y55.000
N7910 (Part: выставка бот2 ƒубликат 112)
N7920 (Operation: Ѕез смещени€, 0, T0: ѕлазма, 0,8 мм прорез)
N7930 (€фч€ыф)
N7940 G01 z90
N7950 G00 Y55.000
N7960 G00 Z0.0 X0.000 Y00.000
N7970 G00 Z90.0 X0.000 Y55.000
N7980 (Part: выставка бот2 ƒубликат 113)
N7990 (Operation: Ѕез смещени€, 0, T0: ѕлазма, 0,8 мм прорез)
N8000 (€фч€ыф)
N8010 G01 z90
N8020 G00 Y55.000
N8030 G00 Z0.0 X0.000 Y00.000
N8040 G00 Z90.0 X0.000 Y55.000
N8050 (Part: выставка бот2 ƒубликат 114)
N8060 (Operation: Ѕез смещени€, 0, T0: ѕлазма, 0,8 мм прорез)
N8070 (€фч€ыф)
N8080 G01 z90
N8090 G00 Y55.000
N8100 G00 Z0.0 X0.000 Y00.000
N8110 G00 Z90.0 X0.000 Y55.000
N8120 (Part: выставка бот2 ƒубликат 115)
N8130 (Operation: Ѕез смещени€, 0, T0: ѕлазма, 0,8 мм прорез)
N8140 (€фч€ыф)
N8150 G01 z90
N8160 G00 Y55.000
N8170 G00 Z0.0 X0.000 Y00.000
N8180 G00 Z90.0 X0.000 Y55.000
N8190 (Part: выставка бот2 ƒубликат 116)
N8200 (Operation: Ѕез смещени€, 0, T0: ѕлазма, 0,8 мм прорез)
N8210 (€фч€ыф)
N8220 G01 z90
N8230 G00 Y55.000
N8240 G00 Z0.0 X0.000 Y00.000
N8250 G00 Z90.0 X0.000 Y55.000
N8260 (Part: выставка бот2 ƒубликат 117)
N8270 (Operation: Ѕез смещени€, 0, T0: ѕлазма, 0,8 мм прорез)
N8280 (€фч€ыф)
N8290 G01 z90
N8300 G00 Y55.000
N8310 G00 Z0.0 X0.000 Y00.000
N8320 G00 Z90.0 X0.000 Y55.000
N8330 (Part: выставка бот2 ƒубликат 118)
N8340 (Operation: Ѕез смещени€, 0, T0: ѕлазма, 0,8 мм прорез)
N8350 (€фч€ыф)
N8360 G01 z90
N8370 G00 Y55.000
N8380 G00 Z0.0 X0.000 Y00.000
N8390 G00 Z90.0 X0.000 Y55.000
N8400 (Part: выставка бот2 ƒубликат 119)
N8410 (Operation: Ѕез смещени€, 0, T0: ѕлазма, 0,8 мм прорез)
N8420 (€фч€ыф)
N8430 G01 z90
N8440 G00 Y55.000
N8450 G00 Z0.0 X0.000 Y00.000
N8460 G00 Z90.0 X0.000 Y55.000
N8470 (Part: выставка бот2 ƒубликат 120)
N8480 (Operation: Ѕез смещени€, 0, T0: ѕлазма, 0,8 мм прорез)
N8490 (€фч€ыф)
N8500 G01 z90
N8510 G00 Y55.000
N8520 G00 Z0.0 X0.000 Y00.000
N8530 G00 Z90.0 X0.000 Y55.000
N8540 (Part: выставка бот2 ƒубликат 121)
N8550 (Operation: Ѕез смещени€, 0, T0: ѕлазма, 0,8 мм прорез)
N8560 (€фч€ыф)
N8570 G01 z90
N8580 G00 Y55.000
N8590 G00 Z0.0 X0.000 Y00.000
N8600 G00 Z90.0 X0.000 Y55.000
N8610 (Part: выставка бот2 ƒубликат 122)
N8620 (Operation: Ѕез смещени€, 0, T0: ѕлазма, 0,8 мм прорез)
N8630 (€фч€ыф)
N8640 G01 z90
N8650 G00 Y55.000
N8660 G00 Z0.0 X0.000 Y00.000
N8670 G00 Z90.0 X0.000 Y55.000
N8680 (Part: выставка бот2 ƒубликат 123)
N8690 (Operation: Ѕез смещени€, 0, T0: ѕлазма, 0,8 мм прорез)
N8700 (€фч€ыф)
N8710 G01 z90
N8720 G00 Y55.000
N8730 G00 Z0.0 X0.000 Y00.000
N8740 G00 Z90.0 X0.000 Y55.000
N8750 (Part: выставка бот2 ƒубликат 124)
N8760 (Operation: Ѕез смещени€, 0, T0: ѕлазма, 0,8 мм прорез)
N8770 (€фч€ыф)
N8780 G01 z90
N8790 G00 Y55.000
N8800 G00 Z0.0 X0.000 Y00.000
N8810 G00 Z90.0 X0.000 Y55.000
N8820 (Part: выставка бот2 ƒубликат 125)
N8830 (Operation: Ѕез смещени€, 0, T0: ѕлазма, 0,8 мм прорез)
N8840 (€фч€ыф)
N8850 G01 z90
N8860 G00 Y55.000
N8870 G00 Z0.0 X0.000 Y00.000
N8880 G00 Z90.0 X0.000 Y55.000
N8890 (Part: выставка бот2 ƒубликат 126)
N8900 (Operation: Ѕез смещени€, 0, T0: ѕлазма, 0,8 мм прорез)
N8910 (€фч€ыф)
N8920 G01 z90
N8930 G00 Y55.000
N8940 G00 Z0.0 X0.000 Y00.000
N8950 G00 Z90.0 X0.000 Y55.000
N8960 (Part: выставка бот2 ƒубликат 127)
N8970 (Operation: Ѕез смещени€, 0, T0: ѕлазма, 0,8 мм прорез)
N8980 (€фч€ыф)
N8990 G01 z90
N9000 G00 Y55.000
N9010 G00 Z0.0 X0.000 Y00.000
N9020 G00 Z90.0 X0.000 Y55.000
N9030 (Part: выставка бот2 ƒубликат 128)
N9040 (Operation: Ѕез смещени€, 0, T0: ѕлазма, 0,8 мм прорез)
N9050 (€фч€ыф)
N9060 G01 z90
N9070 G00 Y55.000
N9080 G00 Z0.0 X0.000 Y00.000
N9090 G00 Z90.0 X0.000 Y55.000
N9100 (Part: выставка бот2 ƒубликат 129)
N9110 (Operation: Ѕез смещени€, 0, T0: ѕлазма, 0,8 мм прорез)
N9120 (€фч€ыф)
N9130 G01 z90
N9140 G00 Y55.000
N9150 G00 Z0.0 X0.000 Y00.000
N9160 G00 Z90.0 X0.000 Y55.000
N9170 (Part: выставка бот2 ƒубликат 130)
N9180 (Operation: Ѕез смещени€, 0, T0: ѕлазма, 0,8 мм прорез)
N9190 (€фч€ыф)
N9200 G01 z90
N9210 G00 Y55.000
N9220 G00 Z0.0 X0.000 Y00.000
N9230 G00 Z90.0 X0.000 Y55.000
N9240 (Part: выставка бот2 ƒубликат 131)
N9250 (Operation: Ѕез смещени€, 0, T0: ѕлазма, 0,8 мм прорез)
N9260 (€фч€ыф)
N9270 G01 z90
N9280 G00 Y55.000
N9290 G00 Z0.0 X0.000 Y00.000
N9300 G00 Z90.0 X0.000 Y55.000
N9310 (Part: выставка бот2 ƒубликат 132)
N9320 (Operation: Ѕез смещени€, 0, T0: ѕлазма, 0,8 мм прорез)
N9330 (€фч€ыф)
N9340 G01 z90
N9350 G00 Y55.000
N9360 G00 Z0.0 X0.000 Y00.000
N9370 G00 Z90.0 X0.000 Y55.000
N9380 (Part: выставка бот2 ƒубликат 133)
N9390 (Operation: Ѕез смещени€, 0, T0: ѕлазма, 0,8 мм прорез)
N9400 (€фч€ыф)
N9410 G01 z90
N9420 G00 Y55.000
N9430 G00 Z0.0 X0.000 Y00.000
N9440 G00 Z90.0 X0.000 Y55.000
N9450 (Part: выставка бот2 ƒубликат 134)
N9460 (Operation: Ѕез смещени€, 0, T0: ѕлазма, 0,8 мм прорез)
N9470 (€фч€ыф)
N9480 G01 z90
N9490 G00 Y55.000
N9500 G00 Z0.0 X0.000 Y00.000
N9510 G00 Z90.0 X0.000 Y55.000
N9520 (Part: выставка бот2 ƒубликат 135)
N9530 (Operation: Ѕез смещени€, 0, T0: ѕлазма, 0,8 мм прорез)
N9540 (€фч€ыф)
N9550 G01 z90
N9560 G00 Y55.000
N9570 G00 Z0.0 X0.000 Y00.000
N9580 G00 Z90.0 X0.000 Y55.000
N9590 (Part: выставка бот2 ƒубликат 136)
N9600 (Operation: Ѕез смещени€, 0, T0: ѕлазма, 0,8 мм прорез)
N9610 (€фч€ыф)
N9620 G01 z90
N9630 G00 Y55.000
N9640 G00 Z0.0 X0.000 Y00.000
N9650 G00 Z90.0 X0.000 Y55.000
N9660 (Part: выставка бот2 ƒубликат 137)
N9670 (Operation: Ѕез смещени€, 0, T0: ѕлазма, 0,8 мм прорез)
N9680 (€фч€ыф)
N9690 G01 z90
N9700 G00 Y55.000
N9710 G00 Z0.0 X0.000 Y00.000
N9720 G00 Z90.0 X0.000 Y55.000
N9730 (Part: выставка бот2 ƒубликат 138)
N9740 (Operation: Ѕез смещени€, 0, T0: ѕлазма, 0,8 мм прорез)
N9750 (€фч€ыф)
N9760 G01 z90
N9770 G00 Y55.000
N9780 G00 Z0.0 X0.000 Y00.000
N9790 G00 Z90.0 X0.000 Y55.000
N9800 (Part: выставка бот2 ƒубликат 139)
N9810 (Operation: Ѕез смещени€, 0, T0: ѕлазма, 0,8 мм прорез)
N9820 (€фч€ыф)
N9830 G01 z90
N9840 G00 Y55.000
N9850 G00 Z0.0 X0.000 Y00.000
N9860 G00 Z90.0 X0.000 Y55.000
N9870 (Part: выставка бот2 ƒубликат 140)
N9880 (Operation: Ѕез смещени€, 0, T0: ѕлазма, 0,8 мм прорез)
N9890 (€фч€ыф)
N9900 G01 z90
N9910 G00 Y55.000
N9920 G00 Z0.0 X0.000 Y00.000
N9930 G00 Z90.0 X0.000 Y55.000
N9940 (Part: выставка бот2 ƒубликат 141)
N9950 (Operation: Ѕез смещени€, 0, T0: ѕлазма, 0,8 мм прорез)
N9960 (€фч€ыф)
N9970 G01 z90
N9980 G00 Y55.000
N9990 G00 Z0.0 X0.000 Y00.000
N10000 G00 Z90.0 X0.000 Y55.000
N10010 (Part: выставка бот2 ƒубликат 142)
N10020 (Operation: Ѕез смещени€, 0, T0: ѕлазма, 0,8 мм прорез)
N10030 (€фч€ыф)
N10040 G01 z90
N10050 G00 Y55.000
N10060 G00 Z0.0 X0.000 Y00.000
N10070 G00 Z90.0 X0.000 Y55.000
N10080 (Part: выставка бот2 ƒубликат 143)
N10090 (Operation: Ѕез смещени€, 0, T0: ѕлазма, 0,8 мм прорез)
N10100 (€фч€ыф)
N10110 G01 z90
N10120 G00 Y55.000
N10130 G00 Z0.0 X0.000 Y00.000
N10140 G00 Z90.0 X0.000 Y55.000
N10150 (Part: выставка бот2 ƒубликат 144)
N10160 (Operation: Ѕез смещени€, 0, T0: ѕлазма, 0,8 мм прорез)
N10170 (€фч€ыф)
N10180 G01 z90
N10190 G00 Y55.000
N10200 G00 Z0.0 X0.000 Y00.000
N10210 G00 Z90.0 X0.000 Y55.000
N10220 (Part: выставка бот2 ƒубликат 145)
N10230 (Operation: Ѕез смещени€, 0, T0: ѕлазма, 0,8 мм прорез)
N10240 (€фч€ыф)
N10250 G01 z90
N10260 G00 Y55.000
N10270 G00 Z0.0 X0.000 Y00.000
N10280 G00 Z90.0 X0.000 Y55.000
N10290 (Part: выставка бот2 ƒубликат 146)
N10300 (Operation: Ѕез смещени€, 0, T0: ѕлазма, 0,8 мм прорез)
N10310 (€фч€ыф)
N10320 G01 z90
N10330 G00 Y55.000
N10340 G00 Z0.0 X0.000 Y00.000
N10350 G00 Z90.0 X0.000 Y55.000
N10360 (Part: выставка бот2 ƒубликат 147)
N10370 (Operation: Ѕез смещени€, 0, T0: ѕлазма, 0,8 мм прорез)
N10380 (€фч€ыф)
N10390 G01 z90
N10400 G00 Y55.000
N10410 G00 Z0.0 X0.000 Y00.000
N10420 G00 Z90.0 X0.000 Y55.000
N10430 (Part: выставка бот2 ƒубликат 148)
N10440 (Operation: Ѕез смещени€, 0, T0: ѕлазма, 0,8 мм прорез)
N10450 (€фч€ыф)
N10460 G01 z90
N10470 G00 Y55.000
N10480 G00 Z0.0 X0.000 Y00.000
N10490 G00 Z90.0 X0.000 Y55.000
N10500 (Part: выставка бот2 ƒубликат 149)
N10510 (Operation: Ѕез смещени€, 0, T0: ѕлазма, 0,8 мм прорез)
N10520 (€фч€ыф)
N10530 G01 z90
N10540 G00 Y55.000
N10550 G00 Z0.0 X0.000 Y00.000
N10560 G00 Z90.0 X0.000 Y55.000
N10570 (Part: выставка бот2 ƒубликат 150)
N10580 (Operation: Ѕез смещени€, 0, T0: ѕлазма, 0,8 мм прорез)
N10590 (€фч€ыф)
N10600 G01 z90
N10610 G00 Y55.000
N10620 G00 Z0.0 X0.000 Y00.000
N10630 G00 Z90.0 X0.000 Y55.000
N10640 (Part: выставка бот2 ƒубликат 151)
N10650 (Operation: Ѕез смещени€, 0, T0: ѕлазма, 0,8 мм прорез)
N10660 (€фч€ыф)
N10670 G01 z90
N10680 G00 Y55.000
N10690 G00 Z0.0 X0.000 Y00.000
N10700 G00 Z90.0 X0.000 Y55.000
N10710 (Part: выставка бот2 ƒубликат 152)
N10720 (Operation: Ѕез смещени€, 0, T0: ѕлазма, 0,8 мм прорез)
N10730 (€фч€ыф)
N10740 G01 z90
N10750 G00 Y55.000
N10760 G00 Z0.0 X0.000 Y00.000
N10770 G00 Z90.0 X0.000 Y55.000
N10780 (Part: выставка бот2 ƒубликат 153)
N10790 (Operation: Ѕез смещени€, 0, T0: ѕлазма, 0,8 мм прорез)
N10800 (€фч€ыф)
N10810 G01 z90
N10820 G00 Y55.000
N10830 G00 Z0.0 X0.000 Y00.000
N10840 G00 Z90.0 X0.000 Y55.000
N10850 (Part: выставка бот2 ƒубликат 154)
N10860 (Operation: Ѕез смещени€, 0, T0: ѕлазма, 0,8 мм прорез)
N10870 (€фч€ыф)
N10880 G01 z90
N10890 G00 Y55.000
N10900 G00 Z0.0 X0.000 Y00.000
N10910 G00 Z90.0 X0.000 Y55.000
N10920 (Part: выставка бот2 ƒубликат 155)
N10930 (Operation: Ѕез смещени€, 0, T0: ѕлазма, 0,8 мм прорез)
N10940 (€фч€ыф)
N10950 G01 z90
N10960 G00 Y55.000
N10970 G00 Z0.0 X0.000 Y00.000
N10980 G00 Z90.0 X0.000 Y55.000
N10990 (Part: выставка бот2 ƒубликат 156)
N11000 (Operation: Ѕез смещени€, 0, T0: ѕлазма, 0,8 мм прорез)
N11010 (€фч€ыф)
N11020 G01 z90
N11030 G00 Y55.000
N11040 G00 Z0.0 X0.000 Y00.000
N11050 G00 Z90.0 X0.000 Y55.000
N11060 (Part: выставка бот2 ƒубликат 157)
N11070 (Operation: Ѕез смещени€, 0, T0: ѕлазма, 0,8 мм прорез)
N11080 (€фч€ыф)
N11090 G01 z90
N11100 G00 Y55.000
N11110 G00 Z0.0 X0.000 Y00.000
N11120 G00 Z90.0 X0.000 Y55.000
N11130 (Part: выставка бот2 ƒубликат 158)
N11140 (Operation: Ѕез смещени€, 0, T0: ѕлазма, 0,8 мм прорез)
N11150 (€фч€ыф)
N11160 G01 z90
N11170 G00 Y55.000
N11180 G00 Z0.0 X0.000 Y00.000
N11190 G00 Z90.0 X0.000 Y55.000
N11200 (Part: выставка бот2 ƒубликат 159)
N11210 (Operation: Ѕез смещени€, 0, T0: ѕлазма, 0,8 мм прорез)
N11220 (€фч€ыф)
N11230 G01 z90
N11240 G00 Y55.000
N11250 G00 Z0.0 X0.000 Y00.000
N11260 G00 Z90.0 X0.000 Y55.000
N11270 (Part: выставка бот2 ƒубликат 160)
N11280 (Operation: Ѕез смещени€, 0, T0: ѕлазма, 0,8 мм прорез)
N11290 (€фч€ыф)
N11300 G01 z90
N11310 G00 Y55.000
N11320 G00 Z0.0 X0.000 Y00.000
N11330 G00 Z90.0 X0.000 Y55.000
N11340 (Part: выставка бот2 ƒубликат 161)
N11350 (Operation: Ѕез смещени€, 0, T0: ѕлазма, 0,8 мм прорез)
N11360 (€фч€ыф)
N11370 G01 z90
N11380 G00 Y55.000
N11390 G00 Z0.0 X0.000 Y00.000
N11400 G00 Z90.0 X0.000 Y55.000
N11410 (Part: выставка бот2 ƒубликат 162)
N11420 (Operation: Ѕез смещени€, 0, T0: ѕлазма, 0,8 мм прорез)
N11430 (€фч€ыф)
N11440 G01 z90
N11450 G00 Y55.000
N11460 G00 Z0.0 X0.000 Y00.000
N11470 G00 Z90.0 X0.000 Y55.000
N11480 (Part: выставка бот2 ƒубликат 163)
N11490 (Operation: Ѕез смещени€, 0, T0: ѕлазма, 0,8 мм прорез)
N11500 (€фч€ыф)
N11510 G01 z90
N11520 G00 Y55.000
N11530 G00 Z0.0 X0.000 Y00.000
N11540 G00 Z90.0 X0.000 Y55.000
N11550 (Part: выставка бот2 ƒубликат 164)
N11560 (Operation: Ѕез смещени€, 0, T0: ѕлазма, 0,8 мм прорез)
N11570 (€фч€ыф)
N11580 G01 z90
N11590 G00 Y55.000
N11600 G00 Z0.0 X0.000 Y00.000
N11610 G00 Z90.0 X0.000 Y55.000
N11620 (Part: выставка бот2 ƒубликат 165)
N11630 (Operation: Ѕез смещени€, 0, T0: ѕлазма, 0,8 мм прорез)
N11640 (€фч€ыф)
N11650 G01 z90
N11660 G00 Y55.000
N11670 G00 Z0.0 X0.000 Y00.000
N11680 G00 Z90.0 X0.000 Y55.000
N11690 (Part: выставка бот2 ƒубликат 166)
N11700 (Operation: Ѕез смещени€, 0, T0: ѕлазма, 0,8 мм прорез)
N11710 (€фч€ыф)
N11720 G01 z90
N11730 G00 Y55.000
N11740 G00 Z0.0 X0.000 Y00.000
N11750 G00 Z90.0 X0.000 Y55.000
N11760 (Part: выставка бот2 ƒубликат 167)
N11770 (Operation: Ѕез смещени€, 0, T0: ѕлазма, 0,8 мм прорез)
N11780 (€фч€ыф)
N11790 G01 z90
N11800 G00 Y55.000
N11810 G00 Z0.0 X0.000 Y00.000
N11820 G00 Z90.0 X0.000 Y55.000
N11830 (Part: выставка бот2 ƒубликат 168)
N11840 (Operation: Ѕез смещени€, 0, T0: ѕлазма, 0,8 мм прорез)
N11850 (€фч€ыф)
N11860 G01 z90
N11870 G00 Y55.000
N11880 G00 Z0.0 X0.000 Y00.000
N11890 G00 Z90.0 X0.000 Y55.000
N11900 (Part: выставка бот2 ƒубликат 169)
N11910 (Operation: Ѕез смещени€, 0, T0: ѕлазма, 0,8 мм прорез)
N11920 (€фч€ыф)
N11930 G01 z90
N11940 G00 Y55.000
N11950 G00 Z0.0 X0.000 Y00.000
N11960 G00 Z90.0 X0.000 Y55.000
N11970 (Part: выставка бот2 ƒубликат 170)
N11980 (Operation: Ѕез смещени€, 0, T0: ѕлазма, 0,8 мм прорез)
N11990 (€фч€ыф)
N12000 G01 z90
N12010 G00 Y55.000
N12020 G00 Z0.0 X0.000 Y00.000
N12030 G00 Z90.0 X0.000 Y55.000
N12040 (Part: выставка бот2 ƒубликат 171)
N12050 (Operation: Ѕез смещени€, 0, T0: ѕлазма, 0,8 мм прорез)
N12060 (€фч€ыф)
N12070 G01 z90
N12080 G00 Y55.000
N12090 G00 Z0.0 X0.000 Y00.000
N12100 G00 Z90.0 X0.000 Y55.000
N12110 (Part: выставка бот2 ƒубликат 172)
N12120 (Operation: Ѕез смещени€, 0, T0: ѕлазма, 0,8 мм прорез)
N12130 (€фч€ыф)
N12140 G01 z90
N12150 G00 Y55.000
N12160 G00 Z0.0 X0.000 Y00.000
N12170 G00 Z90.0 X0.000 Y55.000
N12180 (Part: выставка бот2 ƒубликат 173)
N12190 (Operation: Ѕез смещени€, 0, T0: ѕлазма, 0,8 мм прорез)
N12200 (€фч€ыф)
N12210 G01 z90
N12220 G00 Y55.000
N12230 G00 Z0.0 X0.000 Y00.000
N12240 G00 Z90.0 X0.000 Y55.000
N12250 (Part: выставка бот2 ƒубликат 174)
N12260 (Operation: Ѕез смещени€, 0, T0: ѕлазма, 0,8 мм прорез)
N12270 (€фч€ыф)
N12280 G01 z90
N12290 G00 Y55.000
N12300 G00 Z0.0 X0.000 Y00.000
N12310 G00 Z90.0 X0.000 Y55.000
N12320 (Part: выставка бот2 ƒубликат 175)
N12330 (Operation: Ѕез смещени€, 0, T0: ѕлазма, 0,8 мм прорез)
N12340 (€фч€ыф)
N12350 G01 z90
N12360 G00 Y55.000
N12370 G00 Z0.0 X0.000 Y00.000
N12380 G00 Z90.0 X0.000 Y55.000
N12390 (Part: выставка бот2 ƒубликат 176)
N12400 (Operation: Ѕез смещени€, 0, T0: ѕлазма, 0,8 мм прорез)
N12410 (€фч€ыф)
N12420 G01 z90
N12430 G00 Y55.000
N12440 G00 Z0.0 X0.000 Y00.000
N12450 G00 Z90.0 X0.000 Y55.000
N12460 (Part: выставка бот2 ƒубликат 177)
N12470 (Operation: Ѕез смещени€, 0, T0: ѕлазма, 0,8 мм прорез)
N12480 (€фч€ыф)
N12490 G01 z90
N12500 G00 Y55.000
N12510 G00 Z0.0 X0.000 Y00.000
N12520 G00 Z90.0 X0.000 Y55.000
N12530 (Part: выставка бот2 ƒубликат 178)
N12540 (Operation: Ѕез смещени€, 0, T0: ѕлазма, 0,8 мм прорез)
N12550 (€фч€ыф)
N12560 G01 z90
N12570 G00 Y55.000
N12580 G00 Z0.0 X0.000 Y00.000
N12590 G00 Z90.0 X0.000 Y55.000
N12600 (Part: выставка бот2 ƒубликат 179)
N12610 (Operation: Ѕез смещени€, 0, T0: ѕлазма, 0,8 мм прорез)
N12620 (€фч€ыф)
N12630 G01 z90
N12640 G00 Y55.000
N12650 G00 Z0.0 X0.000 Y00.000
N12660 G00 Z90.0 X0.000 Y55.000
N12670 (Part: выставка бот2 ƒубликат 180)
N12680 (Operation: Ѕез смещени€, 0, T0: ѕлазма, 0,8 мм прорез)
N12690 (€фч€ыф)
N12700 G01 z90
N12710 G00 Y55.000
N12720 G00 Z0.0 X0.000 Y00.000
N12730 G00 Z90.0 X0.000 Y55.000
N12740 (Part: выставка бот2 ƒубликат 181)
N12750 (Operation: Ѕез смещени€, 0, T0: ѕлазма, 0,8 мм прорез)
N12760 (€фч€ыф)
N12770 G01 z90
N12780 G00 Y55.000
N12790 G00 Z0.0 X0.000 Y00.000
N12800 G00 Z90.0 X0.000 Y55.000
N12810 (Part: выставка бот2 ƒубликат 182)
N12820 (Operation: Ѕез смещени€, 0, T0: ѕлазма, 0,8 мм прорез)
N12830 (€фч€ыф)
N12840 G01 z90
N12850 G00 Y55.000
N12860 G00 Z0.0 X0.000 Y00.000
N12870 G00 Z90.0 X0.000 Y55.000
N12880 (Part: выставка бот2 ƒубликат 183)
N12890 (Operation: Ѕез смещени€, 0, T0: ѕлазма, 0,8 мм прорез)
N12900 (€фч€ыф)
N12910 G01 z90
N12920 G00 Y55.000
N12930 G00 Z0.0 X0.000 Y00.000
N12940 G00 Z90.0 X0.000 Y55.000
N12950 (Part: выставка бот2 ƒубликат 184)
N12960 (Operation: Ѕез смещени€, 0, T0: ѕлазма, 0,8 мм прорез)
N12970 (€фч€ыф)
N12980 G01 z90
N12990 G00 Y55.000
N13000 G00 Z0.0 X0.000 Y00.000
N13010 G00 Z90.0 X0.000 Y55.000
N13020 (Part: выставка бот2 ƒубликат 185)
N13030 (Operation: Ѕез смещени€, 0, T0: ѕлазма, 0,8 мм прорез)
N13040 (€фч€ыф)
N13050 G01 z90
N13060 G00 Y55.000
N13070 G00 Z0.0 X0.000 Y00.000
N13080 G00 Z90.0 X0.000 Y55.000
N13090 (Part: выставка бот2 ƒубликат 186)
N13100 (Operation: Ѕез смещени€, 0, T0: ѕлазма, 0,8 мм прорез)
N13110 (€фч€ыф)
N13120 G01 z90
N13130 G00 Y55.000
N13140 G00 Z0.0 X0.000 Y00.000
N13150 G00 Z90.0 X0.000 Y55.000
N13160 (Part: выставка бот2 ƒубликат 187)
N13170 (Operation: Ѕез смещени€, 0, T0: ѕлазма, 0,8 мм прорез)
N13180 (€фч€ыф)
N13190 G01 z90
N13200 G00 Y55.000
N13210 G00 Z0.0 X0.000 Y00.000
N13220 G00 Z90.0 X0.000 Y55.000
N13230 (Part: выставка бот2 ƒубликат 188)
N13240 (Operation: Ѕез смещени€, 0, T0: ѕлазма, 0,8 мм прорез)
N13250 (€фч€ыф)
N13260 G01 z90
N13270 G00 Y55.000
N13280 G00 Z0.0 X0.000 Y00.000
N13290 G00 Z90.0 X0.000 Y55.000
N13300 (Part: выставка бот2 ƒубликат 189)
N13310 (Operation: Ѕез смещени€, 0, T0: ѕлазма, 0,8 мм прорез)
N13320 (€фч€ыф)
N13330 G01 z90
N13340 G00 Y55.000
N13350 G00 Z0.0 X0.000 Y00.000
N13360 G00 Z90.0 X0.000 Y55.000
N13370 (Part: выставка бот2 ƒубликат 190)
N13380 (Operation: Ѕез смещени€, 0, T0: ѕлазма, 0,8 мм прорез)
N13390 (€фч€ыф)
N13400 G01 z90
N13410 G00 Y55.000
N13420 G00 Z0.0 X0.000 Y00.000
N13430 G00 Z90.0 X0.000 Y55.000
N13440 (Part: выставка бот2 ƒубликат 191)
N13450 (Operation: Ѕез смещени€, 0, T0: ѕлазма, 0,8 мм прорез)
N13460 (€фч€ыф)
N13470 G01 z90
N13480 G00 Y55.000
N13490 G00 Z0.0 X0.000 Y00.000
N13500 G00 Z90.0 X0.000 Y55.000
N13510 (Part: выставка бот2 ƒубликат 192)
N13520 (Operation: Ѕез смещени€, 0, T0: ѕлазма, 0,8 мм прорез)
N13530 (€фч€ыф)
N13540 G01 z90
N13550 G00 Y55.000
N13560 G00 Z0.0 X0.000 Y00.000
N13570 G00 Z90.0 X0.000 Y55.000
N13580 (Part: выставка бот2 ƒубликат 193)
N13590 (Operation: Ѕез смещени€, 0, T0: ѕлазма, 0,8 мм прорез)
N13600 (€фч€ыф)
N13610 G01 z90
N13620 G00 Y55.000
N13630 G00 Z0.0 X0.000 Y00.000
N13640 G00 Z90.0 X0.000 Y55.000
N13650 (Part: выставка бот2 ƒубликат 194)
N13660 (Operation: Ѕез смещени€, 0, T0: ѕлазма, 0,8 мм прорез)
N13670 (€фч€ыф)
N13680 G01 z90
N13690 G00 Y55.000
N13700 G00 Z0.0 X0.000 Y00.000
N13710 G00 Z90.0 X0.000 Y55.000
N13720 (Part: выставка бот2 ƒубликат 195)
N13730 (Operation: Ѕез смещени€, 0, T0: ѕлазма, 0,8 мм прорез)
N13740 (€фч€ыф)
N13750 G01 z90
N13760 G00 Y55.000
N13770 G00 Z0.0 X0.000 Y00.000
N13780 G00 Z90.0 X0.000 Y55.000
N13790 (Part: выставка бот2 ƒубликат 196)
N13800 (Operation: Ѕез смещени€, 0, T0: ѕлазма, 0,8 мм прорез)
N13810 (€фч€ыф)
N13820 G01 z90
N13830 G00 Y55.000
N13840 G00 Z0.0 X0.000 Y00.000
N13850 G00 Z90.0 X0.000 Y55.000
N13860 (Part: выставка бот2 ƒубликат 197)
N13870 (Operation: Ѕез смещени€, 0, T0: ѕлазма, 0,8 мм прорез)
N13880 (€фч€ыф)
N13890 G01 z90
N13900 G00 Y55.000
N13910 G00 Z0.0 X0.000 Y00.000
N13920 G00 Z90.0 X0.000 Y55.000
N13930 (Part: выставка бот2 ƒубликат 198)
N13940 (Operation: Ѕез смещени€, 0, T0: ѕлазма, 0,8 мм прорез)
N13950 (€фч€ыф)
N13960 G01 z90
N13970 G00 Y55.000
N13980 G00 Z0.0 X0.000 Y00.000
N13990 G00 Z90.0 X0.000 Y55.000
N14000 (Part: выставка бот2 ƒубликат 199)
N14010 (Operation: Ѕез смещени€, 0, T0: ѕлазма, 0,8 мм прорез)
N14020 (€фч€ыф)
N14030 G01 z90
N14040 G00 Y55.000
N14050 G00 Z0.0 X0.000 Y00.000
N14060 G00 Z90.0 X0.000 Y55.000
N14070 (Part: выставка бот2 ƒубликат 200)
N14080 (Operation: Ѕез смещени€, 0, T0: ѕлазма, 0,8 мм прорез)
N14090 (€фч€ыф)
N14100 G01 z90
N14110 G00 Y55.000
N14120 G00 Z0.0 X0.000 Y00.000
N14130 G00 Z90.0 X0.000 Y55.000
N14140 (Part: выставка бот2 ƒубликат 201)
N14150 (Operation: Ѕез смещени€, 0, T0: ѕлазма, 0,8 мм прорез)
N14160 (€фч€ыф)
N14170 G01 z90
N14180 G00 Y55.000
N14190 G00 Z0.0 X0.000 Y00.000
N14200 G00 Z90.0 X0.000 Y55.000
N14210 (Part: выставка бот2 ƒубликат 202)
N14220 (Operation: Ѕез смещени€, 0, T0: ѕлазма, 0,8 мм прорез)
N14230 (€фч€ыф)
N14240 G01 z90
N14250 G00 Y55.000
N14260 G00 Z0.0 X0.000 Y00.000
N14270 G00 Z90.0 X0.000 Y55.000
N14280 (Part: выставка бот2 ƒубликат 203)
N14290 (Operation: Ѕез смещени€, 0, T0: ѕлазма, 0,8 мм прорез)
N14300 (€фч€ыф)
N14310 G01 z90
N14320 G00 Y55.000
N14330 G00 Z0.0 X0.000 Y00.000
N14340 G00 Z90.0 X0.000 Y55.000
N14350 (Part: выставка бот2 ƒубликат 204)
N14360 (Operation: Ѕез смещени€, 0, T0: ѕлазма, 0,8 мм прорез)
N14370 (€фч€ыф)
N14380 G01 z90
N14390 G00 Y55.000
N14400 G00 Z0.0 X0.000 Y00.000
N14410 G00 Z90.0 X0.000 Y55.000
N14420 (Part: выставка бот2 ƒубликат 205)
N14430 (Operation: Ѕез смещени€, 0, T0: ѕлазма, 0,8 мм прорез)
N14440 (€фч€ыф)
N14450 G01 z90
N14460 G00 Y55.000
N14470 G00 Z0.0 X0.000 Y00.000
N14480 G00 Z90.0 X0.000 Y55.000
N14490 (Part: выставка бот2 ƒубликат 206)
N14500 (Operation: Ѕез смещени€, 0, T0: ѕлазма, 0,8 мм прорез)
N14510 (€фч€ыф)
N14520 G01 z90
N14530 G00 Y55.000
N14540 G00 Z0.0 X0.000 Y00.000
N14550 G00 Z90.0 X0.000 Y55.000
N14560 (Part: выставка бот2 ƒубликат 207)
N14570 (Operation: Ѕез смещени€, 0, T0: ѕлазма, 0,8 мм прорез)
N14580 (€фч€ыф)
N14590 G01 z90
N14600 G00 Y55.000
N14610 G00 Z0.0 X0.000 Y00.000
N14620 G00 Z90.0 X0.000 Y55.000
N14630 (Part: выставка бот2 ƒубликат 208)
N14640 (Operation: Ѕез смещени€, 0, T0: ѕлазма, 0,8 мм прорез)
N14650 (€фч€ыф)
N14660 G01 z90
N14670 G00 Y55.000
N14680 G00 Z0.0 X0.000 Y00.000
N14690 G00 Z90.0 X0.000 Y55.000
N14700 (Part: выставка бот2 ƒубликат 209)
N14710 (Operation: Ѕез смещени€, 0, T0: ѕлазма, 0,8 мм прорез)
N14720 (€фч€ыф)
N14730 G01 z90
N14740 G00 Y55.000
N14750 G00 Z0.0 X0.000 Y00.000
N14760 G00 Z90.0 X0.000 Y55.000
N14770 (Part: выставка бот2 ƒубликат 210)
N14780 (Operation: Ѕез смещени€, 0, T0: ѕлазма, 0,8 мм прорез)
N14790 (€фч€ыф)
N14800 G01 z90
N14810 G00 Y55.000
N14820 G00 Z0.0 X0.000 Y00.000
N14830 G00 Z90.0 X0.000 Y55.000
N14840 (Part: выставка бот2 ƒубликат 211)
N14850 (Operation: Ѕез смещени€, 0, T0: ѕлазма, 0,8 мм прорез)
N14860 (€фч€ыф)
N14870 G01 z90
N14880 G00 Y55.000
N14890 G00 Z0.0 X0.000 Y00.000
N14900 G00 Z90.0 X0.000 Y55.000
N14910 (Part: выставка бот2 ƒубликат 212)
N14920 (Operation: Ѕез смещени€, 0, T0: ѕлазма, 0,8 мм прорез)
N14930 (€фч€ыф)
N14940 G01 z90
N14950 G00 Y55.000
N14960 G00 Z0.0 X0.000 Y00.000
N14970 G00 Z90.0 X0.000 Y55.000
N14980 (Part: выставка бот2 ƒубликат 213)
N14990 (Operation: Ѕез смещени€, 0, T0: ѕлазма, 0,8 мм прорез)
N15000 (€фч€ыф)
N15010 G01 z90
N15020 G00 Y55.000
N15030 G00 Z0.0 X0.000 Y00.000
N15040 G00 Z90.0 X0.000 Y55.000
N15050 (Part: выставка бот2 ƒубликат 214)
N15060 (Operation: Ѕез смещени€, 0, T0: ѕлазма, 0,8 мм прорез)
N15070 (€фч€ыф)
N15080 G01 z90
N15090 G00 Y55.000
N15100 G00 Z0.0 X0.000 Y00.000
N15110 G00 Z90.0 X0.000 Y55.000
N15120 (Part: выставка бот2 ƒубликат 215)
N15130 (Operation: Ѕез смещени€, 0, T0: ѕлазма, 0,8 мм прорез)
N15140 (€фч€ыф)
N15150 G01 z90
N15160 G00 Y55.000
N15170 G00 Z0.0 X0.000 Y00.000
N15180 G00 Z90.0 X0.000 Y55.000
N15190 (Part: выставка бот2 ƒубликат 216)
N15200 (Operation: Ѕез смещени€, 0, T0: ѕлазма, 0,8 мм прорез)
N15210 (€фч€ыф)
N15220 G01 z90
N15230 G00 Y55.000
N15240 G00 Z0.0 X0.000 Y00.000
N15250 G00 Z90.0 X0.000 Y55.000
N15260 (Part: выставка бот2 ƒубликат 217)
N15270 (Operation: Ѕез смещени€, 0, T0: ѕлазма, 0,8 мм прорез)
N15280 (€фч€ыф)
N15290 G01 z90
N15300 G00 Y55.000
N15310 G00 Z0.0 X0.000 Y00.000
N15320 G00 Z90.0 X0.000 Y55.000
N15330 (Part: выставка бот2 ƒубликат 218)
N15340 (Operation: Ѕез смещени€, 0, T0: ѕлазма, 0,8 мм прорез)
N15350 (€фч€ыф)
N15360 G01 z90
N15370 G00 Y55.000
N15380 G00 Z0.0 X0.000 Y00.000
N15390 G00 Z90.0 X0.000 Y55.000
N15400 (Part: выставка бот2 ƒубликат 219)
N15410 (Operation: Ѕез смещени€, 0, T0: ѕлазма, 0,8 мм прорез)
N15420 (€фч€ыф)
N15430 G01 z90
N15440 G00 Y55.000
N15450 G00 Z0.0 X0.000 Y00.000
N15460 G00 Z90.0 X0.000 Y55.000
N15470 (Part: выставка бот2 ƒубликат 220)
N15480 (Operation: Ѕез смещени€, 0, T0: ѕлазма, 0,8 мм прорез)
N15490 (€фч€ыф)
N15500 G01 z90
N15510 G00 Y55.000
N15520 G00 Z0.0 X0.000 Y00.000
N15530 G00 Z90.0 X0.000 Y55.000
N15540 (Part: выставка бот2 ƒубликат 221)
N15550 (Operation: Ѕез смещени€, 0, T0: ѕлазма, 0,8 мм прорез)
N15560 (€фч€ыф)
N15570 G01 z90
N15580 G00 Y55.000
N15590 G00 Z0.0 X0.000 Y00.000
N15600 G00 Z90.0 X0.000 Y55.000
N15610 (Part: выставка бот2 ƒубликат 222)
N15620 (Operation: Ѕез смещени€, 0, T0: ѕлазма, 0,8 мм прорез)
N15630 (€фч€ыф)
N15640 G01 z90
N15650 G00 Y55.000
N15660 G00 Z0.0 X0.000 Y00.000
N15670 G00 Z90.0 X0.000 Y55.000
N15680 (Part: выставка бот2 ƒубликат 223)
N15690 (Operation: Ѕез смещени€, 0, T0: ѕлазма, 0,8 мм прорез)
N15700 (€фч€ыф)
N15710 G01 z90
N15720 G00 Y55.000
N15730 G00 Z0.0 X0.000 Y00.000
N15740 G00 Z90.0 X0.000 Y55.000
N15750 (Part: выставка бот2 ƒубликат 224)
N15760 (Operation: Ѕез смещени€, 0, T0: ѕлазма, 0,8 мм прорез)
N15770 (€фч€ыф)
N15780 G01 z90
N15790 G00 Y55.000
N15800 G00 Z0.0 X0.000 Y00.000
N15810 G00 Z90.0 X0.000 Y55.000
N15820 (Part: выставка бот2 ƒубликат 225)
N15830 (Operation: Ѕез смещени€, 0, T0: ѕлазма, 0,8 мм прорез)
N15840 (€фч€ыф)
N15850 G01 z90
N15860 G00 Y55.000
N15870 G00 Z0.0 X0.000 Y00.000
N15880 G00 Z90.0 X0.000 Y55.000
N15890 (Part: выставка бот2 ƒубликат 226)
N15900 (Operation: Ѕез смещени€, 0, T0: ѕлазма, 0,8 мм прорез)
N15910 (€фч€ыф)
N15920 G01 z90
N15930 G00 Y55.000
N15940 G00 Z0.0 X0.000 Y00.000
N15950 G00 Z90.0 X0.000 Y55.000
N15960 (Part: выставка бот2 ƒубликат 227)
N15970 (Operation: Ѕез смещени€, 0, T0: ѕлазма, 0,8 мм прорез)
N15980 (€фч€ыф)
N15990 G01 z90
N16000 G00 Y55.000
N16010 G00 Z0.0 X0.000 Y00.000
N16020 G00 Z90.0 X0.000 Y55.000
N16030 (Part: выставка бот2 ƒубликат 228)
N16040 (Operation: Ѕез смещени€, 0, T0: ѕлазма, 0,8 мм прорез)
N16050 (€фч€ыф)
N16060 G01 z90
N16070 G00 Y55.000
N16080 G00 Z0.0 X0.000 Y00.000
N16090 G00 Z90.0 X0.000 Y55.000
N16100 (Part: выставка бот2 ƒубликат 229)
N16110 (Operation: Ѕез смещени€, 0, T0: ѕлазма, 0,8 мм прорез)
N16120 (€фч€ыф)
N16130 G01 z90
N16140 G00 Y55.000
N16150 G00 Z0.0 X0.000 Y00.000
N16160 G00 Z90.0 X0.000 Y55.000
N16170 (Part: выставка бот2 ƒубликат 230)
N16180 (Operation: Ѕез смещени€, 0, T0: ѕлазма, 0,8 мм прорез)
N16190 (€фч€ыф)
N16200 G01 z90
N16210 G00 Y55.000
N16220 G00 Z0.0 X0.000 Y00.000
N16230 G00 Z90.0 X0.000 Y55.000
N16240 (Part: выставка бот2 ƒубликат 231)
N16250 (Operation: Ѕез смещени€, 0, T0: ѕлазма, 0,8 мм прорез)
N16260 (€фч€ыф)
N16270 G01 z90
N16280 G00 Y55.000
N16290 G00 Z0.0 X0.000 Y00.000
N16300 G00 Z90.0 X0.000 Y55.000
N16310 (Part: выставка бот2 ƒубликат 232)
N16320 (Operation: Ѕез смещени€, 0, T0: ѕлазма, 0,8 мм прорез)
N16330 (€фч€ыф)
N16340 G01 z90
N16350 G00 Y55.000
N16360 G00 Z0.0 X0.000 Y00.000
N16370 G00 Z90.0 X0.000 Y55.000
N16380 (Part: выставка бот2 ƒубликат 233)
N16390 (Operation: Ѕез смещени€, 0, T0: ѕлазма, 0,8 мм прорез)
N16400 (€фч€ыф)
N16410 G01 z90
N16420 G00 Y55.000
N16430 G00 Z0.0 X0.000 Y00.000
N16440 G00 Z90.0 X0.000 Y55.000
N16450 (Part: выставка бот2 ƒубликат 234)
N16460 (Operation: Ѕез смещени€, 0, T0: ѕлазма, 0,8 мм прорез)
N16470 (€фч€ыф)
N16480 G01 z90
N16490 G00 Y55.000
N16500 G00 Z0.0 X0.000 Y00.000
N16510 G00 Z90.0 X0.000 Y55.000
N16520 (Part: выставка бот2 ƒубликат 235)
N16530 (Operation: Ѕез смещени€, 0, T0: ѕлазма, 0,8 мм прорез)
N16540 (€фч€ыф)
N16550 G01 z90
N16560 G00 Y55.000
N16570 G00 Z0.0 X0.000 Y00.000
N16580 G00 Z90.0 X0.000 Y55.000
N16590 (Part: выставка бот2 ƒубликат 236)
N16600 (Operation: Ѕез смещени€, 0, T0: ѕлазма, 0,8 мм прорез)
N16610 (€фч€ыф)
N16620 G01 z90
N16630 G00 Y55.000
N16640 G00 Z0.0 X0.000 Y00.000
N16650 G00 Z90.0 X0.000 Y55.000
N16660 (Part: выставка бот2 ƒубликат 237)
N16670 (Operation: Ѕез смещени€, 0, T0: ѕлазма, 0,8 мм прорез)
N16680 (€фч€ыф)
N16690 G01 z90
N16700 G00 Y55.000
N16710 G00 Z0.0 X0.000 Y00.000
N16720 G00 Z90.0 X0.000 Y55.000
N16730 (Part: выставка бот2 ƒубликат 238)
N16740 (Operation: Ѕез смещени€, 0, T0: ѕлазма, 0,8 мм прорез)
N16750 (€фч€ыф)
N16760 G01 z90
N16770 G00 Y55.000
N16780 G00 Z0.0 X0.000 Y00.000
N16790 G00 Z90.0 X0.000 Y55.000
N16800 (Part: выставка бот2 ƒубликат 239)
N16810 (Operation: Ѕез смещени€, 0, T0: ѕлазма, 0,8 мм прорез)
N16820 (€фч€ыф)
N16830 G01 z90
N16840 G00 Y55.000
N16850 G00 Z0.0 X0.000 Y00.000
N16860 G00 Z90.0 X0.000 Y55.000
N16870 (Part: выставка бот2 ƒубликат 240)
N16880 (Operation: Ѕез смещени€, 0, T0: ѕлазма, 0,8 мм прорез)
N16890 (€фч€ыф)
N16900 G01 z90
N16910 G00 Y55.000
N16920 G00 Z0.0 X0.000 Y00.000
N16930 G00 Z90.0 X0.000 Y55.000
N16940 (Part: выставка бот2 ƒубликат 241)
N16950 (Operation: Ѕез смещени€, 0, T0: ѕлазма, 0,8 мм прорез)
N16960 (€фч€ыф)
N16970 G01 z90
N16980 G00 Y55.000
N16990 G00 Z0.0 X0.000 Y00.000
N17000 G00 Z90.0 X0.000 Y55.000
N17010 (Part: выставка бот2 ƒубликат 242)
N17020 (Operation: Ѕез смещени€, 0, T0: ѕлазма, 0,8 мм прорез)
N17030 (€фч€ыф)
N17040 G01 z90
N17050 G00 Y55.000
N17060 G00 Z0.0 X0.000 Y00.000
N17070 G00 Z90.0 X0.000 Y55.000
N17080 (Part: выставка бот2 ƒубликат 243)
N17090 (Operation: Ѕез смещени€, 0, T0: ѕлазма, 0,8 мм прорез)
N17100 (€фч€ыф)
N17110 G01 z90
N17120 G00 Y55.000
N17130 G00 Z0.0 X0.000 Y00.000
N17140 G00 Z90.0 X0.000 Y55.000
N17150 (Part: выставка бот2 ƒубликат 244)
N17160 (Operation: Ѕез смещени€, 0, T0: ѕлазма, 0,8 мм прорез)
N17170 (€фч€ыф)
N17180 G01 z90
N17190 G00 Y55.000
N17200 G00 Z0.0 X0.000 Y00.000
N17210 G00 Z90.0 X0.000 Y55.000
N17220 (Part: выставка бот2 ƒубликат 245)
N17230 (Operation: Ѕез смещени€, 0, T0: ѕлазма, 0,8 мм прорез)
N17240 (€фч€ыф)
N17250 G01 z90
N17260 G00 Y55.000
N17270 G00 Z0.0 X0.000 Y00.000
N17280 G00 Z90.0 X0.000 Y55.000
N17290 (Part: выставка бот2 ƒубликат 246)
N17300 (Operation: Ѕез смещени€, 0, T0: ѕлазма, 0,8 мм прорез)
N17310 (€фч€ыф)
N17320 G01 z90
N17330 G00 Y55.000
N17340 G00 Z0.0 X0.000 Y00.000
N17350 G00 Z90.0 X0.000 Y55.000
N17360 (Part: выставка бот2 ƒубликат 247)
N17370 (Operation: Ѕез смещени€, 0, T0: ѕлазма, 0,8 мм прорез)
N17380 (€фч€ыф)
N17390 G01 z90
N17400 G00 Y55.000
N17410 G00 Z0.0 X0.000 Y00.000
N17420 G00 Z90.0 X0.000 Y55.000
N17430 (Part: выставка бот2 ƒубликат 248)
N17440 (Operation: Ѕез смещени€, 0, T0: ѕлазма, 0,8 мм прорез)
N17450 (€фч€ыф)
N17460 G01 z90
N17470 G00 Y55.000
N17480 G00 Z0.0 X0.000 Y00.000
N17490 G00 Z90.0 X0.000 Y55.000
N17500 (Part: выставка бот2 ƒубликат 249)
N17510 (Operation: Ѕез смещени€, 0, T0: ѕлазма, 0,8 мм прорез)
N17520 (€фч€ыф)
N17530 G01 z90
N17540 G00 Y55.000
N17550 G00 Z0.0 X0.000 Y00.000
N17560 G00 Z90.0 X0.000 Y55.000
N17570 (Part: выставка бот2 ƒубликат 250)
N17580 (Operation: Ѕез смещени€, 0, T0: ѕлазма, 0,8 мм прорез)
N17590 (€фч€ыф)
N17600 G01 z90
N17610 G00 Y55.000
N17620 G00 Z0.0 X0.000 Y00.000
N17630 G00 Z90.0 X0.000 Y55.000
N17640 (Part: выставка бот2 ƒубликат 251)
N17650 (Operation: Ѕез смещени€, 0, T0: ѕлазма, 0,8 мм прорез)
N17660 (€фч€ыф)
N17670 G01 z90
N17680 G00 Y55.000
N17690 G00 Z0.0 X0.000 Y00.000
N17700 G00 Z90.0 X0.000 Y55.000
N17710 (Part: выставка бот2 ƒубликат 252)
N17720 (Operation: Ѕез смещени€, 0, T0: ѕлазма, 0,8 мм прорез)
N17730 (€фч€ыф)
N17740 G01 z90
N17750 G00 Y55.000
N17760 G00 Z0.0 X0.000 Y00.000
N17770 G00 Z90.0 X0.000 Y55.000
N17780 (Part: выставка бот2 ƒубликат 253)
N17790 (Operation: Ѕез смещени€, 0, T0: ѕлазма, 0,8 мм прорез)
N17800 (€фч€ыф)
N17810 G01 z90
N17820 G00 Y55.000
N17830 G00 Z0.0 X0.000 Y00.000
N17840 G00 Z90.0 X0.000 Y55.000
N17850 (Part: выставка бот2 ƒубликат 254)
N17860 (Operation: Ѕез смещени€, 0, T0: ѕлазма, 0,8 мм прорез)
N17870 (€фч€ыф)
N17880 G01 z90
N17890 G00 Y55.000
N17900 G00 Z0.0 X0.000 Y00.000
N17910 G00 Z90.0 X0.000 Y55.000
N17920 (Part: выставка бот2 ƒубликат 255)
N17930 (Operation: Ѕез смещени€, 0, T0: ѕлазма, 0,8 мм прорез)
N17940 (€фч€ыф)
N17950 G01 z90
N17960 G00 Y55.000
N17970 G00 Z0.0 X0.000 Y00.000
N17980 G00 Z90.0 X0.000 Y55.000
N17990 (Part: выставка бот2 ƒубликат 256)
N18000 (Operation: Ѕез смещени€, 0, T0: ѕлазма, 0,8 мм прорез)
N18010 (€фч€ыф)
N18020 G01 z90
N18030 G00 Y55.000
N18040 G00 Z0.0 X0.000 Y00.000
N18050 G00 Z90.0 X0.000 Y55.000
N18060 (Part: выставка бот2 ƒубликат 257)
N18070 (Operation: Ѕез смещени€, 0, T0: ѕлазма, 0,8 мм прорез)
N18080 (€фч€ыф)
N18090 G01 z90
N18100 G00 Y55.000
N18110 G00 Z0.0 X0.000 Y00.000
N18120 G00 Z90.0 X0.000 Y55.000
N18130 (Part: выставка бот2 ƒубликат 258)
N18140 (Operation: Ѕез смещени€, 0, T0: ѕлазма, 0,8 мм прорез)
N18150 (€фч€ыф)
N18160 G01 z90
N18170 G00 Y55.000
N18180 G00 Z0.0 X0.000 Y00.000
N18190 G00 Z90.0 X0.000 Y55.000
N18200 (Part: выставка бот2 ƒубликат 259)
N18210 (Operation: Ѕез смещени€, 0, T0: ѕлазма, 0,8 мм прорез)
N18220 (€фч€ыф)
N18230 G01 z90
N18240 G00 Y55.000
N18250 G00 Z0.0 X0.000 Y00.000
N18260 G00 Z90.0 X0.000 Y55.000
N18270 (Part: выставка бот2 ƒубликат 260)
N18280 (Operation: Ѕез смещени€, 0, T0: ѕлазма, 0,8 мм прорез)
N18290 (€фч€ыф)
N18300 G01 z90
N18310 G00 Y55.000
N18320 G00 Z0.0 X0.000 Y00.000
N18330 G00 Z90.0 X0.000 Y55.000
N18340 (Part: выставка бот2 ƒубликат 261)
N18350 (Operation: Ѕез смещени€, 0, T0: ѕлазма, 0,8 мм прорез)
N18360 (€фч€ыф)
N18370 G01 z90
N18380 G00 Y55.000
N18390 G00 Z0.0 X0.000 Y00.000
N18400 G00 Z90.0 X0.000 Y55.000
N18410 (Part: выставка бот2 ƒубликат 262)
N18420 (Operation: Ѕез смещени€, 0, T0: ѕлазма, 0,8 мм прорез)
N18430 (€фч€ыф)
N18440 G01 z90
N18450 G00 Y55.000
N18460 G00 Z0.0 X0.000 Y00.000
N18470 G00 Z90.0 X0.000 Y55.000
N18480 (Part: выставка бот2 ƒубликат 263)
N18490 (Operation: Ѕез смещени€, 0, T0: ѕлазма, 0,8 мм прорез)
N18500 (€фч€ыф)
N18510 G01 z90
N18520 G00 Y55.000
N18530 G00 Z0.0 X0.000 Y00.000
N18540 G00 Z90.0 X0.000 Y55.000
N18550 (Part: выставка бот2 ƒубликат 264)
N18560 (Operation: Ѕез смещени€, 0, T0: ѕлазма, 0,8 мм прорез)
N18570 (€фч€ыф)
N18580 G01 z90
N18590 G00 Y55.000
N18600 G00 Z0.0 X0.000 Y00.000
N18610 G00 Z90.0 X0.000 Y55.000
N18620 (Part: выставка бот2 ƒубликат 265)
N18630 (Operation: Ѕез смещени€, 0, T0: ѕлазма, 0,8 мм прорез)
N18640 (€фч€ыф)
N18650 G01 z90
N18660 G00 Y55.000
N18670 G00 Z0.0 X0.000 Y00.000
N18680 G00 Z90.0 X0.000 Y55.000
N18690 (Part: выставка бот2 ƒубликат 266)
N18700 (Operation: Ѕез смещени€, 0, T0: ѕлазма, 0,8 мм прорез)
N18710 (€фч€ыф)
N18720 G01 z90
N18730 G00 Y55.000
N18740 G00 Z0.0 X0.000 Y00.000
N18750 G00 Z90.0 X0.000 Y55.000
N18760 (Part: выставка бот2 ƒубликат 267)
N18770 (Operation: Ѕез смещени€, 0, T0: ѕлазма, 0,8 мм прорез)
N18780 (€фч€ыф)
N18790 G01 z90
N18800 G00 Y55.000
N18810 G00 Z0.0 X0.000 Y00.000
N18820 G00 Z90.0 X0.000 Y55.000
N18830 (Part: выставка бот2 ƒубликат 268)
N18840 (Operation: Ѕез смещени€, 0, T0: ѕлазма, 0,8 мм прорез)
N18850 (€фч€ыф)
N18860 G01 z90
N18870 G00 Y55.000
N18880 G00 Z0.0 X0.000 Y00.000
N18890 G00 Z90.0 X0.000 Y55.000
N18900 (Part: выставка бот2 ƒубликат 269)
N18910 (Operation: Ѕез смещени€, 0, T0: ѕлазма, 0,8 мм прорез)
N18920 (€фч€ыф)
N18930 G01 z90
N18940 G00 Y55.000
N18950 G00 Z0.0 X0.000 Y00.000
N18960 G00 Z90.0 X0.000 Y55.000
N18970 (Part: выставка бот2 ƒубликат 270)
N18980 (Operation: Ѕез смещени€, 0, T0: ѕлазма, 0,8 мм прорез)
N18990 (€фч€ыф)
N19000 G01 z90
N19010 G00 Y55.000
N19020 G00 Z0.0 X0.000 Y00.000
N19030 G00 Z90.0 X0.000 Y55.000
N19040 (Part: выставка бот2 ƒубликат 271)
N19050 (Operation: Ѕез смещени€, 0, T0: ѕлазма, 0,8 мм прорез)
N19060 (€фч€ыф)
N19070 G01 z90
N19080 G00 Y55.000
N19090 G00 Z0.0 X0.000 Y00.000
N19100 G00 Z90.0 X0.000 Y55.000
N19110 (Part: выставка бот2 ƒубликат 272)
N19120 (Operation: Ѕез смещени€, 0, T0: ѕлазма, 0,8 мм прорез)
N19130 (€фч€ыф)
N19140 G01 z90
N19150 G00 Y55.000
N19160 G00 Z0.0 X0.000 Y00.000
N19170 G00 Z90.0 X0.000 Y55.000
N19180 (Part: выставка бот2 ƒубликат 273)
N19190 (Operation: Ѕез смещени€, 0, T0: ѕлазма, 0,8 мм прорез)
N19200 (€фч€ыф)
N19210 G01 z90
N19220 G00 Y55.000
N19230 G00 Z0.0 X0.000 Y00.000
N19240 G00 Z90.0 X0.000 Y55.000
N19250 (Part: выставка бот2 ƒубликат 274)
N19260 (Operation: Ѕез смещени€, 0, T0: ѕлазма, 0,8 мм прорез)
N19270 (€фч€ыф)
N19280 G01 z90
N19290 G00 Y55.000
N19300 G00 Z0.0 X0.000 Y00.000
N19310 G00 Z90.0 X0.000 Y55.000
N19320 (Part: выставка бот2 ƒубликат 275)
N19330 (Operation: Ѕез смещени€, 0, T0: ѕлазма, 0,8 мм прорез)
N19340 (€фч€ыф)
N19350 G01 z90
N19360 G00 Y55.000
N19370 G00 Z0.0 X0.000 Y00.000
N19380 G00 Z90.0 X0.000 Y55.000
N19390 (Part: выставка бот2 ƒубликат 276)
N19400 (Operation: Ѕез смещени€, 0, T0: ѕлазма, 0,8 мм прорез)
N19410 (€фч€ыф)
N19420 G01 z90
N19430 G00 Y55.000
N19440 G00 Z0.0 X0.000 Y00.000
N19450 G00 Z90.0 X0.000 Y55.000
N19460 (Part: выставка бот2 ƒубликат 277)
N19470 (Operation: Ѕез смещени€, 0, T0: ѕлазма, 0,8 мм прорез)
N19480 (€фч€ыф)
N19490 G01 z90
N19500 G00 Y55.000
N19510 G00 Z0.0 X0.000 Y00.000
N19520 G00 Z90.0 X0.000 Y55.000
N19530 (Part: выставка бот2 ƒубликат 278)
N19540 (Operation: Ѕез смещени€, 0, T0: ѕлазма, 0,8 мм прорез)
N19550 (€фч€ыф)
N19560 G01 z90
N19570 G00 Y55.000
N19580 G00 Z0.0 X0.000 Y00.000
N19590 G00 Z90.0 X0.000 Y55.000
N19600 (Part: выставка бот2 ƒубликат 279)
N19610 (Operation: Ѕез смещени€, 0, T0: ѕлазма, 0,8 мм прорез)
N19620 (€фч€ыф)
N19630 G01 z90
N19640 G00 Y55.000
N19650 G00 Z0.0 X0.000 Y00.000
N19660 G00 Z90.0 X0.000 Y55.000
N19670 (Part: выставка бот2 ƒубликат 280)
N19680 (Operation: Ѕез смещени€, 0, T0: ѕлазма, 0,8 мм прорез)
N19690 (€фч€ыф)
N19700 G01 z90
N19710 G00 Y55.000
N19720 G00 Z0.0 X0.000 Y00.000
N19730 G00 Z90.0 X0.000 Y55.000
N19740 (Part: выставка бот2 ƒубликат 281)
N19750 (Operation: Ѕез смещени€, 0, T0: ѕлазма, 0,8 мм прорез)
N19760 (€фч€ыф)
N19770 G01 z90
N19780 G00 Y55.000
N19790 G00 Z0.0 X0.000 Y00.000
N19800 G00 Z90.0 X0.000 Y55.000
N19810 (Part: выставка бот2 ƒубликат 282)
N19820 (Operation: Ѕез смещени€, 0, T0: ѕлазма, 0,8 мм прорез)
N19830 (€фч€ыф)
N19840 G01 z90
N19850 G00 Y55.000
N19860 G00 Z0.0 X0.000 Y00.000
N19870 G00 Z90.0 X0.000 Y55.000
N19880 (Part: выставка бот2 ƒубликат 283)
N19890 (Operation: Ѕез смещени€, 0, T0: ѕлазма, 0,8 мм прорез)
N19900 (€фч€ыф)
N19910 G01 z90
N19920 G00 Y55.000
N19930 G00 Z0.0 X0.000 Y00.000
N19940 G00 Z90.0 X0.000 Y55.000
N19950 (Part: выставка бот2 ƒубликат 284)
N19960 (Operation: Ѕез смещени€, 0, T0: ѕлазма, 0,8 мм прорез)
N19970 (€фч€ыф)
N19980 G01 z90
N19990 G00 Y55.000
N20000 G00 Z0.0 X0.000 Y00.000
N20010 G00 Z90.0 X0.000 Y55.000
N20020 (Part: выставка бот2 ƒубликат 285)
N20030 (Operation: Ѕез смещени€, 0, T0: ѕлазма, 0,8 мм прорез)
N20040 (€фч€ыф)
N20050 G01 z90
N20060 G00 Y55.000
N20070 G00 Z0.0 X0.000 Y00.000
N20080 G00 Z90.0 X0.000 Y55.000
N20090 (Part: выставка бот2 ƒубликат 286)
N20100 (Operation: Ѕез смещени€, 0, T0: ѕлазма, 0,8 мм прорез)
N20110 (€фч€ыф)
N20120 G01 z90
N20130 G00 Y55.000
N20140 G00 Z0.0 X0.000 Y00.000
N20150 G00 Z90.0 X0.000 Y55.000
N20160 (Part: выставка бот2 ƒубликат 287)
N20170 (Operation: Ѕез смещени€, 0, T0: ѕлазма, 0,8 мм прорез)
N20180 (€фч€ыф)
N20190 G01 z90
N20200 G00 Y55.000
N20210 G00 Z0.0 X0.000 Y00.000
N20220 G00 Z90.0 X0.000 Y55.000
N20230 (Part: выставка бот2 ƒубликат 288)
N20240 (Operation: Ѕез смещени€, 0, T0: ѕлазма, 0,8 мм прорез)
N20250 (€фч€ыф)
N20260 G01 z90
N20270 G00 Y55.000
N20280 G00 Z0.0 X0.000 Y00.000
N20290 G00 Z90.0 X0.000 Y55.000
N20300 (Part: выставка бот2 ƒубликат 289)
N20310 (Operation: Ѕез смещени€, 0, T0: ѕлазма, 0,8 мм прорез)
N20320 (€фч€ыф)
N20330 G01 z90
N20340 G00 Y55.000
N20350 G00 Z0.0 X0.000 Y00.000
N20360 G00 Z90.0 X0.000 Y55.000
N20370 (Part: выставка бот2 ƒубликат 290)
N20380 (Operation: Ѕез смещени€, 0, T0: ѕлазма, 0,8 мм прорез)
N20390 (€фч€ыф)
N20400 G01 z90
N20410 G00 Y55.000
N20420 G00 Z0.0 X0.000 Y00.000
N20430 G00 Z90.0 X0.000 Y55.000
N20440 (Part: выставка бот2 ƒубликат 291)
N20450 (Operation: Ѕез смещени€, 0, T0: ѕлазма, 0,8 мм прорез)
N20460 (€фч€ыф)
N20470 G01 z90
N20480 G00 Y55.000
N20490 G00 Z0.0 X0.000 Y00.000
N20500 G00 Z90.0 X0.000 Y55.000
N20510 (Part: выставка бот2 ƒубликат 292)
N20520 (Operation: Ѕез смещени€, 0, T0: ѕлазма, 0,8 мм прорез)
N20530 (€фч€ыф)
N20540 G01 z90
N20550 G00 Y55.000
N20560 G00 Z0.0 X0.000 Y00.000
N20570 G00 Z90.0 X0.000 Y55.000
N20580 (Part: выставка бот2 ƒубликат 293)
N20590 (Operation: Ѕез смещени€, 0, T0: ѕлазма, 0,8 мм прорез)
N20600 (€фч€ыф)
N20610 G01 z90
N20620 G00 Y55.000
N20630 G00 Z0.0 X0.000 Y00.000
N20640 G00 Z90.0 X0.000 Y55.000
N20650 (Part: выставка бот2 ƒубликат 294)
N20660 (Operation: Ѕез смещени€, 0, T0: ѕлазма, 0,8 мм прорез)
N20670 (€фч€ыф)
N20680 G01 z90
N20690 G00 Y55.000
N20700 G00 Z0.0 X0.000 Y00.000
N20710 G00 Z90.0 X0.000 Y55.000
N20720 (Part: выставка бот2 ƒубликат 295)
N20730 (Operation: Ѕез смещени€, 0, T0: ѕлазма, 0,8 мм прорез)
N20740 (€фч€ыф)
N20750 G01 z90
N20760 G00 Y55.000
N20770 G00 Z0.0 X0.000 Y00.000
N20780 G00 Z90.0 X0.000 Y55.000
N20790 (Part: выставка бот2 ƒубликат 296)
N20800 (Operation: Ѕез смещени€, 0, T0: ѕлазма, 0,8 мм прорез)
N20810 (€фч€ыф)
N20820 G01 z90
N20830 G00 Y55.000
N20840 G00 Z0.0 X0.000 Y00.000
N20850 G00 Z90.0 X0.000 Y55.000
N20860 (Part: выставка бот2 ƒубликат 297)
N20870 (Operation: Ѕез смещени€, 0, T0: ѕлазма, 0,8 мм прорез)
N20880 (€фч€ыф)
N20890 G01 z90
N20900 G00 Y55.000
N20910 G00 Z0.0 X0.000 Y00.000
N20920 G00 Z90.0 X0.000 Y55.000
N20930 (Part: выставка бот2 ƒубликат 298)
N20940 (Operation: Ѕез смещени€, 0, T0: ѕлазма, 0,8 мм прорез)
N20950 (€фч€ыф)
N20960 G01 z90
N20970 G00 Y55.000
N20980 G00 Z0.0 X0.000 Y00.000
N20990 G00 Z90.0 X0.000 Y55.000
N21000 (Part: выставка бот2 ƒубликат 299)
N21010 (Operation: Ѕез смещени€, 0, T0: ѕлазма, 0,8 мм прорез)
N21020 (€фч€ыф)
N21030 G01 z90
N21040 G00 Y55.000
N21050 G00 Z0.0 X0.000 Y00.000
N21060 G00 Z90.0 X0.000 Y55.000
N21070 (Part: выставка бот2 ƒубликат 300)
N21080 (Operation: Ѕез смещени€, 0, T0: ѕлазма, 0,8 мм прорез)
N21090 (€фч€ыф)
N21100 G01 z90
N21110 G00 Y55.000
N21120 G00 Z0.0 X0.000 Y00.000
N21130 G00 Z90.0 X0.000 Y55.000
N21140 (Part: выставка бот2 ƒубликат 301)
N21150 (Operation: Ѕез смещени€, 0, T0: ѕлазма, 0,8 мм прорез)
N21160 (€фч€ыф)
N21170 G01 z90
N21180 G00 Y55.000
N21190 G00 Z0.0 X0.000 Y00.000
N21200 G00 Z90.0 X0.000 Y55.000
N21210 (Part: выставка бот2 ƒубликат 302)
N21220 (Operation: Ѕез смещени€, 0, T0: ѕлазма, 0,8 мм прорез)
N21230 (€фч€ыф)
N21240 G01 z90
N21250 G00 Y55.000
N21260 G00 Z0.0 X0.000 Y00.000
N21270 G00 Z90.0 X0.000 Y55.000
N21280 (Part: выставка бот2 ƒубликат 303)
N21290 (Operation: Ѕез смещени€, 0, T0: ѕлазма, 0,8 мм прорез)
N21300 (€фч€ыф)
N21310 G01 z90
N21320 G00 Y55.000
N21330 G00 Z0.0 X0.000 Y00.000
N21340 G00 Z90.0 X0.000 Y55.000
N21350 (Part: выставка бот2 ƒубликат 304)
N21360 (Operation: Ѕез смещени€, 0, T0: ѕлазма, 0,8 мм прорез)
N21370 (€фч€ыф)
N21380 G01 z90
N21390 G00 Y55.000
N21400 G00 Z0.0 X0.000 Y00.000
N21410 G00 Z90.0 X0.000 Y55.000
N21420 (Part: выставка бот2 ƒубликат 305)
N21430 (Operation: Ѕез смещени€, 0, T0: ѕлазма, 0,8 мм прорез)
N21440 (€фч€ыф)
N21450 G01 z90
N21460 G00 Y55.000
N21470 G00 Z0.0 X0.000 Y00.000
N21480 G00 Z90.0 X0.000 Y55.000
N21490 (Part: выставка бот2 ƒубликат 306)
N21500 (Operation: Ѕез смещени€, 0, T0: ѕлазма, 0,8 мм прорез)
N21510 (€фч€ыф)
N21520 G01 z90
N21530 G00 Y55.000
N21540 G00 Z0.0 X0.000 Y00.000
N21550 G00 Z90.0 X0.000 Y55.000
N21560 (Part: выставка бот2 ƒубликат 307)
N21570 (Operation: Ѕез смещени€, 0, T0: ѕлазма, 0,8 мм прорез)
N21580 (€фч€ыф)
N21590 G01 z90
N21600 G00 Y55.000
N21610 G00 Z0.0 X0.000 Y00.000
N21620 G00 Z90.0 X0.000 Y55.000
N21630 (Part: выставка бот2 ƒубликат 308)
N21640 (Operation: Ѕез смещени€, 0, T0: ѕлазма, 0,8 мм прорез)
N21650 (€фч€ыф)
N21660 G01 z90
N21670 G00 Y55.000
N21680 G00 Z0.0 X0.000 Y00.000
N21690 G00 Z90.0 X0.000 Y55.000
N21700 (Part: выставка бот2 ƒубликат 309)
N21710 (Operation: Ѕез смещени€, 0, T0: ѕлазма, 0,8 мм прорез)
N21720 (€фч€ыф)
N21730 G01 z90
N21740 G00 Y55.000
N21750 G00 Z0.0 X0.000 Y00.000
N21760 G00 Z90.0 X0.000 Y55.000
N21770 (Part: выставка бот2 ƒубликат 310)
N21780 (Operation: Ѕез смещени€, 0, T0: ѕлазма, 0,8 мм прорез)
N21790 (€фч€ыф)
N21800 G01 z90
N21810 G00 Y55.000
N21820 G00 Z0.0 X0.000 Y00.000
N21830 G00 Z90.0 X0.000 Y55.000
N21840 (Part: выставка бот2 ƒубликат 311)
N21850 (Operation: Ѕез смещени€, 0, T0: ѕлазма, 0,8 мм прорез)
N21860 (€фч€ыф)
N21870 G01 z90
N21880 G00 Y55.000
N21890 G00 Z0.0 X0.000 Y00.000
N21900 G00 Z90.0 X0.000 Y55.000
N21910 (Part: выставка бот2 ƒубликат 312)
N21920 (Operation: Ѕез смещени€, 0, T0: ѕлазма, 0,8 мм прорез)
N21930 (€фч€ыф)
N21940 G01 z90
N21950 G00 Y55.000
N21960 G00 Z0.0 X0.000 Y00.000
N21970 G00 Z90.0 X0.000 Y55.000
N21980 (Part: выставка бот2 ƒубликат 313)
N21990 (Operation: Ѕез смещени€, 0, T0: ѕлазма, 0,8 мм прорез)
N22000 (€фч€ыф)
N22010 G01 z90
N22020 G00 Y55.000
N22030 G00 Z0.0 X0.000 Y00.000
N22040 G00 Z90.0 X0.000 Y55.000
N22050 (Part: выставка бот2 ƒубликат 314)
N22060 (Operation: Ѕез смещени€, 0, T0: ѕлазма, 0,8 мм прорез)
N22070 (€фч€ыф)
N22080 G01 z90
N22090 G00 Y55.000
N22100 G00 Z0.0 X0.000 Y00.000
N22110 G00 Z90.0 X0.000 Y55.000
N22120 (Part: выставка бот2 ƒубликат 315)
N22130 (Operation: Ѕез смещени€, 0, T0: ѕлазма, 0,8 мм прорез)
N22140 (€фч€ыф)
N22150 G01 z90
N22160 G00 Y55.000
N22170 G00 Z0.0 X0.000 Y00.000
N22180 G00 Z90.0 X0.000 Y55.000
N22190 (Part: выставка бот2 ƒубликат 316)
N22200 (Operation: Ѕез смещени€, 0, T0: ѕлазма, 0,8 мм прорез)
N22210 (€фч€ыф)
N22220 G01 z90
N22230 G00 Y55.000
N22240 G00 Z0.0 X0.000 Y00.000
N22250 G00 Z90.0 X0.000 Y55.000
N22260 (Part: выставка бот2 ƒубликат 317)
N22270 (Operation: Ѕез смещени€, 0, T0: ѕлазма, 0,8 мм прорез)
N22280 (€фч€ыф)
N22290 G01 z90
N22300 G00 Y55.000
N22310 G00 Z0.0 X0.000 Y00.000
N22320 G00 Z90.0 X0.000 Y55.000
N22330 (Part: выставка бот2 ƒубликат 318)
N22340 (Operation: Ѕез смещени€, 0, T0: ѕлазма, 0,8 мм прорез)
N22350 (€фч€ыф)
N22360 G01 z90
N22370 G00 Y55.000
N22380 G00 Z0.0 X0.000 Y00.000
N22390 G00 Z90.0 X0.000 Y55.000
N22400 (Part: выставка бот2 ƒубликат 319)
N22410 (Operation: Ѕез смещени€, 0, T0: ѕлазма, 0,8 мм прорез)
N22420 (€фч€ыф)
N22430 G01 z90
N22440 G00 Y55.000
N22450 G00 Z0.0 X0.000 Y00.000
N22460 G00 Z90.0 X0.000 Y55.000
N22470 (Part: выставка бот2 ƒубликат 320)
N22480 (Operation: Ѕез смещени€, 0, T0: ѕлазма, 0,8 мм прорез)
N22490 (€фч€ыф)
N22500 G01 z90
N22510 G00 Y55.000
N22520 G00 Z0.0 X0.000 Y00.000
N22530 G00 Z90.0 X0.000 Y55.000
N22540 (Part: выставка бот2 ƒубликат 321)
N22550 (Operation: Ѕез смещени€, 0, T0: ѕлазма, 0,8 мм прорез)
N22560 (€фч€ыф)
N22570 G01 z90
N22580 G00 Y55.000
N22590 G00 Z0.0 X0.000 Y00.000
N22600 G00 Z90.0 X0.000 Y55.000
N22610 (Part: выставка бот2 ƒубликат 322)
N22620 (Operation: Ѕез смещени€, 0, T0: ѕлазма, 0,8 мм прорез)
N22630 (€фч€ыф)
N22640 G01 z90
N22650 G00 Y55.000
N22660 G00 Z0.0 X0.000 Y00.000
N22670 G00 Z90.0 X0.000 Y55.000
N22680 (Part: выставка бот2 ƒубликат 323)
N22690 (Operation: Ѕез смещени€, 0, T0: ѕлазма, 0,8 мм прорез)
N22700 (€фч€ыф)
N22710 G01 z90
N22720 G00 Y55.000
N22730 G00 Z0.0 X0.000 Y00.000
N22740 G00 Z90.0 X0.000 Y55.000
N22750 (Part: выставка бот2 ƒубликат 324)
N22760 (Operation: Ѕез смещени€, 0, T0: ѕлазма, 0,8 мм прорез)
N22770 (€фч€ыф)
N22780 G01 z90
N22790 G00 Y55.000
N22800 G00 Z0.0 X0.000 Y00.000
N22810 G00 Z90.0 X0.000 Y55.000
N22820 (Part: выставка бот2 ƒубликат 325)
N22830 (Operation: Ѕез смещени€, 0, T0: ѕлазма, 0,8 мм прорез)
N22840 (€фч€ыф)
N22850 G01 z90
N22860 G00 Y55.000
N22870 G00 Z0.0 X0.000 Y00.000
N22880 G00 Z90.0 X0.000 Y55.000
N22890 (Part: выставка бот2 ƒубликат 326)
N22900 (Operation: Ѕез смещени€, 0, T0: ѕлазма, 0,8 мм прорез)
N22910 (€фч€ыф)
N22920 G01 z90
N22930 G00 Y55.000
N22940 G00 Z0.0 X0.000 Y00.000
N22950 G00 Z90.0 X0.000 Y55.000
N22960 (Part: выставка бот2 ƒубликат 327)
N22970 (Operation: Ѕез смещени€, 0, T0: ѕлазма, 0,8 мм прорез)
N22980 (€фч€ыф)
N22990 G01 z90
N23000 G00 Y55.000
N23010 G00 Z0.0 X0.000 Y00.000
N23020 G00 Z90.0 X0.000 Y55.000
N23030 (Part: выставка бот2 ƒубликат 328)
N23040 (Operation: Ѕез смещени€, 0, T0: ѕлазма, 0,8 мм прорез)
N23050 (€фч€ыф)
N23060 G01 z90
N23070 G00 Y55.000
N23080 G00 Z0.0 X0.000 Y00.000
N23090 G00 Z90.0 X0.000 Y55.000
N23100 (Part: выставка бот2 ƒубликат 329)
N23110 (Operation: Ѕез смещени€, 0, T0: ѕлазма, 0,8 мм прорез)
N23120 (€фч€ыф)
N23130 G01 z90
N23140 G00 Y55.000
N23150 G00 Z0.0 X0.000 Y00.000
N23160 G00 Z90.0 X0.000 Y55.000
N23170 (Part: выставка бот2 ƒубликат 330)
N23180 (Operation: Ѕез смещени€, 0, T0: ѕлазма, 0,8 мм прорез)
N23190 (€фч€ыф)
N23200 G01 z90
N23210 G00 Y55.000
N23220 G00 Z0.0 X0.000 Y00.000
N23230 G00 Z90.0 X0.000 Y55.000
N23240 (Part: выставка бот2 ƒубликат 331)
N23250 (Operation: Ѕез смещени€, 0, T0: ѕлазма, 0,8 мм прорез)
N23260 (€фч€ыф)
N23270 G01 z90
N23280 G00 Y55.000
N23290 G00 Z0.0 X0.000 Y00.000
N23300 G00 Z90.0 X0.000 Y55.000
N23310 (Part: выставка бот2 ƒубликат 332)
N23320 (Operation: Ѕез смещени€, 0, T0: ѕлазма, 0,8 мм прорез)
N23330 (€фч€ыф)
N23340 G01 z90
N23350 G00 Y55.000
N23360 G00 Z0.0 X0.000 Y00.000
N23370 G00 Z90.0 X0.000 Y55.000
N23380 (Part: выставка бот2 ƒубликат 333)
N23390 (Operation: Ѕез смещени€, 0, T0: ѕлазма, 0,8 мм прорез)
N23400 (€фч€ыф)
N23410 G01 z90
N23420 G00 Y55.000
N23430 G00 Z0.0 X0.000 Y00.000
N23440 G00 Z90.0 X0.000 Y55.000
N23450 (Part: выставка бот2 ƒубликат 334)
N23460 (Operation: Ѕез смещени€, 0, T0: ѕлазма, 0,8 мм прорез)
N23470 (€фч€ыф)
N23480 G01 z90
N23490 G00 Y55.000
N23500 G00 Z0.0 X0.000 Y00.000
N23510 G00 Z90.0 X0.000 Y55.000
N23520 (Part: выставка бот2 ƒубликат 335)
N23530 (Operation: Ѕез смещени€, 0, T0: ѕлазма, 0,8 мм прорез)
N23540 (€фч€ыф)
N23550 G01 z90
N23560 G00 Y55.000
N23570 G00 Z0.0 X0.000 Y00.000
N23580 G00 Z90.0 X0.000 Y55.000
N23590 (Part: выставка бот2 ƒубликат 336)
N23600 (Operation: Ѕез смещени€, 0, T0: ѕлазма, 0,8 мм прорез)
N23610 (€фч€ыф)
N23620 G01 z90
N23630 G00 Y55.000
N23640 G00 Z0.0 X0.000 Y00.000
N23650 G00 Z90.0 X0.000 Y55.000
N23660 (Part: выставка бот2 ƒубликат 337)
N23670 (Operation: Ѕез смещени€, 0, T0: ѕлазма, 0,8 мм прорез)
N23680 (€фч€ыф)
N23690 G01 z90
N23700 G00 Y55.000
N23710 G00 Z0.0 X0.000 Y00.000
N23720 G00 Z90.0 X0.000 Y55.000
N23730 (Part: выставка бот2 ƒубликат 338)
N23740 (Operation: Ѕез смещени€, 0, T0: ѕлазма, 0,8 мм прорез)
N23750 (€фч€ыф)
N23760 G01 z90
N23770 G00 Y55.000
N23780 G00 Z0.0 X0.000 Y00.000
N23790 G00 Z90.0 X0.000 Y55.000
N23800 (Part: выставка бот2 ƒубликат 339)
N23810 (Operation: Ѕез смещени€, 0, T0: ѕлазма, 0,8 мм прорез)
N23820 (€фч€ыф)
N23830 G01 z90
N23840 G00 Y55.000
N23850 G00 Z0.0 X0.000 Y00.000
N23860 G00 Z90.0 X0.000 Y55.000
N23870 (Part: выставка бот2 ƒубликат 340)
N23880 (Operation: Ѕез смещени€, 0, T0: ѕлазма, 0,8 мм прорез)
N23890 (€фч€ыф)
N23900 G01 z90
N23910 G00 Y55.000
N23920 G00 Z0.0 X0.000 Y00.000
N23930 G00 Z90.0 X0.000 Y55.000
N23940 (Part: выставка бот2 ƒубликат 341)
N23950 (Operation: Ѕез смещени€, 0, T0: ѕлазма, 0,8 мм прорез)
N23960 (€фч€ыф)
N23970 G01 z90
N23980 G00 Y55.000
N23990 G00 Z0.0 X0.000 Y00.000
N24000 G00 Z90.0 X0.000 Y55.000
N24010 (Part: выставка бот2 ƒубликат 342)
N24020 (Operation: Ѕез смещени€, 0, T0: ѕлазма, 0,8 мм прорез)
N24030 (€фч€ыф)
N24040 G01 z90
N24050 G00 Y55.000
N24060 G00 Z0.0 X0.000 Y00.000
N24070 G00 Z90.0 X0.000 Y55.000
N24080 (Part: выставка бот2 ƒубликат 343)
N24090 (Operation: Ѕез смещени€, 0, T0: ѕлазма, 0,8 мм прорез)
N24100 (€фч€ыф)
N24110 G01 z90
N24120 G00 Y55.000
N24130 G00 Z0.0 X0.000 Y00.000
N24140 G00 Z90.0 X0.000 Y55.000
N24150 (Part: выставка бот2 ƒубликат 344)
N24160 (Operation: Ѕез смещени€, 0, T0: ѕлазма, 0,8 мм прорез)
N24170 (€фч€ыф)
N24180 G01 z90
N24190 G00 Y55.000
N24200 G00 Z0.0 X0.000 Y00.000
N24210 G00 Z90.0 X0.000 Y55.000
N24220 (Part: выставка бот2 ƒубликат 345)
N24230 (Operation: Ѕез смещени€, 0, T0: ѕлазма, 0,8 мм прорез)
N24240 (€фч€ыф)
N24250 G01 z90
N24260 G00 Y55.000
N24270 G00 Z0.0 X0.000 Y00.000
N24280 G00 Z90.0 X0.000 Y55.000
N24290 (Part: выставка бот2 ƒубликат 346)
N24300 (Operation: Ѕез смещени€, 0, T0: ѕлазма, 0,8 мм прорез)
N24310 (€фч€ыф)
N24320 G01 z90
N24330 G00 Y55.000
N24340 G00 Z0.0 X0.000 Y00.000
N24350 G00 Z90.0 X0.000 Y55.000
N24360 (Part: выставка бот2 ƒубликат 347)
N24370 (Operation: Ѕез смещени€, 0, T0: ѕлазма, 0,8 мм прорез)
N24380 (€фч€ыф)
N24390 G01 z90
N24400 G00 Y55.000
N24410 G00 Z0.0 X0.000 Y00.000
N24420 G00 Z90.0 X0.000 Y55.000
N24430 (Part: выставка бот2 ƒубликат 348)
N24440 (Operation: Ѕез смещени€, 0, T0: ѕлазма, 0,8 мм прорез)
N24450 (€фч€ыф)
N24460 G01 z90
N24470 G00 Y55.000
N24480 G00 Z0.0 X0.000 Y00.000
N24490 G00 Z90.0 X0.000 Y55.000
N24500 (Part: выставка бот2 ƒубликат 349)
N24510 (Operation: Ѕез смещени€, 0, T0: ѕлазма, 0,8 мм прорез)
N24520 (€фч€ыф)
N24530 G01 z90
N24540 G00 Y55.000
N24550 G00 Z0.0 X0.000 Y00.000
N24560 G00 Z90.0 X0.000 Y55.000
N24570 (Part: выставка бот2 ƒубликат 350)
N24580 (Operation: Ѕез смещени€, 0, T0: ѕлазма, 0,8 мм прорез)
N24590 (€фч€ыф)
N24600 G01 z90
N24610 G00 Y55.000
N24620 G00 Z0.0 X0.000 Y00.000
N24630 G00 Z90.0 X0.000 Y55.000
N24640 (Part: выставка бот2 ƒубликат 351)
N24650 (Operation: Ѕез смещени€, 0, T0: ѕлазма, 0,8 мм прорез)
N24660 (€фч€ыф)
N24670 G01 z90
N24680 G00 Y55.000
N24690 G00 Z0.0 X0.000 Y00.000
N24700 G00 Z90.0 X0.000 Y55.000
N24710 (Part: выставка бот2 ƒубликат 352)
N24720 (Operation: Ѕез смещени€, 0, T0: ѕлазма, 0,8 мм прорез)
N24730 (€фч€ыф)
N24740 G01 z90
N24750 G00 Y55.000
N24760 G00 Z0.0 X0.000 Y00.000
N24770 G00 Z90.0 X0.000 Y55.000
N24780 (Part: выставка бот2 ƒубликат 353)
N24790 (Operation: Ѕез смещени€, 0, T0: ѕлазма, 0,8 мм прорез)
N24800 (€фч€ыф)
N24810 G01 z90
N24820 G00 Y55.000
N24830 G00 Z0.0 X0.000 Y00.000
N24840 G00 Z90.0 X0.000 Y55.000
N24850 (Part: выставка бот2 ƒубликат 354)
N24860 (Operation: Ѕез смещени€, 0, T0: ѕлазма, 0,8 мм прорез)
N24870 (€фч€ыф)
N24880 G01 z90
N24890 G00 Y55.000
N24900 G00 Z0.0 X0.000 Y00.000
N24910 G00 Z90.0 X0.000 Y55.000
N24920 (Part: выставка бот2 ƒубликат 355)
N24930 (Operation: Ѕез смещени€, 0, T0: ѕлазма, 0,8 мм прорез)
N24940 (€фч€ыф)
N24950 G01 z90
N24960 G00 Y55.000
N24970 G00 Z0.0 X0.000 Y00.000
N24980 G00 Z90.0 X0.000 Y55.000
N24990 (Part: выставка бот2 ƒубликат 356)
N25000 (Operation: Ѕез смещени€, 0, T0: ѕлазма, 0,8 мм прорез)
N25010 (€фч€ыф)
N25020 G01 z90
N25030 G00 Y55.000
N25040 G00 Z0.0 X0.000 Y00.000
N25050 G00 Z90.0 X0.000 Y55.000
N25060 (Part: выставка бот2 ƒубликат 357)
N25070 (Operation: Ѕез смещени€, 0, T0: ѕлазма, 0,8 мм прорез)
N25080 (€фч€ыф)
N25090 G01 z90
N25100 G00 Y55.000
N25110 G00 Z0.0 X0.000 Y00.000
N25120 G00 Z90.0 X0.000 Y55.000
N25130 (Part: выставка бот2 ƒубликат 358)
N25140 (Operation: Ѕез смещени€, 0, T0: ѕлазма, 0,8 мм прорез)
N25150 (€фч€ыф)
N25160 G01 z90
N25170 G00 Y55.000
N25180 G00 Z0.0 X0.000 Y00.000
N25190 G00 Z90.0 X0.000 Y55.000
N25200 (Part: выставка бот2 ƒубликат 359)
N25210 (Operation: Ѕез смещени€, 0, T0: ѕлазма, 0,8 мм прорез)
N25220 (€фч€ыф)
N25230 G01 z90
N25240 G00 Y55.000
N25250 G00 Z0.0 X0.000 Y00.000
N25260 G00 Z90.0 X0.000 Y55.000
N25270 (Part: выставка бот2 ƒубликат 360)
N25280 (Operation: Ѕез смещени€, 0, T0: ѕлазма, 0,8 мм прорез)
N25290 (€фч€ыф)
N25300 G01 z90
N25310 G00 Y55.000
N25320 G00 Z0.0 X0.000 Y00.000
N25330 G00 Z90.0 X0.000 Y55.000
N25340 (Part: выставка бот2 ƒубликат 361)
N25350 (Operation: Ѕез смещени€, 0, T0: ѕлазма, 0,8 мм прорез)
N25360 (€фч€ыф)
N25370 G01 z90
N25380 G00 Y55.000
N25390 G00 Z0.0 X0.000 Y00.000
N25400 G00 Z90.0 X0.000 Y55.000
N25410 (Part: выставка бот2 ƒубликат 362)
N25420 (Operation: Ѕез смещени€, 0, T0: ѕлазма, 0,8 мм прорез)
N25430 (€фч€ыф)
N25440 G01 z90
N25450 G00 Y55.000
N25460 G00 Z0.0 X0.000 Y00.000
N25470 G00 Z90.0 X0.000 Y55.000
N25480 (Part: выставка бот2 ƒубликат 363)
N25490 (Operation: Ѕез смещени€, 0, T0: ѕлазма, 0,8 мм прорез)
N25500 (€фч€ыф)
N25510 G01 z90
N25520 G00 Y55.000
N25530 G00 Z0.0 X0.000 Y00.000
N25540 G00 Z90.0 X0.000 Y55.000
N25550 (Part: выставка бот2 ƒубликат 364)
N25560 (Operation: Ѕез смещени€, 0, T0: ѕлазма, 0,8 мм прорез)
N25570 (€фч€ыф)
N25580 G01 z90
N25590 G00 Y55.000
N25600 G00 Z0.0 X0.000 Y00.000
N25610 G00 Z90.0 X0.000 Y55.000
N25620 (Part: выставка бот2 ƒубликат 365)
N25630 (Operation: Ѕез смещени€, 0, T0: ѕлазма, 0,8 мм прорез)
N25640 (€фч€ыф)
N25650 G01 z90
N25660 G00 Y55.000
N25670 G00 Z0.0 X0.000 Y00.000
N25680 G00 Z90.0 X0.000 Y55.000
N25690 (Part: выставка бот2 ƒубликат 366)
N25700 (Operation: Ѕез смещени€, 0, T0: ѕлазма, 0,8 мм прорез)
N25710 (€фч€ыф)
N25720 G01 z90
N25730 G00 Y55.000
N25740 G00 Z0.0 X0.000 Y00.000
N25750 G00 Z90.0 X0.000 Y55.000
N25760 (Part: выставка бот2 ƒубликат 367)
N25770 (Operation: Ѕез смещени€, 0, T0: ѕлазма, 0,8 мм прорез)
N25780 (€фч€ыф)
N25790 G01 z90
N25800 G00 Y55.000
N25810 G00 Z0.0 X0.000 Y00.000
N25820 G00 Z90.0 X0.000 Y55.000
N25830 (Part: выставка бот2 ƒубликат 368)
N25840 (Operation: Ѕез смещени€, 0, T0: ѕлазма, 0,8 мм прорез)
N25850 (€фч€ыф)
N25860 G01 z90
N25870 G00 Y55.000
N25880 G00 Z0.0 X0.000 Y00.000
N25890 G00 Z90.0 X0.000 Y55.000
N25900 (Part: выставка бот2 ƒубликат 369)
N25910 (Operation: Ѕез смещени€, 0, T0: ѕлазма, 0,8 мм прорез)
N25920 (€фч€ыф)
N25930 G01 z90
N25940 G00 Y55.000
N25950 G00 Z0.0 X0.000 Y00.000
N25960 G00 Z90.0 X0.000 Y55.000
N25970 (Part: выставка бот2 ƒубликат 370)
N25980 (Operation: Ѕез смещени€, 0, T0: ѕлазма, 0,8 мм прорез)
N25990 (€фч€ыф)
N26000 G01 z90
N26010 G00 Y55.000
N26020 G00 Z0.0 X0.000 Y00.000
N26030 G00 Z90.0 X0.000 Y55.000
N26040 (Part: выставка бот2 ƒубликат 371)
N26050 (Operation: Ѕез смещени€, 0, T0: ѕлазма, 0,8 мм прорез)
N26060 (€фч€ыф)
N26070 G01 z90
N26080 G00 Y55.000
N26090 G00 Z0.0 X0.000 Y00.000
N26100 G00 Z90.0 X0.000 Y55.000
N26110 (Part: выставка бот2 ƒубликат 372)
N26120 (Operation: Ѕез смещени€, 0, T0: ѕлазма, 0,8 мм прорез)
N26130 (€фч€ыф)
N26140 G01 z90
N26150 G00 Y55.000
N26160 G00 Z0.0 X0.000 Y00.000
N26170 G00 Z90.0 X0.000 Y55.000
N26180 (Part: выставка бот2 ƒубликат 373)
N26190 (Operation: Ѕез смещени€, 0, T0: ѕлазма, 0,8 мм прорез)
N26200 (€фч€ыф)
N26210 G01 z90
N26220 G00 Y55.000
N26230 G00 Z0.0 X0.000 Y00.000
N26240 G00 Z90.0 X0.000 Y55.000
N26250 (Part: выставка бот2 ƒубликат 374)
N26260 (Operation: Ѕез смещени€, 0, T0: ѕлазма, 0,8 мм прорез)
N26270 (€фч€ыф)
N26280 G01 z90
N26290 G00 Y55.000
N26300 G00 Z0.0 X0.000 Y00.000
N26310 G00 Z90.0 X0.000 Y55.000
N26320 (Part: выставка бот2 ƒубликат 375)
N26330 (Operation: Ѕез смещени€, 0, T0: ѕлазма, 0,8 мм прорез)
N26340 (€фч€ыф)
N26350 G01 z90
N26360 G00 Y55.000
N26370 G00 Z0.0 X0.000 Y00.000
N26380 G00 Z90.0 X0.000 Y55.000
N26390 (Part: выставка бот2 ƒубликат 376)
N26400 (Operation: Ѕез смещени€, 0, T0: ѕлазма, 0,8 мм прорез)
N26410 (€фч€ыф)
N26420 G01 z90
N26430 G00 Y55.000
N26440 G00 Z0.0 X0.000 Y00.000
N26450 G00 Z90.0 X0.000 Y55.000
N26460 (Part: выставка бот2 ƒубликат 377)
N26470 (Operation: Ѕез смещени€, 0, T0: ѕлазма, 0,8 мм прорез)
N26480 (€фч€ыф)
N26490 G01 z90
N26500 G00 Y55.000
N26510 G00 Z0.0 X0.000 Y00.000
N26520 G00 Z90.0 X0.000 Y55.000
N26530 (Part: выставка бот2 ƒубликат 378)
N26540 (Operation: Ѕез смещени€, 0, T0: ѕлазма, 0,8 мм прорез)
N26550 (€фч€ыф)
N26560 G01 z90
N26570 G00 Y55.000
N26580 G00 Z0.0 X0.000 Y00.000
N26590 G00 Z90.0 X0.000 Y55.000
N26600 (Part: выставка бот2 ƒубликат 379)
N26610 (Operation: Ѕез смещени€, 0, T0: ѕлазма, 0,8 мм прорез)
N26620 (€фч€ыф)
N26630 G01 z90
N26640 G00 Y55.000
N26650 G00 Z0.0 X0.000 Y00.000
N26660 G00 Z90.0 X0.000 Y55.000
N26670 (Part: выставка бот2 ƒубликат 380)
N26680 (Operation: Ѕез смещени€, 0, T0: ѕлазма, 0,8 мм прорез)
N26690 (€фч€ыф)
N26700 G01 z90
N26710 G00 Y55.000
N26720 G00 Z0.0 X0.000 Y00.000
N26730 G00 Z90.0 X0.000 Y55.000
N26740 (Part: выставка бот2 ƒубликат 381)
N26750 (Operation: Ѕез смещени€, 0, T0: ѕлазма, 0,8 мм прорез)
N26760 (€фч€ыф)
N26770 G01 z90
N26780 G00 Y55.000
N26790 G00 Z0.0 X0.000 Y00.000
N26800 G00 Z90.0 X0.000 Y55.000
N26810 (Part: выставка бот2 ƒубликат 382)
N26820 (Operation: Ѕез смещени€, 0, T0: ѕлазма, 0,8 мм прорез)
N26830 (€фч€ыф)
N26840 G01 z90
N26850 G00 Y55.000
N26860 G00 Z0.0 X0.000 Y00.000
N26870 G00 Z90.0 X0.000 Y55.000
N26880 (Part: выставка бот2 ƒубликат 383)
N26890 (Operation: Ѕез смещени€, 0, T0: ѕлазма, 0,8 мм прорез)
N26900 (€фч€ыф)
N26910 G01 z90
N26920 G00 Y55.000
N26930 G00 Z0.0 X0.000 Y00.000
N26940 G00 Z90.0 X0.000 Y55.000
N26950 (Part: выставка бот2 ƒубликат 384)
N26960 (Operation: Ѕез смещени€, 0, T0: ѕлазма, 0,8 мм прорез)
N26970 (€фч€ыф)
N26980 G01 z90
N26990 G00 Y55.000
N27000 G00 Z0.0 X0.000 Y00.000
N27010 G00 Z90.0 X0.000 Y55.000
N27020 (Part: выставка бот2 ƒубликат 385)
N27030 (Operation: Ѕез смещени€, 0, T0: ѕлазма, 0,8 мм прорез)
N27040 (€фч€ыф)
N27050 G01 z90
N27060 G00 Y55.000
N27070 G00 Z0.0 X0.000 Y00.000
N27080 G00 Z90.0 X0.000 Y55.000
N27090 (Part: выставка бот2 ƒубликат 386)
N27100 (Operation: Ѕез смещени€, 0, T0: ѕлазма, 0,8 мм прорез)
N27110 (€фч€ыф)
N27120 G01 z90
N27130 G00 Y55.000
N27140 G00 Z0.0 X0.000 Y00.000
N27150 G00 Z90.0 X0.000 Y55.000
N27160 (Part: выставка бот2 ƒубликат 387)
N27170 (Operation: Ѕез смещени€, 0, T0: ѕлазма, 0,8 мм прорез)
N27180 (€фч€ыф)
N27190 G01 z90
N27200 G00 Y55.000
N27210 G00 Z0.0 X0.000 Y00.000
N27220 G00 Z90.0 X0.000 Y55.000
N27230 (Part: выставка бот2 ƒубликат 388)
N27240 (Operation: Ѕез смещени€, 0, T0: ѕлазма, 0,8 мм прорез)
N27250 (€фч€ыф)
N27260 G01 z90
N27270 G00 Y55.000
N27280 G00 Z0.0 X0.000 Y00.000
N27290 G00 Z90.0 X0.000 Y55.000
N27300 (Part: выставка бот2 ƒубликат 389)
N27310 (Operation: Ѕез смещени€, 0, T0: ѕлазма, 0,8 мм прорез)
N27320 (€фч€ыф)
N27330 G01 z90
N27340 G00 Y55.000
N27350 G00 Z0.0 X0.000 Y00.000
N27360 G00 Z90.0 X0.000 Y55.000
N27370 (Part: выставка бот2 ƒубликат 390)
N27380 (Operation: Ѕез смещени€, 0, T0: ѕлазма, 0,8 мм прорез)
N27390 (€фч€ыф)
N27400 G01 z90
N27410 G00 Y55.000
N27420 G00 Z0.0 X0.000 Y00.000
N27430 G00 Z90.0 X0.000 Y55.000
N27440 (Part: выставка бот2 ƒубликат 391)
N27450 (Operation: Ѕез смещени€, 0, T0: ѕлазма, 0,8 мм прорез)
N27460 (€фч€ыф)
N27470 G01 z90
N27480 G00 Y55.000
N27490 G00 Z0.0 X0.000 Y00.000
N27500 G00 Z90.0 X0.000 Y55.000
N27510 (Part: выставка бот2 ƒубликат 392)
N27520 (Operation: Ѕез смещени€, 0, T0: ѕлазма, 0,8 мм прорез)
N27530 (€фч€ыф)
N27540 G01 z90
N27550 G00 Y55.000
N27560 G00 Z0.0 X0.000 Y00.000
N27570 G00 Z90.0 X0.000 Y55.000
N27580 (Part: выставка бот2 ƒубликат 393)
N27590 (Operation: Ѕез смещени€, 0, T0: ѕлазма, 0,8 мм прорез)
N27600 (€фч€ыф)
N27610 G01 z90
N27620 G00 Y55.000
N27630 G00 Z0.0 X0.000 Y00.000
N27640 G00 Z90.0 X0.000 Y55.000
N27650 (Part: выставка бот2 ƒубликат 394)
N27660 (Operation: Ѕез смещени€, 0, T0: ѕлазма, 0,8 мм прорез)
N27670 (€фч€ыф)
N27680 G01 z90
N27690 G00 Y55.000
N27700 G00 Z0.0 X0.000 Y00.000
N27710 G00 Z90.0 X0.000 Y55.000
N27720 (Part: выставка бот2 ƒубликат 395)
N27730 (Operation: Ѕез смещени€, 0, T0: ѕлазма, 0,8 мм прорез)
N27740 (€фч€ыф)
N27750 G01 z90
N27760 G00 Y55.000
N27770 G00 Z0.0 X0.000 Y00.000
N27780 G00 Z90.0 X0.000 Y55.000
N27790 (Part: выставка бот2 ƒубликат 396)
N27800 (Operation: Ѕез смещени€, 0, T0: ѕлазма, 0,8 мм прорез)
N27810 (€фч€ыф)
N27820 G01 z90
N27830 G00 Y55.000
N27840 G00 Z0.0 X0.000 Y00.000
N27850 G00 Z90.0 X0.000 Y55.000
N27860 (Part: выставка бот2 ƒубликат 397)
N27870 (Operation: Ѕез смещени€, 0, T0: ѕлазма, 0,8 мм прорез)
N27880 (€фч€ыф)
N27890 G01 z90
N27900 G00 Y55.000
N27910 G00 Z0.0 X0.000 Y00.000
N27920 G00 Z90.0 X0.000 Y55.000
N27930 (Part: выставка бот2 ƒубликат 398)
N27940 (Operation: Ѕез смещени€, 0, T0: ѕлазма, 0,8 мм прорез)
N27950 (€фч€ыф)
N27960 G01 z90
N27970 G00 Y55.000
N27980 G00 Z0.0 X0.000 Y00.000
N27990 G00 Z90.0 X0.000 Y55.000
N28000 (Part: выставка бот2 ƒубликат 399)
N28010 (Operation: Ѕез смещени€, 0, T0: ѕлазма, 0,8 мм прорез)
N28020 (€фч€ыф)
N28030 G01 z90
N28040 G00 Y55.000
N28050 G00 Z0.0 X0.000 Y00.000
N28060 G00 Z90.0 X0.000 Y55.000
N28070 (Part: выставка бот2 ƒубликат 400)
N28080 (Operation: Ѕез смещени€, 0, T0: ѕлазма, 0,8 мм прорез)
N28090 (€фч€ыф)
N28100 G01 z90
N28110 G00 Y55.000
N28120 G00 Z0.0 X0.000 Y00.000
N28130 G00 Z90.0 X0.000 Y55.000
N28140 (Part: выставка бот2 ƒубликат 401)
N28150 (Operation: Ѕез смещени€, 0, T0: ѕлазма, 0,8 мм прорез)
N28160 (€фч€ыф)
N28170 G01 z90
N28180 G00 Y55.000
N28190 G00 Z0.0 X0.000 Y00.000
N28200 G00 Z90.0 X0.000 Y55.000
N28210 (Part: выставка бот2 ƒубликат 402)
N28220 (Operation: Ѕез смещени€, 0, T0: ѕлазма, 0,8 мм прорез)
N28230 (€фч€ыф)
N28240 G01 z90
N28250 G00 Y55.000
N28260 G00 Z0.0 X0.000 Y00.000
N28270 G00 Z90.0 X0.000 Y55.000
N28280 (Part: выставка бот2 ƒубликат 403)
N28290 (Operation: Ѕез смещени€, 0, T0: ѕлазма, 0,8 мм прорез)
N28300 (€фч€ыф)
N28310 G01 z90
N28320 G00 Y55.000
N28330 G00 Z0.0 X0.000 Y00.000
N28340 G00 Z90.0 X0.000 Y55.000
N28350 (Part: выставка бот2 ƒубликат 404)
N28360 (Operation: Ѕез смещени€, 0, T0: ѕлазма, 0,8 мм прорез)
N28370 (€фч€ыф)
N28380 G01 z90
N28390 G00 Y55.000
N28400 G00 Z0.0 X0.000 Y00.000
N28410 G00 Z90.0 X0.000 Y55.000
N28420 (Part: выставка бот2 ƒубликат 405)
N28430 (Operation: Ѕез смещени€, 0, T0: ѕлазма, 0,8 мм прорез)
N28440 (€фч€ыф)
N28450 G01 z90
N28460 G00 Y55.000
N28470 G00 Z0.0 X0.000 Y00.000
N28480 G00 Z90.0 X0.000 Y55.000
N28490 (Part: выставка бот2 ƒубликат 406)
N28500 (Operation: Ѕез смещени€, 0, T0: ѕлазма, 0,8 мм прорез)
N28510 (€фч€ыф)
N28520 G01 z90
N28530 G00 Y55.000
N28540 G00 Z0.0 X0.000 Y00.000
N28550 G00 Z90.0 X0.000 Y55.000
N28560 (Part: выставка бот2 ƒубликат 407)
N28570 (Operation: Ѕез смещени€, 0, T0: ѕлазма, 0,8 мм прорез)
N28580 (€фч€ыф)
N28590 G01 z90
N28600 G00 Y55.000
N28610 G00 Z0.0 X0.000 Y00.000
N28620 G00 Z90.0 X0.000 Y55.000
N28630 (Part: выставка бот2 ƒубликат 408)
N28640 (Operation: Ѕез смещени€, 0, T0: ѕлазма, 0,8 мм прорез)
N28650 (€фч€ыф)
N28660 G01 z90
N28670 G00 Y55.000
N28680 G00 Z0.0 X0.000 Y00.000
N28690 G00 Z90.0 X0.000 Y55.000
N28700 (Part: выставка бот2 ƒубликат 409)
N28710 (Operation: Ѕез смещени€, 0, T0: ѕлазма, 0,8 мм прорез)
N28720 (€фч€ыф)
N28730 G01 z90
N28740 G00 Y55.000
N28750 G00 Z0.0 X0.000 Y00.000
N28760 G00 Z90.0 X0.000 Y55.000
N28770 (Part: выставка бот2 ƒубликат 410)
N28780 (Operation: Ѕез смещени€, 0, T0: ѕлазма, 0,8 мм прорез)
N28790 (€фч€ыф)
N28800 G01 z90
N28810 G00 Y55.000
N28820 G00 Z0.0 X0.000 Y00.000
N28830 G00 Z90.0 X0.000 Y55.000
N28840 (Part: выставка бот2 ƒубликат 411)
N28850 (Operation: Ѕез смещени€, 0, T0: ѕлазма, 0,8 мм прорез)
N28860 (€фч€ыф)
N28870 G01 z90
N28880 G00 Y55.000
N28890 G00 Z0.0 X0.000 Y00.000
N28900 G00 Z90.0 X0.000 Y55.000
N28910 (Part: выставка бот2 ƒубликат 412)
N28920 (Operation: Ѕез смещени€, 0, T0: ѕлазма, 0,8 мм прорез)
N28930 (€фч€ыф)
N28940 G01 z90
N28950 G00 Y55.000
N28960 G00 Z0.0 X0.000 Y00.000
N28970 G00 Z90.0 X0.000 Y55.000
N28980 (Part: выставка бот2 ƒубликат 413)
N28990 (Operation: Ѕез смещени€, 0, T0: ѕлазма, 0,8 мм прорез)
N29000 (€фч€ыф)
N29010 G01 z90
N29020 G00 Y55.000
N29030 G00 Z0.0 X0.000 Y00.000
N29040 G00 Z90.0 X0.000 Y55.000
N29050 (Part: выставка бот2 ƒубликат 414)
N29060 (Operation: Ѕез смещени€, 0, T0: ѕлазма, 0,8 мм прорез)
N29070 (€фч€ыф)
N29080 G01 z90
N29090 G00 Y55.000
N29100 G00 Z0.0 X0.000 Y00.000
N29110 G00 Z90.0 X0.000 Y55.000
N29120 (Part: выставка бот2 ƒубликат 415)
N29130 (Operation: Ѕез смещени€, 0, T0: ѕлазма, 0,8 мм прорез)
N29140 (€фч€ыф)
N29150 G01 z90
N29160 G00 Y55.000
N29170 G00 Z0.0 X0.000 Y00.000
N29180 G00 Z90.0 X0.000 Y55.000
N29190 (Part: выставка бот2 ƒубликат 416)
N29200 (Operation: Ѕез смещени€, 0, T0: ѕлазма, 0,8 мм прорез)
N29210 (€фч€ыф)
N29220 G01 z90
N29230 G00 Y55.000
N29240 G00 Z0.0 X0.000 Y00.000
N29250 G00 Z90.0 X0.000 Y55.000
N29260 (Part: выставка бот2 ƒубликат 417)
N29270 (Operation: Ѕез смещени€, 0, T0: ѕлазма, 0,8 мм прорез)
N29280 (€фч€ыф)
N29290 G01 z90
N29300 G00 Y55.000
N29310 G00 Z0.0 X0.000 Y00.000
N29320 G00 Z90.0 X0.000 Y55.000
N29330 (Part: выставка бот2 ƒубликат 418)
N29340 (Operation: Ѕез смещени€, 0, T0: ѕлазма, 0,8 мм прорез)
N29350 (€фч€ыф)
N29360 G01 z90
N29370 G00 Y55.000
N29380 G00 Z0.0 X0.000 Y00.000
N29390 G00 Z90.0 X0.000 Y55.000
N29400 (Part: выставка бот2 ƒубликат 419)
N29410 (Operation: Ѕез смещени€, 0, T0: ѕлазма, 0,8 мм прорез)
N29420 (€фч€ыф)
N29430 G01 z90
N29440 G00 Y55.000
N29450 G00 Z0.0 X0.000 Y00.000
N29460 G00 Z90.0 X0.000 Y55.000
N29470 (Part: выставка бот2 ƒубликат 420)
N29480 (Operation: Ѕез смещени€, 0, T0: ѕлазма, 0,8 мм прорез)
N29490 (€фч€ыф)
N29500 G01 z90
N29510 G00 Y55.000
N29520 G00 Z0.0 X0.000 Y00.000
N29530 G00 Z90.0 X0.000 Y55.000
N29540 (Part: выставка бот2 ƒубликат 421)
N29550 (Operation: Ѕез смещени€, 0, T0: ѕлазма, 0,8 мм прорез)
N29560 (€фч€ыф)
N29570 G01 z90
N29580 G00 Y55.000
N29590 G00 Z0.0 X0.000 Y00.000
N29600 G00 Z90.0 X0.000 Y55.000
N29610 (Part: выставка бот2 ƒубликат 422)
N29620 (Operation: Ѕез смещени€, 0, T0: ѕлазма, 0,8 мм прорез)
N29630 (€фч€ыф)
N29640 G01 z90
N29650 G00 Y55.000
N29660 G00 Z0.0 X0.000 Y00.000
N29670 G00 Z90.0 X0.000 Y55.000
N29680 (Part: выставка бот2 ƒубликат 423)
N29690 (Operation: Ѕез смещени€, 0, T0: ѕлазма, 0,8 мм прорез)
N29700 (€фч€ыф)
N29710 G01 z90
N29720 G00 Y55.000
N29730 G00 Z0.0 X0.000 Y00.000
N29740 G00 Z90.0 X0.000 Y55.000
N29750 (Part: выставка бот2 ƒубликат 424)
N29760 (Operation: Ѕез смещени€, 0, T0: ѕлазма, 0,8 мм прорез)
N29770 (€фч€ыф)
N29780 G01 z90
N29790 G00 Y55.000
N29800 G00 Z0.0 X0.000 Y00.000
N29810 G00 Z90.0 X0.000 Y55.000
N29820 (Part: выставка бот2 ƒубликат 425)
N29830 (Operation: Ѕез смещени€, 0, T0: ѕлазма, 0,8 мм прорез)
N29840 (€фч€ыф)
N29850 G01 z90
N29860 G00 Y55.000
N29870 G00 Z0.0 X0.000 Y00.000
N29880 G00 Z90.0 X0.000 Y55.000
N29890 (Part: выставка бот2 ƒубликат 426)
N29900 (Operation: Ѕез смещени€, 0, T0: ѕлазма, 0,8 мм прорез)
N29910 (€фч€ыф)
N29920 G01 z90
N29930 G00 Y55.000
N29940 G00 Z0.0 X0.000 Y00.000
N29950 G00 Z90.0 X0.000 Y55.000
N29960 (Part: выставка бот2 ƒубликат 427)
N29970 (Operation: Ѕез смещени€, 0, T0: ѕлазма, 0,8 мм прорез)
N29980 (€фч€ыф)
N29990 G01 z90
N30000 G00 Y55.000
N30010 G00 Z0.0 X0.000 Y00.000
N30020 G00 Z90.0 X0.000 Y55.000
N30030 (Part: выставка бот2 ƒубликат 428)
N30040 (Operation: Ѕез смещени€, 0, T0: ѕлазма, 0,8 мм прорез)
N30050 (€фч€ыф)
N30060 G01 z90
N30070 G00 Y55.000
N30080 G00 Z0.0 X0.000 Y00.000
N30090 G00 Z90.0 X0.000 Y55.000
N30100 (Part: выставка бот2 ƒубликат 429)
N30110 (Operation: Ѕез смещени€, 0, T0: ѕлазма, 0,8 мм прорез)
N30120 (€фч€ыф)
N30130 G01 z90
N30140 G00 Y55.000
N30150 G00 Z0.0 X0.000 Y00.000
N30160 G00 Z90.0 X0.000 Y55.000
N30170 (Part: выставка бот2 ƒубликат 430)
N30180 (Operation: Ѕез смещени€, 0, T0: ѕлазма, 0,8 мм прорез)
N30190 (€фч€ыф)
N30200 G01 z90
N30210 G00 Y55.000
N30220 G00 Z0.0 X0.000 Y00.000
N30230 G00 Z90.0 X0.000 Y55.000
N30240 (Part: выставка бот2 ƒубликат 431)
N30250 (Operation: Ѕез смещени€, 0, T0: ѕлазма, 0,8 мм прорез)
N30260 (€фч€ыф)
N30270 G01 z90
N30280 G00 Y55.000
N30290 G00 Z0.0 X0.000 Y00.000
N30300 G00 Z90.0 X0.000 Y55.000
N30310 (Part: выставка бот2 ƒубликат 432)
N30320 (Operation: Ѕез смещени€, 0, T0: ѕлазма, 0,8 мм прорез)
N30330 (€фч€ыф)
N30340 G01 z90
N30350 G00 Y55.000
N30360 G00 Z0.0 X0.000 Y00.000
N30370 G00 Z90.0 X0.000 Y55.000
N30380 (Part: выставка бот2 ƒубликат 433)
N30390 (Operation: Ѕез смещени€, 0, T0: ѕлазма, 0,8 мм прорез)
N30400 (€фч€ыф)
N30410 G01 z90
N30420 G00 Y55.000
N30430 G00 Z0.0 X0.000 Y00.000
N30440 G00 Z90.0 X0.000 Y55.000
N30450 (Part: выставка бот2 ƒубликат 434)
N30460 (Operation: Ѕез смещени€, 0, T0: ѕлазма, 0,8 мм прорез)
N30470 (€фч€ыф)
N30480 G01 z90
N30490 G00 Y55.000
N30500 G00 Z0.0 X0.000 Y00.000
N30510 G00 Z90.0 X0.000 Y55.000
N30520 (Part: выставка бот2 ƒубликат 435)
N30530 (Operation: Ѕез смещени€, 0, T0: ѕлазма, 0,8 мм прорез)
N30540 (€фч€ыф)
N30550 G01 z90
N30560 G00 Y55.000
N30570 G00 Z0.0 X0.000 Y00.000
N30580 G00 Z90.0 X0.000 Y55.000
N30590 (Part: выставка бот2 ƒубликат 436)
N30600 (Operation: Ѕез смещени€, 0, T0: ѕлазма, 0,8 мм прорез)
N30610 (€фч€ыф)
N30620 G01 z90
N30630 G00 Y55.000
N30640 G00 Z0.0 X0.000 Y00.000
N30650 G00 Z90.0 X0.000 Y55.000
N30660 (Part: выставка бот2 ƒубликат 437)
N30670 (Operation: Ѕез смещени€, 0, T0: ѕлазма, 0,8 мм прорез)
N30680 (€фч€ыф)
N30690 G01 z90
N30700 G00 Y55.000
N30710 G00 Z0.0 X0.000 Y00.000
N30720 G00 Z90.0 X0.000 Y55.000
N30730 (Part: выставка бот2 ƒубликат 438)
N30740 (Operation: Ѕез смещени€, 0, T0: ѕлазма, 0,8 мм прорез)
N30750 (€фч€ыф)
N30760 G01 z90
N30770 G00 Y55.000
N30780 G00 Z0.0 X0.000 Y00.000
N30790 G00 Z90.0 X0.000 Y55.000
N30800 (Part: выставка бот2 ƒубликат 439)
N30810 (Operation: Ѕез смещени€, 0, T0: ѕлазма, 0,8 мм прорез)
N30820 (€фч€ыф)
N30830 G01 z90
N30840 G00 Y55.000
N30850 G00 Z0.0 X0.000 Y00.000
N30860 G00 Z90.0 X0.000 Y55.000
N30870 (Part: выставка бот2 ƒубликат 440)
N30880 (Operation: Ѕез смещени€, 0, T0: ѕлазма, 0,8 мм прорез)
N30890 (€фч€ыф)
N30900 G01 z90
N30910 G00 Y55.000
N30920 G00 Z0.0 X0.000 Y00.000
N30930 G00 Z90.0 X0.000 Y55.000
N30940 (Part: выставка бот2 ƒубликат 441)
N30950 (Operation: Ѕез смещени€, 0, T0: ѕлазма, 0,8 мм прорез)
N30960 (€фч€ыф)
N30970 G01 z90
N30980 G00 Y55.000
N30990 G00 Z0.0 X0.000 Y00.000
N31000 G00 Z90.0 X0.000 Y55.000
N31010 (Part: выставка бот2 ƒубликат 442)
N31020 (Operation: Ѕез смещени€, 0, T0: ѕлазма, 0,8 мм прорез)
N31030 (€фч€ыф)
N31040 G01 z90
N31050 G00 Y55.000
N31060 G00 Z0.0 X0.000 Y00.000
N31070 G00 Z90.0 X0.000 Y55.000
N31080 (Part: выставка бот2 ƒубликат 443)
N31090 (Operation: Ѕез смещени€, 0, T0: ѕлазма, 0,8 мм прорез)
N31100 (€фч€ыф)
N31110 G01 z90
N31120 G00 Y55.000
N31130 G00 Z0.0 X0.000 Y00.000
N31140 G00 Z90.0 X0.000 Y55.000
N31150 (Part: выставка бот2 ƒубликат 444)
N31160 (Operation: Ѕез смещени€, 0, T0: ѕлазма, 0,8 мм прорез)
N31170 (€фч€ыф)
N31180 G01 z90
N31190 G00 Y55.000
N31200 G00 Z0.0 X0.000 Y00.000
N31210 G00 Z90.0 X0.000 Y55.000
N31220 (Part: выставка бот2 ƒубликат 445)
N31230 (Operation: Ѕез смещени€, 0, T0: ѕлазма, 0,8 мм прорез)
N31240 (€фч€ыф)
N31250 G01 z90
N31260 G00 Y55.000
N31270 G00 Z0.0 X0.000 Y00.000
N31280 G00 Z90.0 X0.000 Y55.000
N31290 (Part: выставка бот2 ƒубликат 446)
N31300 (Operation: Ѕез смещени€, 0, T0: ѕлазма, 0,8 мм прорез)
N31310 (€фч€ыф)
N31320 G01 z90
N31330 G00 Y55.000
N31340 G00 Z0.0 X0.000 Y00.000
N31350 G00 Z90.0 X0.000 Y55.000
N31360 (Part: выставка бот2 ƒубликат 447)
N31370 (Operation: Ѕез смещени€, 0, T0: ѕлазма, 0,8 мм прорез)
N31380 (€фч€ыф)
N31390 G01 z90
N31400 G00 Y55.000
N31410 G00 Z0.0 X0.000 Y00.000
N31420 G00 Z90.0 X0.000 Y55.000
N31430 (Part: выставка бот2 ƒубликат 448)
N31440 (Operation: Ѕез смещени€, 0, T0: ѕлазма, 0,8 мм прорез)
N31450 (€фч€ыф)
N31460 G01 z90
N31470 G00 Y55.000
N31480 G00 Z0.0 X0.000 Y00.000
N31490 G00 Z90.0 X0.000 Y55.000
N31500 (Part: выставка бот2 ƒубликат 449)
N31510 (Operation: Ѕез смещени€, 0, T0: ѕлазма, 0,8 мм прорез)
N31520 (€фч€ыф)
N31530 G01 z90
N31540 G00 Y55.000
N31550 G00 Z0.0 X0.000 Y00.000
N31560 G00 Z90.0 X0.000 Y55.000
N31570 (Part: выставка бот2 ƒубликат 450)
N31580 (Operation: Ѕез смещени€, 0, T0: ѕлазма, 0,8 мм прорез)
N31590 (€фч€ыф)
N31600 G01 z90
N31610 G00 Y55.000
N31620 G00 Z0.0 X0.000 Y00.000
N31630 G00 Z90.0 X0.000 Y55.000
N31640 (Part: выставка бот2 ƒубликат 451)
N31650 (Operation: Ѕез смещени€, 0, T0: ѕлазма, 0,8 мм прорез)
N31660 (€фч€ыф)
N31670 G01 z90
N31680 G00 Y55.000
N31690 G00 Z0.0 X0.000 Y00.000
N31700 G00 Z90.0 X0.000 Y55.000
N31710 (Part: выставка бот2 ƒубликат 452)
N31720 (Operation: Ѕез смещени€, 0, T0: ѕлазма, 0,8 мм прорез)
N31730 (€фч€ыф)
N31740 G01 z90
N31750 G00 Y55.000
N31760 G00 Z0.0 X0.000 Y00.000
N31770 G00 Z90.0 X0.000 Y55.000
N31780 (Part: выставка бот2 ƒубликат 453)
N31790 (Operation: Ѕез смещени€, 0, T0: ѕлазма, 0,8 мм прорез)
N31800 (€фч€ыф)
N31810 G01 z90
N31820 G00 Y55.000
N31830 G00 Z0.0 X0.000 Y00.000
N31840 G00 Z90.0 X0.000 Y55.000
N31850 (Part: выставка бот2 ƒубликат 454)
N31860 (Operation: Ѕез смещени€, 0, T0: ѕлазма, 0,8 мм прорез)
N31870 (€фч€ыф)
N31880 G01 z90
N31890 G00 Y55.000
N31900 G00 Z0.0 X0.000 Y00.000
N31910 G00 Z90.0 X0.000 Y55.000
N31920 (Part: выставка бот2 ƒубликат 455)
N31930 (Operation: Ѕез смещени€, 0, T0: ѕлазма, 0,8 мм прорез)
N31940 (€фч€ыф)
N31950 G01 z90
N31960 G00 Y55.000
N31970 G00 Z0.0 X0.000 Y00.000
N31980 G00 Z90.0 X0.000 Y55.000
N31990 (Part: выставка бот2 ƒубликат 456)
N32000 (Operation: Ѕез смещени€, 0, T0: ѕлазма, 0,8 мм прорез)
N32010 (€фч€ыф)
N32020 G01 z90
N32030 G00 Y55.000
N32040 G00 Z0.0 X0.000 Y00.000
N32050 G00 Z90.0 X0.000 Y55.000
N32060 (Part: выставка бот2 ƒубликат 457)
N32070 (Operation: Ѕез смещени€, 0, T0: ѕлазма, 0,8 мм прорез)
N32080 (€фч€ыф)
N32090 G01 z90
N32100 G00 Y55.000
N32110 G00 Z0.0 X0.000 Y00.000
N32120 G00 Z90.0 X0.000 Y55.000
N32130 (Part: выставка бот2 ƒубликат 458)
N32140 (Operation: Ѕез смещени€, 0, T0: ѕлазма, 0,8 мм прорез)
N32150 (€фч€ыф)
N32160 G01 z90
N32170 G00 Y55.000
N32180 G00 Z0.0 X0.000 Y00.000
N32190 G00 Z90.0 X0.000 Y55.000
N32200 (Part: выставка бот2 ƒубликат 459)
N32210 (Operation: Ѕез смещени€, 0, T0: ѕлазма, 0,8 мм прорез)
N32220 (€фч€ыф)
N32230 G01 z90
N32240 G00 Y55.000
N32250 G00 Z0.0 X0.000 Y00.000
N32260 G00 Z90.0 X0.000 Y55.000
N32270 (Part: выставка бот2 ƒубликат 460)
N32280 (Operation: Ѕез смещени€, 0, T0: ѕлазма, 0,8 мм прорез)
N32290 (€фч€ыф)
N32300 G01 z90
N32310 G00 Y55.000
N32320 G00 Z0.0 X0.000 Y00.000
N32330 G00 Z90.0 X0.000 Y55.000
N32340 (Part: выставка бот2 ƒубликат 461)
N32350 (Operation: Ѕез смещени€, 0, T0: ѕлазма, 0,8 мм прорез)
N32360 (€фч€ыф)
N32370 G01 z90
N32380 G00 Y55.000
N32390 G00 Z0.0 X0.000 Y00.000
N32400 G00 Z90.0 X0.000 Y55.000
N32410 (Part: выставка бот2 ƒубликат 462)
N32420 (Operation: Ѕез смещени€, 0, T0: ѕлазма, 0,8 мм прорез)
N32430 (€фч€ыф)
N32440 G01 z90
N32450 G00 Y55.000
N32460 G00 Z0.0 X0.000 Y00.000
